@KTVE57 Major/@KTVE57 Major.cube
# VEGAS Pro LUT
TITLE "@KTVE57 Major"
LUT_3D_SIZE 5
0.49803922 0.00000000 0.58823532
0.53248799 0.08003371 0.61649406
0.59845889 0.23765689 0.67061085
0.68491489 0.43885261 0.74153173
0.78081876 0.64960396 0.82020289
0.59560132 0.23087774 0.66826671
0.68149924 0.43107316 0.73872983
0.77725106 0.64207566 0.81727630
0.87181979 0.82986826 0.89485216
0.95416820 0.96043408 0.96240360
0.77368182 0.63451594 0.81434840
0.86848962 0.82376516 0.89212036
0.95148313 0.95703906 0.96020103
1.00000000 0.98675156 1.00000000
1.00000000 0.87910062 1.00000000
0.94876719 0.95352215 0.95797306
1.00000000 0.98915195 1.00000000
1.00000000 0.88433236 1.00000000
1.00000000 0.71706676 1.00000000
1.00000000 0.51749241 1.00000000
1.00000000 0.88947952 1.00000000
1.00000000 0.72397733 1.00000000
1.00000000 0.52505761 1.00000000
1.00000000 0.32285768 1.00000000
1.00000000 0.14751472 1.00000000
0.50675297 0.01919774 0.59538335
0.55452210 0.13282642 0.63456893
0.62960517 0.31107488 0.69616055
0.72096521 0.51992625 0.77110428
0.81756502 0.72536355 0.85034633
0.62648696 0.30376673 0.69360262
0.71744376 0.51209491 0.76821560
0.81404632 0.71826053 0.84745991
0.90525764 0.88824660 0.92228168
0.98004049 0.98803622 0.98362696
0.81052035 0.71110857 0.84456748
0.90212554 0.88302839 0.91971236
0.97770834 0.98600316 0.98171389
1.00000000 0.95486027 1.00000000
1.00000000 0.82026851 1.00000000
0.97533959 0.98383081 0.97977072
1.00000000 0.95847094 1.00000000
1.00000000 0.82628775 1.00000000
1.00000000 0.64314902 1.00000000
1.00000000 0.43919203 1.00000000
1.00000000 0.83223808 1.00000000
1.00000000 0.65043998 1.00000000
1.00000000 0.44671488 1.00000000
1.00000000 0.25119999 1.00000000
1.00000000 0.09403253 1.00000000
0.52104175 0.05273406 0.60710460
0.58052677 0.19501275 0.65590090
0.66311765 0.38894156 0.72365117
0.75777727 0.60050356 0.80130172
0.85346860 0.79568189 0.87979847
0.65979773 0.38128632 0.72092783
0.75420898 0.59280235 0.79837453
0.85005784 0.78918612 0.87700057
0.93630731 0.93642068 0.94775212
1.00000000 0.99830133 1.00000000
0.84663415 0.78262383 0.87419206
0.93343234 0.93226922 0.94539374
1.00000000 1.00000000 1.00000000
1.00000000 0.91134191 1.00000000
1.00000000 0.75419027 1.00000000
0.99803746 0.99935400 0.99839008
1.00000000 0.91600168 1.00000000
1.00000000 0.76083589 1.00000000
1.00000000 0.56620502 1.00000000
1.00000000 0.36224630 1.00000000
1.00000000 0.76742810 1.00000000
1.00000000 0.57371515 1.00000000
1.00000000 0.36956567 1.00000000
1.00000000 0.18511678 1.00000000
1.00000000 0.05050579 1.00000000
0.54029381 0.09872359 0.62289733
0.60989028 0.26470733 0.67998815
0.69838446 0.46937153 0.75258100
0.79473931 0.67869925 0.83162212
0.88791764 0.85867357 0.90805745
0.69492197 0.46155113 0.74974072
0.79118317 0.67131001 0.82870495
0.88467395 0.85296696 0.90539658
0.96435714 0.97250503 0.97076172
1.00000000 0.97320044 1.00000000
0.88141155 0.84717625 0.90272039
0.96179825 0.96960235 0.96866262
1.00000000 0.97619426 1.00000000
1.00000000 0.85786682 1.00000000
1.00000000 0.68253624 1.00000000
1.00000000 0.97907007 1.00000000
1.00000000 0.86341453 1.00000000
1.00000000 0.68964708 1.00000000
1.00000000 0.48790506 1.00000000
1.00000000 0.28832561 1.00000000
1.00000000 0.69672006 1.00000000
1.00000000 0.49547324 1.00000000
1.00000000 0.29528025 1.00000000
1.00000000 0.12627839 1.00000000
1.00000000 0.01860484 1.00000000
0.56389743 0.15528096 0.64225966
0.64200091 0.34002477 0.70632887
0.73479402 0.55047941 0.78244823
0.83123958 0.75262791 0.86156374
0.92030054 0.91245335 0.93462151
0.73124790 0.54267579 0.77953929
0.82775468 0.74573261 0.85870498
0.91728288 0.90771776 0.93214607
0.98879534 0.99461442 0.99080867
1.00000000 0.93559343 1.00000000
0.91424078 0.90288055 0.92965066
0.98661160 0.99314237 0.98901737
1.00000000 0.93972111 1.00000000
1.00000000 0.79610533 1.00000000
1.00000000 0.60697687 1.00000000
1.00000000 0.94374645 1.00000000
1.00000000 0.80237979 1.00000000
1.00000000 0.61439168 1.00000000
1.00000000 0.40991947 1.00000000
1.00000000 0.21910027 1.00000000
1.00000000 0.62178427 1.00000000
1.00000000 0.41738448 1.00000000
1.00000000 0.22552903 1.00000000
1.00000000 0.07635513 1.00000000
1.00000000 0.00000000 1.00000000
