@KTVE57 Major/@KTVE57 Major.cube
# VEGAS Pro LUT
TITLE "@KTVE57 Major"
LUT_3D_SIZE 33
0.49803922 0.00000000 0.58823532
0.50024420 0.00459835 0.59004408
0.50309259 0.01087411 0.59238070
0.50656289 0.01876085 0.59522742
0.51063353 0.02819211 0.59856659
0.51528287 0.03910147 0.60238051
0.52048945 0.05142248 0.60665154
0.52623165 0.06508871 0.61136192
0.53248799 0.08003371 0.61649406
0.53923684 0.09619105 0.62203020
0.54645663 0.11349428 0.62795275
0.55412591 0.13187698 0.63424391
0.56222296 0.15127267 0.64088607
0.57072639 0.17161496 0.64786154
0.57961458 0.19283739 0.65515256
0.58886594 0.21487351 0.66274160
0.59845889 0.23765689 0.67061085
0.60837197 0.26112109 0.67874265
0.61858356 0.28519967 0.68711936
0.62907213 0.30982620 0.69572324
0.63981605 0.33493423 0.70453662
0.65079391 0.36045733 0.71354187
0.66198397 0.38632905 0.72272128
0.67336482 0.41248295 0.73205709
0.68491489 0.43885261 0.74153173
0.69661254 0.46537158 0.75112748
0.70843625 0.49197340 0.76082659
0.72036445 0.51859164 0.77061146
0.73237562 0.54515988 0.78046441
0.74444818 0.57161164 0.79036766
0.75656062 0.59788054 0.80030364
0.76869130 0.62390012 0.81025463
0.78081876 0.64960396 0.82020289
0.50297666 0.01061428 0.59228557
0.50642449 0.01844293 0.59511381
0.51047337 0.02781855 0.59843522
0.51510179 0.03867470 0.60223198
0.52028829 0.05094496 0.60648650
0.52601117 0.06456287 0.61118108
0.53224897 0.07946201 0.61629796
0.53898007 0.09557592 0.62181962
0.54618293 0.11283817 0.62772822
0.55383605 0.13118233 0.63400614
0.56191778 0.15054195 0.64063567
0.57040662 0.17085057 0.64759922
0.57928097 0.19204180 0.65487897
0.58851939 0.21404916 0.66245729
0.59810019 0.23680624 0.67031658
0.60800183 0.26024657 0.67843902
0.61820287 0.28430372 0.68680704
0.62868160 0.30891129 0.69540286
0.63941652 0.33400276 0.70420891
0.65038610 0.35951176 0.71320736
0.66156882 0.38537183 0.72238070
0.67294300 0.41151655 0.73171109
0.68448722 0.43787944 0.74118090
0.69617981 0.46439406 0.75077254
0.70799929 0.49099404 0.76046818
0.71992403 0.51761287 0.77025020
0.73193252 0.54418409 0.78010094
0.74400324 0.57064134 0.79000264
0.75611454 0.59691817 0.79993773
0.76824498 0.62294805 0.80988848
0.78037292 0.64866465 0.81983715
0.79247677 0.67400151 0.82976609
0.80453509 0.69889212 0.83965766
0.51031399 0.02744699 0.59830445
0.51492155 0.03824985 0.60208410
0.52008784 0.05046926 0.60632205
0.52579135 0.06403878 0.61100078
0.53201061 0.07889195 0.61610246
0.53872395 0.09496235 0.62160951
0.54590982 0.11218353 0.62750417
0.55354673 0.13048907 0.63376886
0.56161308 0.14981249 0.64038575
0.57008737 0.17008740 0.64733732
0.57894796 0.19124733 0.65460575
0.58817327 0.21322584 0.66217345
0.59774190 0.23595650 0.67002267
0.60763216 0.25937289 0.67813575
0.61782247 0.28340852 0.68649501
0.62829143 0.30799699 0.69508278
0.63901728 0.33307186 0.70388138
0.64997864 0.35856670 0.71287310
0.66115385 0.38441503 0.72204030
0.67252141 0.41055042 0.73136526
0.68405974 0.43690646 0.74083024
0.69574726 0.46341670 0.75041771
0.70756245 0.49001470 0.76010984
0.71948373 0.51663399 0.76988900
0.73148954 0.54320818 0.77973753
0.74355829 0.56967080 0.78963768
0.75566852 0.59595543 0.79957187
0.76779860 0.62199563 0.80952233
0.77992702 0.64772493 0.81947136
0.79203218 0.67307687 0.82940137
0.80409253 0.69798511 0.83929467
0.81608653 0.72238314 0.84913349
0.82799256 0.74620450 0.85890019
0.51988810 0.04999539 0.60615826
0.52557230 0.06351641 0.61082101
0.53177291 0.07832354 0.61590749
0.53846842 0.09435033 0.62139994
0.54563737 0.11153036 0.62728065
0.55325806 0.12979718 0.63353199
0.56130898 0.14908433 0.64013630
0.56976861 0.16932541 0.64707583
0.57861537 0.19045396 0.65433294
0.58782768 0.21240354 0.66188991
0.59738404 0.23510770 0.66972911
0.60726285 0.25850004 0.67783278
0.61744255 0.28251407 0.68618333
0.62790155 0.30708340 0.69476300
0.63861841 0.33214155 0.70355415
0.64957148 0.35762209 0.71253914
0.66073918 0.38345858 0.72170013
0.67210007 0.40958461 0.73101962
0.68363249 0.43593371 0.74047977
0.69531488 0.46243945 0.75006300
0.70712572 0.48903540 0.75975162
0.71904349 0.51565510 0.76952791
0.73104656 0.54223210 0.77937418
0.74311346 0.56870002 0.78927279
0.75522250 0.59499234 0.79920596
0.76735228 0.62104273 0.80915618
0.77948111 0.64678460 0.81910563
0.79158747 0.67215163 0.82903659
0.80364984 0.69707739 0.83893156
0.81564671 0.72149533 0.84877270
0.82755637 0.74533910 0.85854232
0.83935738 0.76854229 0.86822289
0.85102814 0.79103833 0.87779653
0.53153586 0.07775678 0.61571306
0.53821361 0.09373988 0.62119085
0.54536545 0.11087865 0.62705761
0.55296993 0.12910666 0.63329566
0.56100541 0.14835747 0.63988727
0.56945038 0.16856462 0.64681482
0.57828331 0.18966170 0.65406054
0.58748257 0.21158224 0.66160679
0.59702659 0.23425983 0.66943592
0.60689396 0.25762802 0.67753023
0.61706293 0.28162035 0.68587196
0.62751210 0.30617043 0.69444352
0.63821983 0.33121178 0.70322722
0.64916456 0.35667795 0.71220535
0.66032481 0.38250256 0.72136021
0.67167890 0.40861911 0.73067415
0.68320543 0.43496117 0.74012947
0.69488269 0.46146232 0.74970847
0.70668924 0.48805612 0.75939351
0.71860343 0.51467609 0.76916689
0.73060375 0.54125589 0.77901089
0.74266863 0.56772900 0.78890789
0.75477654 0.59402895 0.79884017
0.76690590 0.62008941 0.80879003
0.77903515 0.64584380 0.81873977
0.79114276 0.67122585 0.82867181
0.80320716 0.69616896 0.83856839
0.81520677 0.72060680 0.84841180
0.82712001 0.74447286 0.85818440
0.83892542 0.76770073 0.86786848
0.85060138 0.79022402 0.87744641
0.86212629 0.81197619 0.88690048
0.87347871 0.83289087 0.89621300
0.54509419 0.11022843 0.62683511
0.55268240 0.12841754 0.63305980
0.56070244 0.14763188 0.63963872
0.56913269 0.16780505 0.64655417
0.57795173 0.18887055 0.65378851
0.58713788 0.21076198 0.66132408
0.59666961 0.23341291 0.66914308
0.60652542 0.25675684 0.67722791
0.61668372 0.28072742 0.68556088
0.62712294 0.30525813 0.69412434
0.63782156 0.33028260 0.70290053
0.64875799 0.35573432 0.71187180
0.65991068 0.38154688 0.72102046
0.67125803 0.40765387 0.73032886
0.68277854 0.43398884 0.73977929
0.69445068 0.46048531 0.74935406
0.70625281 0.48707688 0.75903553
0.71816343 0.51369709 0.76880598
0.73016095 0.54027951 0.77864766
0.74222386 0.56675774 0.78854305
0.75433058 0.59306526 0.79847431
0.76645952 0.61913568 0.80842388
0.77858919 0.64490253 0.81837392
0.79069793 0.67029941 0.82830691
0.80276430 0.69525987 0.83820510
0.81476671 0.71971744 0.84805077
0.82668352 0.74360573 0.85782635
0.83849329 0.76685828 0.86751401
0.85017437 0.78940862 0.87709618
0.86170524 0.81119037 0.88655508
0.87306434 0.83213705 0.89587313
0.88423014 0.85218227 0.90503258
0.89518106 0.87125945 0.91401571
0.56039995 0.14690761 0.63939059
0.56881553 0.16704667 0.64629400
0.57762063 0.18808053 0.65351695
0.58679366 0.20994276 0.66104168
0.59631312 0.23256691 0.66885060
0.60615736 0.25588655 0.67692596
0.61630493 0.27983522 0.68525016
0.62673420 0.30434650 0.69380540
0.63742363 0.32935399 0.70257407
0.64835167 0.35479116 0.71153849
0.65949678 0.38059166 0.72068095
0.67083734 0.40668899 0.72998381
0.68235189 0.43301672 0.73942930
0.69401884 0.45950842 0.74899983
0.70581657 0.48609766 0.75867766
0.71772361 0.51271802 0.76844513
0.72971833 0.53930300 0.77828455
0.74177921 0.56578624 0.78817827
0.75388467 0.59210122 0.79810852
0.76601315 0.61818153 0.80805767
0.77814317 0.64396071 0.81800807
0.79025310 0.66937238 0.82794201
0.80232137 0.69435012 0.83784181
0.81432652 0.71882737 0.84768975
0.82624686 0.74273777 0.85746813
0.83806092 0.76601487 0.86715937
0.84974712 0.78859228 0.87674570
0.86128396 0.81040347 0.88620949
0.87264979 0.83138204 0.89553303
0.88382304 0.85146153 0.90469861
0.89478225 0.87057555 0.91368860
0.90550584 0.88865763 0.92248523
0.91597217 0.90564132 0.93107092
0.57729006 0.18729162 0.65324575
0.58644992 0.20912455 0.66075975
0.59595698 0.23172185 0.66855848
0.60578972 0.25501707 0.67662436
0.61592644 0.27894381 0.68493968
0.62634575 0.30343556 0.69348675
0.63702601 0.32842594 0.70224792
0.64794564 0.35384852 0.71120542
0.65908319 0.37963679 0.72034168
0.67041695 0.40572438 0.72963893
0.68192548 0.43204483 0.73907948
0.69358718 0.45853168 0.74864572
0.70538050 0.48511851 0.75831991
0.71728384 0.51173890 0.76808441
0.72927570 0.53832638 0.77792150
0.74133456 0.56481451 0.78781348
0.75343877 0.59113681 0.79774272
0.76556683 0.61722696 0.80769151
0.77769715 0.64301842 0.81764221
0.78980821 0.66844481 0.82757705
0.80187839 0.69343966 0.83747840
0.81388623 0.71793652 0.84732854
0.82581007 0.74186891 0.85710984
0.83762842 0.76517051 0.86680460
0.84931976 0.78777480 0.87639511
0.86086243 0.80961537 0.88586372
0.87223488 0.83062577 0.89519268
0.88341564 0.85073954 0.90436441
0.89438313 0.86989021 0.91336119
0.90511572 0.88801146 0.92216527
0.91559196 0.90503675 0.93075901
0.92579019 0.92089969 0.93912476
0.93568891 0.93553382 0.94724482
0.59560132 0.23087774 0.66826671
0.60542244 0.25414845 0.67632312
0.61554843 0.27805313 0.68462956
0.62595767 0.30252528 0.69316846
0.63662869 0.32749850 0.70192200
0.64753991 0.35290635 0.71087265
0.65866983 0.37868235 0.72000259
0.66999674 0.40476012 0.72929424
0.68149924 0.43107316 0.73872983
0.69315565 0.45755509 0.74829179
0.70494455 0.48413941 0.75796235
0.71684420 0.51075971 0.76772380
0.72883326 0.53734958 0.77755851
0.74088997 0.56384254 0.78744882
0.75299293 0.59017217 0.79737699
0.76512045 0.61627203 0.80732536
0.77725106 0.64207566 0.81727630
0.78936321 0.66751665 0.82721204
0.80143529 0.69252855 0.83711493
0.81344581 0.71704489 0.84696728
0.82537317 0.74099928 0.85675144
0.83719575 0.76432520 0.86644965
0.84889209 0.78695637 0.87604433
0.86044067 0.80882615 0.88551772
0.87181979 0.82986826 0.89485216
0.88300800 0.85001624 0.90402997
0.89398366 0.86920351 0.91303349
0.90472531 0.88736379 0.92184496
0.91521132 0.90443063 0.93044680
0.92542022 0.92033744 0.93882126
0.93533033 0.93501794 0.94695067
0.94492018 0.94840568 0.95481735
0.95416820 0.96043408 0.96240360
0.61517072 0.27716324 0.68431973
0.62556994 0.30161569 0.69285035
0.63623172 0.32657164 0.70159638
0.64713454 0.35196468 0.71054006
0.65825671 0.37772831 0.71966374
0.66957682 0.40379614 0.72894973
0.68107319 0.43010172 0.73838037
0.69272435 0.45657861 0.74793798
0.70450872 0.48316035 0.75760484
0.71640474 0.50978053 0.76736325
0.72839081 0.53637266 0.77719563
0.74044549 0.56287038 0.78708416
0.75254709 0.58920717 0.79701132
0.76467413 0.61531669 0.80695927
0.77680498 0.64113235 0.81691039
0.78891820 0.66658789 0.82684696
0.80099213 0.69161671 0.83675140
0.81300527 0.71615249 0.84660590
0.82493609 0.74012870 0.85639286
0.83676291 0.76347899 0.86609459
0.84846431 0.78613687 0.87569338
0.86001867 0.80803585 0.88517153
0.87140441 0.82910961 0.89451140
0.88260001 0.84929162 0.90369534
0.89358389 0.86851543 0.91270554
0.90433455 0.88671470 0.92152441
0.91483033 0.90382284 0.93013430
0.92504978 0.91977358 0.93851739
0.93497127 0.93450040 0.94665611
0.94457328 0.94793683 0.95453280
0.95383424 0.96001643 0.96212965
0.96273261 0.97067285 0.96942914
0.97124684 0.97983956 0.97641343
0.63583511 0.32564539 0.70127100
0.64672941 0.35102350 0.71020770
0.65784389 0.37677470 0.71932513
0.66915709 0.40283251 0.72860545
0.68064737 0.42913052 0.73803109
0.69229323 0.45560226 0.74758428
0.70407307 0.48218134 0.75724745
0.71596533 0.50880128 0.76700282
0.72794855 0.53539562 0.77683276
0.74000102 0.56189799 0.78671962
0.75210130 0.58824188 0.79664558
0.76422775 0.61436093 0.80659312
0.77635890 0.64018863 0.81654441
0.78847313 0.66565853 0.82648188
0.80054891 0.69070429 0.83638781
0.81256467 0.71525931 0.84624445
0.82449883 0.73925734 0.85603422
0.83632994 0.76263183 0.86573941
0.84803629 0.78531629 0.87534231
0.85959643 0.80724442 0.88482523
0.87098879 0.82834971 0.89417046
0.88219172 0.84856570 0.90336043
0.89318383 0.86782593 0.91237736
0.90394342 0.88606405 0.92120355
0.91444898 0.90321356 0.92982143
0.92467898 0.91920805 0.93821323
0.93461180 0.93398106 0.94636124
0.94422597 0.94746614 0.95424783
0.95349985 0.95959687 0.96185535
0.96241194 0.97030675 0.96916604
0.97094065 0.97952950 0.97616225
0.97906446 0.98719853 0.98282629
0.98676175 0.99324739 0.98914051
0.65743136 0.37582150 0.71898669
0.66873759 0.40186921 0.72826135
0.68022180 0.42815953 0.73768193
0.69186229 0.45462608 0.74723077
0.70363760 0.48120236 0.75689024
0.71552610 0.50782198 0.76664251
0.72750634 0.53441846 0.77647007
0.73955661 0.56092536 0.78635508
0.75165552 0.58727628 0.79627997
0.76378143 0.61340475 0.80622697
0.77591276 0.63924438 0.81617844
0.78802800 0.66472864 0.82611674
0.80010557 0.68979114 0.83602411
0.81212395 0.71436542 0.84588289
0.82406151 0.73838508 0.85567546
0.83589673 0.76178372 0.86538404
0.84760809 0.78449476 0.87499100
0.85917395 0.80645186 0.88447869
0.87057287 0.82758862 0.89382929
0.88178319 0.84783846 0.90302527
0.89278340 0.86713511 0.91204888
0.90355194 0.88541198 0.92088246
0.91406721 0.90260273 0.92950827
0.92430776 0.91864085 0.93790871
0.93425190 0.93345994 0.94606602
0.94387817 0.94699359 0.95396256
0.95316494 0.95917535 0.96158063
0.96209073 0.96993870 0.96890253
0.97063392 0.97921729 0.97591066
0.97877300 0.98694468 0.98258722
0.98648638 0.99305433 0.98891461
0.99375254 0.99747992 0.99487513
1.00000000 0.99953091 1.00000000
0.67979640 0.42718881 0.73733300
0.69143152 0.45365006 0.74687743
0.70320225 0.48022348 0.75653309
0.71508700 0.50684267 0.76628232
0.72706419 0.53344119 0.77610737
0.73911232 0.55995256 0.78599060
0.75120980 0.58631039 0.79591429
0.76333511 0.61244822 0.80586082
0.77546662 0.63829964 0.81581247
0.78758281 0.66379815 0.82575154
0.79966217 0.68887734 0.83566040
0.81168306 0.71347076 0.84552127
0.82362401 0.73751205 0.85531658
0.83546340 0.76093465 0.86502856
0.84717965 0.78367221 0.87463957
0.85875130 0.80565822 0.88413197
0.87015671 0.82682627 0.89348793
0.88137436 0.84710997 0.90268993
0.89238268 0.86644286 0.91172016
0.90316015 0.88475841 0.92056102
0.91368514 0.90199029 0.92919481
0.92393613 0.91807199 0.93760383
0.93389153 0.93293715 0.94577044
0.94352990 0.94651926 0.95367688
0.95282954 0.95875192 0.96130550
0.96176898 0.96956861 0.96863866
0.97032666 0.97890306 0.97565860
0.97848099 0.98668861 0.98234767
0.98621041 0.99285901 0.98868823
0.99349338 0.99734771 0.99466252
1.00000000 0.99973863 1.00000000
1.00000000 0.99336147 1.00000000
1.00000000 0.98550487 1.00000000
0.70276707 0.47924465 0.75617611
0.71464795 0.50586331 0.76592219
0.72662216 0.53246379 0.77574474
0.73866808 0.55897957 0.78562617
0.75076413 0.58534420 0.79554874
0.76288879 0.61149132 0.80549473
0.77502042 0.63735443 0.81544650
0.78713763 0.66286707 0.82538635
0.79921865 0.68796289 0.83529657
0.81124210 0.71257538 0.84515959
0.82318640 0.73663813 0.85495758
0.83502990 0.76008469 0.86467296
0.84675109 0.78284860 0.87428802
0.85832840 0.80486345 0.88378501
0.86974031 0.82606280 0.89314634
0.88096523 0.84638017 0.90235430
0.89198166 0.86574918 0.91139120
0.90276796 0.88410342 0.92023933
0.91330266 0.90137631 0.92888105
0.92356408 0.91750151 0.93729866
0.93353081 0.93241262 0.94547451
0.94318116 0.94604307 0.95339084
0.95249367 0.95832658 0.96103001
0.96144676 0.96919656 0.96837431
0.97001886 0.97858667 0.97540611
0.97818840 0.98643041 0.98210764
0.98593384 0.99266142 0.98846132
0.99323362 0.99721318 0.99444944
1.00000000 0.99994427 1.00000000
1.00000000 0.99362266 1.00000000
1.00000000 0.98581940 1.00000000
1.00000000 0.97659338 1.00000000
1.00000000 0.96600342 1.00000000
0.72618026 0.53148627 0.77538222
0.73822391 0.55800635 0.78526181
0.75031847 0.58437771 0.79518312
0.76244247 0.61053401 0.80512857
0.77457428 0.63640875 0.81508046
0.78669232 0.66193545 0.82502109
0.79877514 0.68704778 0.83493274
0.81080109 0.71167922 0.84479773
0.82274860 0.73576337 0.85459846
0.83459622 0.75923377 0.86431718
0.84632230 0.78202403 0.87393624
0.85790527 0.80406761 0.88343793
0.86932367 0.82529813 0.89280456
0.88055587 0.84564912 0.90201849
0.89158034 0.86505419 0.91106200
0.90237546 0.88344693 0.91991740
0.91291976 0.90076077 0.92856699
0.92319167 0.91692942 0.93699318
0.93316960 0.93188632 0.94517821
0.94283199 0.94556510 0.95310438
0.95215732 0.95789927 0.96075404
0.96112400 0.96882248 0.96810955
0.96971047 0.97826821 0.97515315
0.97789520 0.98616999 0.98186719
0.98565662 0.99246150 0.98823398
0.99297321 0.99707621 0.99423581
0.99982333 0.99994773 0.99985510
1.00000000 0.99388188 1.00000000
1.00000000 0.98613209 1.00000000
1.00000000 0.97695732 1.00000000
1.00000000 0.96641648 1.00000000
1.00000000 0.95456839 1.00000000
1.00000000 0.94147193 1.00000000
0.74987286 0.58341092 0.79481763
0.76199615 0.60957628 0.80476248
0.77412802 0.63546258 0.81471443
0.78624701 0.66100329 0.82465577
0.79833150 0.68613201 0.83456880
0.81035990 0.71078235 0.84443587
0.82231069 0.73488784 0.85423928
0.83416235 0.75838196 0.86396134
0.84589326 0.78119838 0.87358433
0.85748196 0.80327064 0.88309067
0.86890674 0.82453221 0.89246255
0.88014621 0.84491676 0.90168244
0.89117867 0.86435783 0.91073251
0.90198267 0.88278896 0.91959512
0.91253656 0.90014368 0.92825264
0.92281884 0.91635561 0.93668735
0.93280798 0.93135828 0.94488156
0.94248235 0.94508529 0.95281756
0.95182049 0.95747012 0.96047771
0.96080071 0.96844637 0.96784437
0.96940160 0.97794765 0.97489971
0.97760147 0.98590744 0.98162621
0.98537886 0.99225938 0.98800611
0.99271214 0.99693692 0.99402171
0.99957985 0.99987376 0.99965531
1.00000000 0.99413902 1.00000000
1.00000000 0.98644280 1.00000000
1.00000000 0.97731942 1.00000000
1.00000000 0.96682781 1.00000000
1.00000000 0.95502675 1.00000000
1.00000000 0.94197518 1.00000000
1.00000000 0.92773199 1.00000000
1.00000000 0.91235590 1.00000000
0.77368182 0.63451594 0.81434840
0.78580165 0.66007054 0.82429039
0.79788774 0.68521565 0.83420479
0.80991864 0.70988476 0.84407389
0.82187265 0.73401141 0.85387993
0.83372837 0.75752926 0.86360532
0.84546411 0.78037179 0.87323231
0.85705835 0.80247253 0.88274318
0.86848962 0.82376516 0.89212036
0.87973624 0.84418315 0.90134615
0.89077669 0.86366010 0.91040277
0.90158945 0.88212955 0.91927260
0.91215295 0.89952505 0.92793798
0.92244565 0.91578025 0.93638122
0.93244594 0.93082857 0.94458455
0.94213229 0.94460362 0.95253038
0.95148313 0.95703906 0.96020103
0.96047693 0.96806830 0.96757877
0.96909213 0.97762501 0.97464591
0.97730714 0.98564267 0.98138475
0.98510045 0.99205494 0.98777771
0.99245048 0.99679530 0.99380702
0.99933565 0.99979734 0.99945503
1.00000000 0.99439418 1.00000000
1.00000000 0.98675156 1.00000000
1.00000000 0.97767967 1.00000000
1.00000000 0.96723735 1.00000000
1.00000000 0.95548344 1.00000000
1.00000000 0.94247681 1.00000000
1.00000000 0.92827642 1.00000000
1.00000000 0.91294098 1.00000000
1.00000000 0.89652944 1.00000000
1.00000000 0.87910062 1.00000000
0.79744399 0.68429857 0.83384079
0.80947727 0.70898640 0.84371179
0.82143450 0.73313421 0.85352051
0.83329415 0.75667560 0.86324912
0.84503472 0.77954412 0.87288004
0.85663456 0.80167341 0.88239557
0.86807221 0.82299691 0.89177799
0.87932599 0.84344828 0.90100962
0.89037442 0.86296099 0.91007280
0.90119594 0.88146871 0.91894984
0.91176903 0.89890492 0.92762303
0.92207205 0.91520315 0.93607473
0.93208343 0.93029708 0.94428724
0.94178176 0.94412017 0.95224285
0.95114529 0.95660603 0.95992392
0.96015263 0.96768820 0.96731269
0.96878213 0.97730029 0.97439158
0.97701228 0.98537576 0.98114288
0.98482150 0.99184823 0.98754889
0.99218822 0.99665129 0.99359185
0.99909085 0.99971843 0.99925423
1.00000000 0.99464732 1.00000000
1.00000000 0.98705840 1.00000000
1.00000000 0.97803807 1.00000000
1.00000000 0.96764511 1.00000000
1.00000000 0.95593840 1.00000000
1.00000000 0.94297683 1.00000000
1.00000000 0.92881930 1.00000000
1.00000000 0.91352457 1.00000000
1.00000000 0.89715159 1.00000000
1.00000000 0.87975919 1.00000000
1.00000000 0.86140621 1.00000000
1.00000000 0.84215152 1.00000000
0.82099622 0.73225617 0.85316098
0.83285987 0.75582105 0.86289287
0.84460515 0.77871549 0.87252766
0.85621059 0.80087316 0.88204777
0.86765456 0.82222748 0.89143538
0.87891549 0.84271210 0.90067285
0.88997185 0.86226052 0.90974253
0.90080214 0.88080639 0.91862673
0.91138470 0.89828318 0.92730778
0.92169803 0.91462451 0.93576789
0.93172055 0.92976391 0.94398952
0.94143075 0.94363493 0.95195490
0.95080703 0.95617115 0.95964640
0.95982784 0.96730614 0.96704626
0.96847159 0.97697347 0.97413689
0.97671682 0.98510665 0.98090053
0.98454189 0.99163932 0.98731953
0.99192524 0.99650496 0.99337620
0.99884540 0.99963713 0.99905288
1.00000000 0.99489844 1.00000000
1.00000000 0.98736334 1.00000000
1.00000000 0.97839457 1.00000000
1.00000000 0.96805108 1.00000000
1.00000000 0.95639169 1.00000000
1.00000000 0.94347525 1.00000000
1.00000000 0.92936063 1.00000000
1.00000000 0.91410673 1.00000000
1.00000000 0.89777237 1.00000000
1.00000000 0.88041639 1.00000000
1.00000000 0.86209774 1.00000000
1.00000000 0.84287518 1.00000000
1.00000000 0.82280761 1.00000000
1.00000000 0.80195397 1.00000000
0.84417540 0.77788591 0.87217516
0.85578632 0.80007178 0.88169974
0.86723661 0.82145685 0.89109254
0.87850469 0.84197468 0.90033591
0.88956898 0.86155874 0.90941209
0.90040791 0.88014263 0.91830337
0.91100001 0.89765996 0.92699218
0.92132360 0.91404420 0.93546081
0.93135726 0.92922902 0.94369149
0.94107932 0.94314790 0.95166659
0.95046824 0.95573437 0.95936847
0.95950252 0.96692210 0.96677941
0.96816057 0.97664458 0.97388172
0.97642082 0.98483539 0.98065770
0.98426169 0.99142808 0.98708969
0.99166173 0.99635625 0.99316001
0.99859923 0.99955338 0.99885094
1.00000000 0.99514759 1.00000000
1.00000000 0.98766631 1.00000000
1.00000000 0.97874928 1.00000000
1.00000000 0.96845531 1.00000000
1.00000000 0.95684326 1.00000000
1.00000000 0.94397205 1.00000000
1.00000000 0.92990047 1.00000000
1.00000000 0.91468740 1.00000000
1.00000000 0.89839172 1.00000000
1.00000000 0.88107234 1.00000000
1.00000000 0.86278802 1.00000000
1.00000000 0.84359771 1.00000000
1.00000000 0.82356018 1.00000000
1.00000000 0.80273438 1.00000000
1.00000000 0.78117913 1.00000000
1.00000000 0.75895327 1.00000000
0.86681849 0.82068509 0.89074951
0.87809360 0.84123594 0.89999866
0.88916582 0.86085558 0.90908134
0.90001345 0.87947744 0.91797978
0.91061497 0.89703518 0.92667633
0.92094880 0.91346228 0.93515337
0.93099350 0.92869240 0.94339311
0.94072741 0.94265902 0.95137793
0.95012897 0.95529574 0.95909017
0.95917666 0.96653610 0.96651214
0.96784896 0.97631365 0.97362608
0.97612423 0.98456198 0.98041439
0.98398089 0.99121463 0.98685932
0.99139750 0.99620521 0.99294329
0.99835247 0.99946719 0.99864852
1.00000000 0.99539465 1.00000000
1.00000000 0.98796731 1.00000000
1.00000000 0.97910208 1.00000000
1.00000000 0.96885771 1.00000000
1.00000000 0.95729315 1.00000000
1.00000000 0.94446719 1.00000000
1.00000000 0.93043870 1.00000000
1.00000000 0.91526663 1.00000000
1.00000000 0.89900976 1.00000000
1.00000000 0.88172698 1.00000000
1.00000000 0.86347711 1.00000000
1.00000000 0.84431905 1.00000000
1.00000000 0.82431167 1.00000000
1.00000000 0.80351382 1.00000000
1.00000000 0.78198439 1.00000000
1.00000000 0.75978220 1.00000000
1.00000000 0.73696607 1.00000000
1.00000000 0.71359497 1.00000000
0.88876230 0.86015105 0.90875036
0.89961857 0.87881082 0.91765589
0.91022956 0.89640886 0.92636019
0.92057365 0.91287875 0.93484557
0.93062931 0.92815405 0.94309437
0.94037503 0.94216835 0.95108891
0.94978923 0.95485514 0.95881146
0.95885032 0.96614808 0.96624440
0.96753681 0.97598064 0.97337002
0.97582704 0.98428637 0.98017061
0.98369956 0.99099892 0.98662853
0.99113274 0.99605179 0.99272609
0.99810505 0.99937862 0.99844551
1.00000000 0.99563974 1.00000000
1.00000000 0.98826641 1.00000000
1.00000000 0.97945303 1.00000000
1.00000000 0.96925837 1.00000000
1.00000000 0.95774126 1.00000000
1.00000000 0.94496071 1.00000000
1.00000000 0.93097544 1.00000000
1.00000000 0.91584438 1.00000000
1.00000000 0.89962637 1.00000000
1.00000000 0.88238025 1.00000000
1.00000000 0.86416495 1.00000000
1.00000000 0.84503931 1.00000000
1.00000000 0.82506210 1.00000000
1.00000000 0.80429232 1.00000000
1.00000000 0.78278869 1.00000000
1.00000000 0.76061022 1.00000000
1.00000000 0.73781568 1.00000000
1.00000000 0.71446395 1.00000000
1.00000000 0.69061387 1.00000000
