@KTVE57 Major/@KTVE57 Major.cube
# VEGAS Pro LUT
TITLE "@KTVE57 Major"
LUT_3D_SIZE 9
0.49803922 0.00000000 0.58823532
0.51063353 0.02819211 0.59856659
0.53248799 0.08003371 0.61649406
0.56222296 0.15127267 0.64088607
0.59845889 0.23765689 0.67061085
0.63981605 0.33493423 0.70453662
0.68491489 0.43885261 0.74153173
0.73237562 0.54515988 0.78046441
0.78081876 0.64960396 0.82020289
0.53153586 0.07775678 0.61571306
0.56100541 0.14835747 0.63988727
0.59702659 0.23425983 0.66943592
0.63821983 0.33121178 0.70322722
0.68320543 0.43496117 0.74012947
0.73060375 0.54125589 0.77901089
0.77903515 0.64584380 0.81873977
0.82712001 0.74447286 0.85818440
0.87347871 0.83289087 0.89621300
0.59560132 0.23087774 0.66826671
0.63662869 0.32749850 0.70192200
0.68149924 0.43107316 0.73872983
0.72883326 0.53734958 0.77755851
0.77725106 0.64207566 0.81727630
0.82537317 0.74099928 0.85675144
0.87181979 0.82986826 0.89485216
0.91521132 0.90443063 0.93044680
0.95416820 0.96043408 0.96240360
0.67979640 0.42718881 0.73733300
0.72706419 0.53344119 0.77610737
0.77546662 0.63829964 0.81581247
0.82362401 0.73751205 0.85531658
0.87015671 0.82682627 0.89348793
0.91368514 0.90199029 0.92919481
0.95282954 0.95875192 0.96130550
0.98621041 0.99285901 0.98868823
1.00000000 0.98550487 1.00000000
0.77368182 0.63451594 0.81434840
0.82187265 0.73401141 0.85387993
0.86848962 0.82376516 0.89212036
0.91215295 0.89952505 0.92793798
0.95148313 0.95703906 0.96020103
0.98510045 0.99205494 0.98777771
1.00000000 0.98675156 1.00000000
1.00000000 0.94247681 1.00000000
1.00000000 0.87910062 1.00000000
0.86681849 0.82068509 0.89074951
0.91061497 0.89703518 0.92667633
0.95012897 0.95529574 0.95909017
0.98398089 0.99121463 0.98685932
1.00000000 0.98796731 1.00000000
1.00000000 0.94446719 1.00000000
1.00000000 0.88172698 1.00000000
1.00000000 0.80351382 1.00000000
1.00000000 0.71359497 1.00000000
0.94876719 0.95352215 0.95797306
0.98285186 0.99033839 0.98593318
1.00000000 0.98915195 1.00000000
1.00000000 0.94643146 1.00000000
1.00000000 0.88433236 1.00000000
1.00000000 0.80662173 1.00000000
1.00000000 0.71706676 1.00000000
1.00000000 0.61943460 1.00000000
1.00000000 0.51749241 1.00000000
1.00000000 0.99030524 1.00000000
1.00000000 0.94836956 1.00000000
1.00000000 0.88691658 1.00000000
1.00000000 0.80971354 1.00000000
1.00000000 0.72052759 1.00000000
1.00000000 0.62312585 1.00000000
1.00000000 0.52127546 1.00000000
1.00000000 0.41874364 1.00000000
1.00000000 0.31929746 1.00000000
1.00000000 0.88947952 1.00000000
1.00000000 0.81278920 1.00000000
1.00000000 0.72397733 1.00000000
1.00000000 0.62681109 1.00000000
1.00000000 0.52505761 1.00000000
1.00000000 0.42248410 1.00000000
1.00000000 0.32285768 1.00000000
1.00000000 0.22994550 1.00000000
1.00000000 0.14751472 1.00000000
0.50166100 0.00768871 0.59120631
0.51794863 0.04539923 0.60456729
0.54297048 0.10513803 0.62509298
0.57534683 0.18265298 0.65165168
0.61369807 0.27369198 0.68311167
0.65664452 0.37400290 0.71834123
0.70280659 0.47933364 0.75620854
0.75080466 0.58543205 0.79558194
0.79925901 0.68804604 0.83532965
0.54191118 0.10259929 0.62422401
0.57404143 0.17953560 0.65058088
0.61219728 0.27015239 0.68188059
0.65499914 0.37019753 0.71699148
0.70106733 0.47541896 0.75478184
0.74902231 0.58156449 0.79411983
0.79748434 0.68438202 0.83387387
0.84507376 0.77961940 0.87291211
0.89041102 0.86302459 0.91010278
0.61070275 0.26662558 0.68065464
0.65335816 0.36639920 0.71564537
0.69933069 0.47150552 0.75335717
0.74724066 0.57769239 0.79265833
0.79570842 0.68070769 0.83241707
0.84335446 0.77629930 0.87150168
0.88879901 0.86021513 0.90878046
0.93066245 0.92820305 0.94312155
0.96756518 0.97601098 0.97339332
0.69759661 0.46759355 0.75193471
0.74545974 0.57381600 0.79119742
0.79393148 0.67702329 0.83095944
0.84163213 0.77296340 0.87008888
0.88718212 0.85738409 0.90745407
0.92920178 0.92603338 0.94192332
0.96631145 0.97465903 0.97236484
0.99713153 0.99900895 0.99764693
1.00000000 0.97080725 1.00000000
0.79215342 0.67332911 0.82950085
0.83990693 0.76961190 0.86867368
0.88556045 0.85453171 0.90612382
0.92773443 0.92383653 0.94071966
0.96504921 0.97327417 0.97132945
0.99612510 0.99859256 0.99682140
1.00000000 0.97236371 1.00000000
1.00000000 0.92036182 1.00000000
1.00000000 0.85069472 1.00000000
0.88393414 0.85165823 0.90478969
0.92626053 0.92161286 0.93951058
0.96377850 0.97185671 0.97028708
0.99510837 0.99813777 0.99598736
1.00000000 0.97389114 1.00000000
1.00000000 0.92261094 1.00000000
1.00000000 0.85352707 1.00000000
1.00000000 0.77040654 1.00000000
1.00000000 0.67701656 1.00000000
0.96249944 0.97040683 0.96923780
0.99408144 0.99764478 0.99514490
1.00000000 0.97538936 1.00000000
1.00000000 0.92483604 1.00000000
1.00000000 0.85634035 1.00000000
1.00000000 0.77366948 1.00000000
1.00000000 0.68059057 1.00000000
1.00000000 0.58087081 1.00000000
1.00000000 0.47827727 1.00000000
1.00000000 0.97685826 1.00000000
1.00000000 0.92703682 1.00000000
1.00000000 0.85913450 1.00000000
1.00000000 0.77691835 1.00000000
1.00000000 0.68415558 1.00000000
1.00000000 0.58461338 1.00000000
1.00000000 0.48205885 1.00000000
1.00000000 0.38025916 1.00000000
1.00000000 0.28298146 1.00000000
1.00000000 0.86190927 1.00000000
1.00000000 0.78015298 1.00000000
1.00000000 0.68771148 1.00000000
1.00000000 0.58835191 1.00000000
1.00000000 0.48584145 1.00000000
1.00000000 0.38394725 1.00000000
1.00000000 0.28643641 1.00000000
1.00000000 0.19707616 1.00000000
1.00000000 0.11963359 1.00000000
0.50675297 0.01919774 0.59538335
0.52653342 0.06580855 0.61160952
0.55452210 0.13282642 0.63456893
0.58933920 0.21599923 0.66312981
0.62960517 0.31107488 0.69616055
0.67394042 0.41380125 0.73252928
0.72096521 0.51992625 0.77110428
0.76929998 0.62519771 0.81075388
0.81756502 0.72536355 0.85034633
0.55336297 0.13004860 0.63361806
0.58795333 0.21270244 0.66199297
0.62804329 0.30741554 0.69487929
0.67225325 0.40993577 0.73114526
0.71920353 0.51601106 0.76965916
0.76751459 0.62138927 0.80928928
0.81580663 0.72181827 0.84890389
0.86270010 0.81304592 0.88737118
0.90681541 0.89082021 0.92355949
0.62648696 0.30376673 0.69360262
0.67056978 0.40607512 0.72976428
0.71744376 0.51209491 0.76821560
0.76572913 0.61757410 0.80782467
0.81404632 0.71826053 0.84745991
0.86101574 0.80990207 0.88598949
0.90525764 0.88824660 0.92228168
0.94539243 0.94904202 0.95520473
0.98004049 0.98803622 0.98362696
0.71568584 0.50817811 0.76677352
0.76394373 0.61375248 0.80636013
0.81228423 0.71469057 0.84601438
0.85932761 0.80674022 0.88460469
0.90369433 0.88564926 0.92099929
0.94400465 0.94716567 0.95406634
0.97887903 0.98703724 0.98267424
1.00000000 0.99300212 1.00000000
1.00000000 0.95301425 1.00000000
0.81052035 0.71110857 0.84456748
0.85763592 0.80356055 0.88321698
0.90212554 0.88302839 0.91971236
0.94260955 0.94525999 0.95292193
0.97770834 0.98600316 0.98171389
1.00000000 0.99404573 1.00000000
1.00000000 0.95486027 1.00000000
1.00000000 0.89567882 1.00000000
1.00000000 0.82026851 1.00000000
0.90055132 0.88038415 0.91842103
0.94120717 0.94332522 0.95177150
0.97652853 0.98493427 0.98074603
1.00000000 0.99505723 1.00000000
1.00000000 0.95667922 1.00000000
1.00000000 0.89816666 1.00000000
1.00000000 0.82328665 1.00000000
1.00000000 0.73580635 1.00000000
1.00000000 0.63949293 1.00000000
0.97533959 0.98383081 0.97977072
1.00000000 0.99603635 1.00000000
1.00000000 0.95847094 1.00000000
1.00000000 0.90063238 1.00000000
1.00000000 0.82628775 1.00000000
1.00000000 0.73920429 1.00000000
1.00000000 0.64314902 1.00000000
1.00000000 0.54188925 1.00000000
1.00000000 0.43919203 1.00000000
1.00000000 0.96023524 1.00000000
1.00000000 0.90307575 1.00000000
1.00000000 0.82927161 1.00000000
1.00000000 0.74259001 1.00000000
1.00000000 0.64679813 1.00000000
1.00000000 0.54566306 1.00000000
1.00000000 0.44295198 1.00000000
1.00000000 0.34243202 1.00000000
1.00000000 0.24787039 1.00000000
1.00000000 0.83223808 1.00000000
1.00000000 0.74596345 1.00000000
1.00000000 0.65043998 1.00000000
1.00000000 0.54943472 1.00000000
1.00000000 0.44671488 1.00000000
1.00000000 0.34604758 1.00000000
1.00000000 0.25119999 1.00000000
1.00000000 0.16593926 1.00000000
1.00000000 0.09403253 1.00000000
0.51323873 0.03429142 0.60070366
0.53631145 0.08918439 0.61963052
0.56706631 0.16286321 0.64485914
0.60412365 0.25107577 0.67525774
0.64610386 0.34956998 0.70969462
0.69162732 0.45409369 0.74703801
0.73931426 0.56039476 0.78615624
0.78778517 0.66422117 0.82591754
0.83566040 0.76132071 0.86519015
0.56581473 0.15986907 0.64383245
0.60266471 0.24762230 0.67406088
0.64448822 0.34581357 0.70836926
0.68990576 0.45019081 0.74562579
0.73753756 0.55650187 0.78469878
0.78600407 0.66049463 0.82445651
0.83392566 0.75791693 0.86376715
0.87992263 0.84451681 0.90149903
0.92261535 0.91604197 0.93652040
0.64287746 0.34206554 0.70704794
0.68818718 0.44629052 0.74421608
0.73576200 0.55260575 0.78324229
0.78422225 0.65675914 0.82299483
0.83218831 0.75449860 0.86234200
0.87828052 0.84157187 0.90015197
0.92111921 0.91372699 0.93529314
0.95932484 0.96671182 0.96663368
0.99151766 0.99627411 0.99304187
0.73398763 0.54870677 0.78178674
0.78243971 0.65301502 0.82153261
0.83044839 0.75106573 0.86091471
0.87663400 0.83860683 0.89880133
0.91961688 0.91138607 0.93406069
0.95801735 0.96515149 0.96556115
0.99045587 0.99565089 0.99217081
1.00000000 0.98033786 1.00000000
1.00000000 0.93233466 1.00000000
0.82870609 0.74761873 0.85948545
0.87498319 0.83562177 0.89744711
0.91810828 0.90901947 0.93282324
0.95670182 0.96355969 0.96448195
0.98938411 0.99499035 0.99129164
1.00000000 0.98170382 1.00000000
1.00000000 0.93445009 1.00000000
1.00000000 0.86863667 1.00000000
1.00000000 0.78803074 1.00000000
0.91659361 0.90662730 0.93158072
0.95537829 0.96193659 0.96339625
0.98830247 0.99429280 0.99040437
1.00000000 0.98303950 1.00000000
1.00000000 0.93654042 1.00000000
1.00000000 0.87134308 1.00000000
1.00000000 0.79121459 1.00000000
1.00000000 0.69992214 1.00000000
1.00000000 0.60123283 1.00000000
0.98721105 0.99355841 0.98950905
1.00000000 0.98434478 1.00000000
1.00000000 0.93860549 1.00000000
1.00000000 0.87402928 1.00000000
1.00000000 0.79438335 1.00000000
1.00000000 0.70343482 1.00000000
1.00000000 0.60495090 1.00000000
1.00000000 0.50269872 1.00000000
1.00000000 0.40044543 1.00000000
1.00000000 0.94064498 1.00000000
1.00000000 0.87669504 1.00000000
1.00000000 0.79753679 1.00000000
1.00000000 0.70693737 1.00000000
1.00000000 0.60866392 1.00000000
1.00000000 0.50648361 1.00000000
1.00000000 0.40416360 1.00000000
1.00000000 0.30547106 1.00000000
1.00000000 0.21417309 1.00000000
1.00000000 0.80067474 1.00000000
1.00000000 0.71042949 1.00000000
1.00000000 0.61237162 1.00000000
1.00000000 0.51026827 1.00000000
1.00000000 0.40788668 1.00000000
1.00000000 0.30899394 1.00000000
1.00000000 0.21735719 1.00000000
1.00000000 0.13674361 1.00000000
1.00000000 0.07092034 1.00000000
0.52104175 0.05273406 0.60710460
0.54720622 0.11529107 0.62856764
0.58052677 0.19501275 0.65590090
0.61962378 0.28764695 0.68797266
0.66311765 0.38894156 0.72365117
0.70962870 0.49464446 0.76180482
0.75777727 0.60050356 0.80130172
0.80618382 0.70226675 0.84101015
0.85346860 0.79568189 0.87979847
0.57919014 0.19182502 0.65480441
0.61809909 0.28405952 0.68672192
0.66145563 0.38511086 0.72228783
0.70788014 0.49072695 0.76037043
0.75599289 0.59665561 0.79983795
0.80441439 0.69864482 0.83955866
0.85176486 0.79244238 0.87840086
0.89666474 0.87379628 0.91523284
0.93773443 0.93845427 0.94892275
0.65979773 0.38128632 0.72092783
0.70613384 0.48680982 0.75893790
0.75420898 0.59280235 0.79837453
0.80264354 0.69501179 0.83810604
0.85005784 0.78918612 0.87700057
0.89507234 0.87107307 0.91392654
0.93630731 0.93642068 0.94775212
0.97238320 0.98097670 0.97734559
1.00000000 0.99830133 1.00000000
0.75242549 0.58894396 0.79691154
0.80087125 0.69136792 0.83665222
0.84834760 0.78591317 0.87559766
0.89347482 0.86832756 0.91261607
0.93487328 0.93435889 0.94657576
0.97116339 0.97975522 0.97634494
1.00000000 0.99916726 1.00000000
1.00000000 0.96444821 1.00000000
1.00000000 0.90897715 1.00000000
0.84663415 0.78262383 0.87419206
0.89187223 0.86555982 0.91130143
0.93343234 0.93226922 0.94539374
0.96993482 0.97850001 0.97533715
1.00000000 1.00000000 1.00000000
1.00000000 0.96611625 1.00000000
1.00000000 0.91134191 1.00000000
1.00000000 0.83944422 1.00000000
1.00000000 0.75419027 1.00000000
0.93198454 0.93015182 0.94420606
0.96869749 0.97721136 0.97432220
0.99902397 0.99969649 0.99919933
1.00000000 0.96775597 1.00000000
1.00000000 0.91368347 1.00000000
1.00000000 0.84234899 1.00000000
1.00000000 0.75751966 1.00000000
1.00000000 0.66296268 1.00000000
1.00000000 0.56244510 1.00000000
0.99803746 0.99935400 0.99839008
1.00000000 0.96936733 1.00000000
1.00000000 0.91600168 1.00000000
1.00000000 0.84523553 1.00000000
1.00000000 0.76083589 1.00000000
1.00000000 0.66657001 1.00000000
1.00000000 0.56620502 1.00000000
1.00000000 0.46350807 1.00000000
1.00000000 0.36224630 1.00000000
1.00000000 0.91829634 1.00000000
1.00000000 0.84810358 1.00000000
1.00000000 0.76413876 1.00000000
1.00000000 0.67016912 1.00000000
1.00000000 0.56996179 1.00000000
1.00000000 0.46728387 1.00000000
1.00000000 0.36590257 1.00000000
1.00000000 0.26958501 1.00000000
1.00000000 0.18209836 1.00000000
1.00000000 0.76742810 1.00000000
1.00000000 0.67375982 1.00000000
1.00000000 0.57371515 1.00000000
1.00000000 0.47106141 1.00000000
1.00000000 0.36956567 1.00000000
1.00000000 0.27299505 1.00000000
1.00000000 0.18511678 1.00000000
1.00000000 0.10969798 1.00000000
1.00000000 0.05050579 1.00000000
0.53008562 0.07429001 0.61452341
0.55914122 0.14389294 0.63835806
0.59482688 0.22903933 0.66763145
0.63576305 0.32547703 0.70121187
0.68057001 0.42895395 0.73796755
0.72786814 0.53521794 0.77676684
0.77627778 0.64001697 0.81647789
0.82441932 0.73909879 0.85596901
0.87091315 0.82821143 0.89410847
0.59341258 0.22568077 0.66647124
0.63418001 0.32177842 0.69991326
0.67886901 0.42507169 0.73657221
0.72609991 0.53130853 0.77531636
0.77449316 0.63623673 0.81501389
0.82266903 0.73560423 0.85453320
0.86924785 0.82515895 0.89274240
0.91285014 0.90064871 0.92850989
0.95209610 0.95782143 0.96070385
0.67717141 0.42119342 0.73517972
0.72433329 0.52739727 0.77386713
0.77270818 0.63244897 0.81354970
0.82091647 0.73209643 0.85309559
0.86757857 0.82208747 0.89137304
0.91131479 0.89816999 0.92725039
0.95074546 0.95609188 0.95959586
0.98449099 0.99160105 0.98727775
1.00000000 0.98741859 1.00000000
0.77092302 0.62865394 0.81208527
0.81916189 0.72857553 0.85165626
0.86590528 0.81899714 0.89000046
0.90977359 0.89566672 0.92598617
0.94938713 0.95433205 0.95848161
0.98336625 0.99074113 0.98635513
1.00000000 0.98861736 1.00000000
1.00000000 0.94554186 1.00000000
1.00000000 0.88315070 1.00000000
0.86422813 0.81588823 0.88862467
0.90822667 0.89313906 0.92471719
0.94802111 0.95254213 0.95736110
0.98223197 0.98984528 0.98542470
1.00000000 0.98978496 1.00000000
1.00000000 0.94749188 1.00000000
1.00000000 0.88574457 1.00000000
1.00000000 0.80831015 1.00000000
1.00000000 0.71895581 1.00000000
0.94664758 0.95072222 0.95623440
0.98108834 0.98891377 0.98448652
1.00000000 0.99092108 1.00000000
1.00000000 0.94941556 1.00000000
1.00000000 0.88831723 1.00000000
1.00000000 0.81139320 1.00000000
1.00000000 0.72241062 1.00000000
1.00000000 0.62513673 1.00000000
1.00000000 0.52333856 1.00000000
1.00000000 0.99202561 1.00000000
1.00000000 0.95131272 1.00000000
1.00000000 0.89086843 1.00000000
1.00000000 0.81445992 1.00000000
1.00000000 0.72585422 1.00000000
1.00000000 0.62881857 1.00000000
1.00000000 0.52712017 1.00000000
1.00000000 0.42452604 1.00000000
1.00000000 0.32480344 1.00000000
1.00000000 0.89339805 1.00000000
1.00000000 0.81751007 1.00000000
1.00000000 0.72928637 1.00000000
1.00000000 0.63249415 1.00000000
1.00000000 0.53090048 1.00000000
1.00000000 0.42827260 1.00000000
1.00000000 0.32837760 1.00000000
1.00000000 0.23498268 1.00000000
1.00000000 0.15185498 1.00000000
1.00000000 0.73270696 1.00000000
1.00000000 0.63616318 1.00000000
1.00000000 0.53467947 1.00000000
1.00000000 0.43202287 1.00000000
1.00000000 0.33196059 1.00000000
1.00000000 0.23825978 1.00000000
1.00000000 0.15468758 1.00000000
1.00000000 0.08501118 1.00000000
1.00000000 0.03299770 1.00000000
0.54029381 0.09872359 0.62289733
0.57204002 0.17475434 0.64893907
0.60989028 0.26470733 0.67998815
0.65246499 0.36433041 0.71491271
0.69838446 0.46937153 0.75258100
0.74626911 0.57557851 0.79186141
0.79473931 0.67869925 0.83162212
0.84241539 0.77448165 0.87073135
0.88791764 0.85867357 0.90805745
0.60840565 0.26120064 0.67877024
0.65083098 0.36054331 0.71357232
0.69665188 0.46546042 0.75115973
0.74448866 0.57169986 0.79040086
0.79296178 0.67500949 0.83016396
0.84069145 0.77113724 0.86931723
0.88629818 0.85583091 0.90672898
0.92840225 0.92483842 0.94126749
0.96562403 0.97390771 0.97180092
0.69492197 0.46155113 0.74974072
0.74270904 0.56781727 0.78894103
0.79118317 0.67131001 0.82870495
0.83896470 0.76777732 0.86790073
0.88467395 0.85296696 0.90539658
0.92693132 0.92262691 0.94006085
0.96435714 0.97250503 0.97076172
0.99557179 0.99834925 0.99636751
1.00000000 0.97320044 1.00000000
0.78940368 0.66760105 0.82724524
0.83723509 0.76440209 0.86648196
0.88304508 0.85008204 0.90406042
0.92545384 0.92038864 0.93884885
0.96308190 0.97106987 0.96971560
0.99454951 0.99787360 0.99552888
1.00000000 0.97471201 1.00000000
1.00000000 0.92382765 1.00000000
1.00000000 0.85506392 1.00000000
0.88141155 0.84717625 0.90272039
0.92396992 0.91812378 0.93763161
0.96179825 0.96960235 0.96866262
0.99351698 0.99735987 0.99468189
1.00000000 0.97619426 1.00000000
1.00000000 0.92603952 1.00000000
1.00000000 0.85786682 1.00000000
1.00000000 0.77544338 1.00000000
1.00000000 0.68253624 1.00000000
0.96050638 0.96810275 0.96760291
0.99247432 0.99680829 0.99382657
1.00000000 0.97764701 1.00000000
1.00000000 0.92822695 1.00000000
1.00000000 0.86065042 1.00000000
1.00000000 0.77868450 1.00000000
1.00000000 0.68609631 1.00000000
1.00000000 0.58665311 1.00000000
1.00000000 0.48412198 1.00000000
1.00000000 0.97907007 1.00000000
1.00000000 0.93038988 1.00000000
1.00000000 0.86341453 1.00000000
1.00000000 0.78191119 1.00000000
1.00000000 0.68964708 1.00000000
1.00000000 0.59038931 1.00000000
1.00000000 0.48790506 1.00000000
1.00000000 0.38596144 1.00000000
1.00000000 0.28832561 1.00000000
1.00000000 0.86615896 1.00000000
1.00000000 0.78512341 1.00000000
1.00000000 0.69318843 1.00000000
1.00000000 0.59412122 1.00000000
1.00000000 0.49168888 1.00000000
1.00000000 0.38965860 1.00000000
1.00000000 0.29179758 1.00000000
1.00000000 0.20187289 1.00000000
1.00000000 0.12365172 1.00000000
1.00000000 0.69672006 1.00000000
1.00000000 0.59784847 1.00000000
1.00000000 0.49547324 1.00000000
1.00000000 0.39336142 1.00000000
1.00000000 0.29528025 1.00000000
1.00000000 0.20499685 1.00000000
1.00000000 0.12627839 1.00000000
1.00000000 0.06289200 1.00000000
1.00000000 0.01860484 1.00000000
0.55158991 0.12579913 0.63216364
0.58582616 0.20763956 0.66024804
0.62564045 0.30178103 0.69290817
0.66965312 0.40397140 0.72901237
0.71648461 0.50995857 0.76742882
0.76475525 0.61549038 0.80702579
0.81308538 0.71631479 0.84667164
0.86009538 0.80817962 0.88523453
0.90440559 0.88683283 0.92158276
0.62409288 0.29814899 0.69163871
0.66797554 0.40011856 0.72763622
0.71472776 0.50604141 0.76598763
0.76296991 0.61166531 0.80556124
0.81132233 0.71273822 0.84522533
0.85840529 0.80500805 0.88384813
0.90283930 0.88422263 0.92029786
0.94324464 0.94612980 0.95344287
0.97824162 0.98647755 0.98215133
0.71297294 0.50212383 0.76454812
0.76118475 0.60783410 0.80409688
0.80955750 0.70914978 0.84377766
0.85671163 0.80181879 0.88245881
0.90126753 0.88158894 0.91900855
0.94184554 0.94420820 0.95229512
0.97706592 0.98542446 0.98118693
1.00000000 0.99460149 1.00000000
1.00000000 0.95585579 1.00000000
0.80779105 0.70554960 0.84232861
0.85501444 0.79861206 0.88106656
0.89969039 0.87893212 0.91771477
0.94043916 0.94225770 0.95114148
0.97588110 0.98433667 0.98021495
1.00000000 0.99559534 1.00000000
1.00000000 0.95765996 1.00000000
1.00000000 0.89951438 1.00000000
1.00000000 0.82492572 1.00000000
0.89810795 0.87625229 0.91641665
0.93902558 0.94027841 0.94998193
0.97468728 0.98321438 0.97923565
1.00000000 0.99655670 1.00000000
1.00000000 0.95943671 1.00000000
1.00000000 0.90196788 1.00000000
1.00000000 0.82791746 1.00000000
1.00000000 0.74105257 1.00000000
1.00000000 0.64514035 1.00000000
0.97348440 0.98205775 0.97824895
1.00000000 0.99748546 1.00000000
1.00000000 0.96118593 1.00000000
1.00000000 0.90439898 1.00000000
1.00000000 0.83089185 1.00000000
1.00000000 0.74443161 1.00000000
1.00000000 0.64878547 1.00000000
1.00000000 0.54772061 1.00000000
1.00000000 0.44500411 1.00000000
1.00000000 0.96290743 1.00000000
1.00000000 0.90680748 1.00000000
1.00000000 0.83384871 1.00000000
1.00000000 0.74779826 1.00000000
1.00000000 0.65242332 1.00000000
1.00000000 0.55149102 1.00000000
1.00000000 0.44876856 1.00000000
1.00000000 0.34802303 1.00000000
1.00000000 0.25302163 1.00000000
1.00000000 0.83678782 1.00000000
1.00000000 0.75115228 1.00000000
1.00000000 0.65605366 1.00000000
1.00000000 0.55525905 1.00000000
1.00000000 0.45253569 1.00000000
1.00000000 0.35165069 1.00000000
1.00000000 0.25637120 1.00000000
1.00000000 0.17046440 1.00000000
1.00000000 0.09769741 1.00000000
1.00000000 0.65967625 1.00000000
1.00000000 0.55902445 1.00000000
1.00000000 0.45630530 1.00000000
1.00000000 0.35528594 1.00000000
1.00000000 0.25973347 1.00000000
1.00000000 0.17341511 1.00000000
1.00000000 0.10009797 1.00000000
1.00000000 0.04354922 1.00000000
1.00000000 0.00753601 1.00000000
0.56389743 0.15528096 0.64225966
0.60042316 0.24231295 0.67222214
0.64200091 0.34002477 0.70632887
0.68725109 0.44416431 0.74344814
0.73479402 0.55047941 0.78244823
0.78325003 0.65471798 0.82219732
0.83123958 0.75262791 0.86156374
0.87738293 0.83995706 0.89941573
0.92030054 0.91245335 0.93462151
0.64039779 0.33629009 0.70501381
0.68553728 0.44026849 0.74204230
0.73302031 0.54657888 0.78099322
0.78146720 0.65096921 0.82073480
0.82949835 0.74918729 0.86013538
0.87573409 0.83698106 0.89806312
0.91879481 0.91009837 0.93338633
0.95730078 0.96428710 0.96497333
0.98987252 0.99529517 0.99169230
0.73124790 0.54267579 0.77953929
0.77968377 0.64721209 0.81927186
0.82775468 0.74573261 0.85870498
0.87408090 0.83398521 0.89670700
0.91728288 0.90771776 0.93214607
0.95598090 0.96267825 0.96389055
0.98879534 0.99461442 0.99080867
1.00000000 0.98243612 1.00000000
1.00000000 0.93559343 1.00000000
0.82600862 0.74226397 0.85727274
0.87242353 0.83096963 0.89534742
0.91576487 0.90531176 0.93090087
0.95465302 0.96103817 0.96280128
0.98770839 0.99389678 0.98991704
1.00000000 0.98375523 1.00000000
1.00000000 0.93766993 1.00000000
1.00000000 0.87281078 1.00000000
1.00000000 0.79294491 1.00000000
0.91424078 0.90288055 0.92965066
0.95331722 0.95936716 0.96170557
0.98661160 0.99314237 0.98901737
1.00000000 0.98504388 1.00000000
1.00000000 0.93972111 1.00000000
1.00000000 0.87548590 1.00000000
1.00000000 0.79610533 1.00000000
1.00000000 0.70534658 1.00000000
1.00000000 0.60697687 1.00000000
0.98550516 0.99235153 0.98810971
1.00000000 0.98630178 1.00000000
1.00000000 0.94174665 1.00000000
1.00000000 0.87814045 1.00000000
1.00000000 0.79925030 1.00000000
1.00000000 0.70884347 1.00000000
1.00000000 0.61068696 1.00000000
1.00000000 0.50854802 1.00000000
1.00000000 0.40619379 1.00000000
1.00000000 0.94374645 1.00000000
1.00000000 0.88077432 1.00000000
1.00000000 0.80237979 1.00000000
1.00000000 0.71232980 1.00000000
1.00000000 0.61439168 1.00000000
1.00000000 0.51233250 1.00000000
1.00000000 0.40991947 1.00000000
1.00000000 0.31091964 1.00000000
1.00000000 0.21910027 1.00000000
1.00000000 0.80549341 1.00000000
1.00000000 0.71580553 1.00000000
1.00000000 0.61809087 1.00000000
1.00000000 0.51611656 1.00000000
1.00000000 0.41364977 1.00000000
1.00000000 0.31445763 1.00000000
1.00000000 0.22230734 1.00000000
1.00000000 0.14096601 1.00000000
1.00000000 0.07420082 1.00000000
1.00000000 0.62178427 1.00000000
1.00000000 0.51989990 1.00000000
1.00000000 0.41738448 1.00000000
1.00000000 0.31800514 1.00000000
1.00000000 0.22552903 1.00000000
1.00000000 0.14372331 1.00000000
1.00000000 0.07635513 1.00000000
1.00000000 0.02719164 1.00000000
1.00000000 0.00000000 1.00000000
