NTT763G Map/NTT763G Map.cube
# VEGAS Pro LUT
TITLE "NTT763G Map"
LUT_3D_SIZE 5
0.00000000 0.00000000 1.00000000
0.00000000 0.07610150 0.92389852
0.00000000 0.22469285 0.77530712
0.00000000 0.41590431 0.58409566
0.00000000 0.61986619 0.38013384
0.00000000 0.21828824 0.78171176
0.00000000 0.40846097 0.59153903
0.00000000 0.61248296 0.38751704
0.00000000 0.80048454 0.19951548
0.00000000 0.94259584 0.05740415
0.00000000 0.60507810 0.39492190
0.00000000 0.79419827 0.20580176
0.00000000 0.93852711 0.06147291
0.02623153 0.99358302 0.00641698
0.16920885 0.90452009 0.09547988
0.00000000 0.93435729 0.06564273
0.02194515 0.99499106 0.00500895
0.16317570 0.90933013 0.09066988
0.34116858 0.74770898 0.25229099
0.53366828 0.54441214 0.45558789
0.15719230 0.91403729 0.08596268
0.33422703 0.75460327 0.24539673
0.52658731 0.55223215 0.44776785
0.71201771 0.34120840 0.65879160
0.86826259 0.15581642 0.84418356
0.00000000 0.01856396 0.98143601
0.00000000 0.12582693 0.87417310
0.00000000 0.29419127 0.70580876
0.00000000 0.49378726 0.50621271
0.00000000 0.69474518 0.30525482
0.00000000 0.28726101 0.71273899
0.00000000 0.48623726 0.51376277
0.00000000 0.68767428 0.31232572
0.00000000 0.86170244 0.13829757
0.00000000 0.97845191 0.02154811
0.00000000 0.68056631 0.31943369
0.00000000 0.85613203 0.14386800
0.00000000 0.97551793 0.02448205
0.07508859 0.97061878 0.02938122
0.23439524 0.84903145 0.15096854
0.00000000 0.97246754 0.02753246
0.07003964 0.97347265 0.02652734
0.22791167 0.85480642 0.14519359
0.41406065 0.67325163 0.32674837
0.60623103 0.46309274 0.53690726
0.22146639 0.86049622 0.13950375
0.40696940 0.68064761 0.31935236
0.59931260 0.47093362 0.52906638
0.77624047 0.26563859 0.73436141
0.91549742 0.09904702 0.90095299
0.00000000 0.05035216 0.94964784
0.00000000 0.18443449 0.81556553
0.00000000 0.36822975 0.63177025
0.00000000 0.57186818 0.42813179
0.00000000 0.76548010 0.23451988
0.00000000 0.36093357 0.63906646
0.00000000 0.56437123 0.43562877
0.00000000 0.75888127 0.24111876
0.00000000 0.91459388 0.08540613
0.00383722 0.99942660 0.00057342
0.00000000 0.75222987 0.24777013
0.00000000 0.90989906 0.09010095
0.00000000 1.00000000 0.00000000
0.13117240 0.93371212 0.06628789
0.30357313 0.78458422 0.21541579
0.00000000 0.99822873 0.00177125
0.12547991 0.93782848 0.06217152
0.29675820 0.79114074 0.20885924
0.48782805 0.59463614 0.40536386
0.67643392 0.38259909 0.61740094
0.28997004 0.79762989 0.20237012
0.48070610 0.60235053 0.39764944
0.66979694 0.39027748 0.60972255
0.83498710 0.19569504 0.80430496
0.95402098 0.05288769 0.94711232
0.00000000 0.09370910 0.90629089
0.00000000 0.25026870 0.74973130
0.00000000 0.44515279 0.55484724
0.00000000 0.64849162 0.35150841
0.00000000 0.83041543 0.16958460
0.00000000 0.43765044 0.56234956
0.00000000 0.64120746 0.35879257
0.00000000 0.82444829 0.17555168
0.00000000 0.95750338 0.04249665
0.04839527 0.98456371 0.01543629
0.00000000 0.81841332 0.18158670
0.00000000 0.95384389 0.04615613
0.04373284 0.98667949 0.01332053
0.19324948 0.88476318 0.11523681
0.37550905 0.71307856 0.28692144
0.03914485 0.98865438 0.01134560
0.18703246 0.88995868 0.11004130
0.36848176 0.72023332 0.27976665
0.56123722 0.51376277 0.48623726
0.74304336 0.30483136 0.69516861
0.36146978 0.72733843 0.27266160
0.55420363 0.52161217 0.47838780
0.73680693 0.31216389 0.68783611
0.88702410 0.13327788 0.86672211
0.98259968 0.01923862 0.98076135
0.00000000 0.14697926 0.85302073
0.00000000 0.32167405 0.67832595
0.00000000 0.52330488 0.47669515
0.00000000 0.72200197 0.27799806
0.00000000 0.88789558 0.11210444
0.00000000 0.51575607 0.48424393
0.00000000 0.71509033 0.28490967
0.00000000 0.88271999 0.11728001
0.00000000 0.98877537 0.01122465
0.10082930 0.95475829 0.04524170
0.00000000 0.87746108 0.12253892
0.00000000 0.98631096 0.01368905
0.09546068 0.95823306 0.04176695
0.26008633 0.82567221 0.17432778
0.44896951 0.63641471 0.36358532
0.09015501 0.96158469 0.03841533
0.25346377 0.83176351 0.16823648
0.44184887 0.64398438 0.35601562
0.63305479 0.43253165 0.56746835
0.80482596 0.23168975 0.76831025
0.43473208 0.65152204 0.34847799
0.62622851 0.44033277 0.55966723
0.79910898 0.23849307 0.76150692
0.93111801 0.08028734 0.91971266
1.00000000 0.00000000 1.00000000
