NTT763G Map/NTT763G Map.cube
# VEGAS Pro LUT
TITLE "NTT763G Map"
LUT_3D_SIZE 33
0.00000000 0.00000000 1.00000000
0.00000000 0.00452746 0.99547255
0.00000000 0.01059595 0.98940402
0.00000000 0.01814713 0.98185289
0.00000000 0.02712266 0.97287732
0.00000000 0.03746421 0.96253580
0.00000000 0.04911342 0.95088661
0.00000000 0.06201196 0.93798804
0.00000000 0.07610150 0.92389852
0.00000000 0.09132370 0.90867633
0.00000000 0.10762020 0.89237982
0.00000000 0.12493268 0.87506729
0.00000000 0.14320281 0.85679722
0.00000000 0.16237222 0.83762777
0.00000000 0.18238260 0.81761742
0.00000000 0.20317559 0.79682440
0.00000000 0.22469285 0.77530712
0.00000000 0.24687606 0.75312394
0.00000000 0.26966688 0.73033315
0.00000000 0.29300696 0.70699304
0.00000000 0.31683794 0.68316209
0.00000000 0.34110150 0.65889847
0.00000000 0.36573932 0.63426065
0.00000000 0.39069304 0.60930693
0.00000000 0.41590431 0.58409566
0.00000000 0.44131482 0.55868518
0.00000000 0.46686623 0.53313380
0.00000000 0.49250016 0.50749981
0.00000000 0.51815832 0.48184168
0.00000000 0.54378229 0.45621768
0.00000000 0.56931388 0.43068615
0.00000000 0.59469461 0.40530542
0.00000000 0.61986619 0.38013384
0.00000000 0.01034607 0.98965394
0.00000000 0.01784373 0.98215628
0.00000000 0.02676790 0.97323209
0.00000000 0.03706022 0.96293980
0.00000000 0.04866236 0.95133764
0.00000000 0.06151598 0.93848401
0.00000000 0.07556273 0.92443728
0.00000000 0.09074429 0.90925568
0.00000000 0.10700231 0.89299768
0.00000000 0.12427845 0.87572157
0.00000000 0.14251436 0.85748565
0.00000000 0.16165173 0.83834827
0.00000000 0.18163221 0.81836778
0.00000000 0.20239744 0.79760253
0.00000000 0.22388910 0.77611089
0.00000000 0.24604884 0.75395119
0.00000000 0.26881832 0.73118168
0.00000000 0.29213923 0.70786077
0.00000000 0.31595320 0.68404680
0.00000000 0.34020188 0.65979815
0.00000000 0.36482695 0.63517302
0.00000000 0.38977009 0.61022991
0.00000000 0.41497293 0.58502710
0.00000000 0.44037715 0.55962288
0.00000000 0.46592438 0.53407562
0.00000000 0.49155632 0.50844365
0.00000000 0.51721460 0.48278540
0.00000000 0.54284090 0.45715907
0.00000000 0.56837690 0.43162310
0.00000000 0.59376419 0.40623578
0.00000000 0.61894453 0.38105550
0.00000000 0.64385945 0.35614052
0.00000000 0.66845077 0.33154926
0.00000000 0.02641499 0.97358501
0.00000000 0.03665801 0.96334201
0.00000000 0.04821299 0.95178699
0.00000000 0.06102160 0.93897837
0.00000000 0.07502550 0.92497450
0.00000000 0.09016635 0.90983367
0.00000000 0.10638579 0.89361423
0.00000000 0.12362551 0.87637448
0.00000000 0.14182715 0.85817283
0.00000000 0.16093239 0.83906764
0.00000000 0.18088287 0.81911713
0.00000000 0.20162027 0.79837972
0.00000000 0.22308624 0.77691376
0.00000000 0.24522243 0.75477755
0.00000000 0.26797053 0.73202950
0.00000000 0.29127216 0.70872784
0.00000000 0.31506902 0.68493098
0.00000000 0.33930275 0.66069722
0.00000000 0.36391503 0.63608497
0.00000000 0.38884750 0.61115253
0.00000000 0.41404182 0.58595818
0.00000000 0.43943965 0.56056035
0.00000000 0.46498266 0.53501731
0.00000000 0.49061251 0.50938749
0.00000000 0.51627088 0.48372912
0.00000000 0.54189938 0.45810062
0.00000000 0.56743973 0.43256029
0.00000000 0.59283352 0.40716648
0.00000000 0.61802250 0.38197750
0.00000000 0.64294827 0.35705176
0.00000000 0.66755247 0.33244753
0.00000000 0.69177681 0.30822319
0.00000000 0.71556294 0.28443706
0.00000000 0.04776533 0.95223469
0.00000000 0.06052885 0.93947113
0.00000000 0.07448980 0.92551017
0.00000000 0.08958985 0.91041017
0.00000000 0.10577065 0.89422935
0.00000000 0.12297387 0.87702614
0.00000000 0.14114116 0.85885882
0.00000000 0.16021419 0.83978581
0.00000000 0.18013461 0.81986541
0.00000000 0.20084409 0.79915589
0.00000000 0.22228429 0.77771574
0.00000000 0.24439687 0.75560313
0.00000000 0.26712346 0.73287654
0.00000000 0.29040578 0.70959419
0.00000000 0.31418547 0.68581456
0.00000000 0.33840415 0.66159582
0.00000000 0.36300352 0.63699645
0.00000000 0.38792524 0.61207473
0.00000000 0.41311097 0.58688903
0.00000000 0.43850234 0.56149763
0.00000000 0.46404105 0.53595895
0.00000000 0.48966876 0.51033127
0.00000000 0.51532710 0.48467290
0.00000000 0.54095775 0.45904228
0.00000000 0.56650233 0.43349767
0.00000000 0.59190255 0.40809742
0.00000000 0.61710012 0.38289988
0.00000000 0.64203662 0.35796341
0.00000000 0.66665369 0.33334634
0.00000000 0.69089305 0.30910698
0.00000000 0.71469629 0.28530368
0.00000000 0.73800522 0.26199481
0.00000000 0.76076132 0.23923868
0.00000000 0.07395565 0.92604434
0.00000000 0.08901483 0.91098517
0.00000000 0.10515690 0.89484310
0.00000000 0.12232354 0.87767649
0.00000000 0.14045639 0.85954362
0.00000000 0.15949713 0.84050286
0.00000000 0.17938742 0.82061261
0.00000000 0.20006889 0.79993111
0.00000000 0.22148325 0.77851677
0.00000000 0.24357212 0.75642788
0.00000000 0.26627716 0.73372281
0.00000000 0.28954008 0.71045995
0.00000000 0.31330249 0.68669754
0.00000000 0.33750606 0.66249394
0.00000000 0.36209247 0.63790751
0.00000000 0.38700336 0.61299664
0.00000000 0.41218039 0.58781958
0.00000000 0.43756524 0.56243473
0.00000000 0.46309957 0.53690040
0.00000000 0.48872504 0.51127499
0.00000000 0.51438326 0.48561674
0.00000000 0.54001600 0.45998403
0.00000000 0.56556475 0.43443522
0.00000000 0.59097135 0.40902865
0.00000000 0.61617738 0.38382262
0.00000000 0.64112449 0.35887551
0.00000000 0.66575438 0.33424562
0.00000000 0.69000864 0.30999136
0.00000000 0.71382904 0.28617099
0.00000000 0.73715711 0.26284289
0.00000000 0.75993460 0.24006538
0.00000000 0.78210318 0.21789683
0.00000000 0.80360442 0.19639555
0.00000000 0.10454454 0.89545548
0.00000000 0.12167452 0.87832546
0.00000000 0.13977286 0.86022717
0.00000000 0.15878123 0.84121877
0.00000000 0.17864129 0.82135874
0.00000000 0.19929470 0.80070531
0.00000000 0.22068311 0.77931690
0.00000000 0.24274822 0.75725180
0.00000000 0.26543164 0.73456836
0.00000000 0.28867504 0.71132493
0.00000000 0.31242010 0.68757987
0.00000000 0.33660850 0.66339153
0.00000000 0.36118186 0.63881814
0.00000000 0.38608184 0.61391819
0.00000000 0.41125011 0.58874989
0.00000000 0.43662834 0.56337166
0.00000000 0.46215820 0.53784180
0.00000000 0.48778135 0.51221865
0.00000000 0.51343942 0.48656058
0.00000000 0.53907406 0.46092591
0.00000000 0.56462699 0.43537298
0.00000000 0.59003985 0.40996012
0.00000000 0.61525428 0.38474569
0.00000000 0.64021200 0.35978803
0.00000000 0.66485453 0.33514544
0.00000000 0.68912369 0.31087631
0.00000000 0.71296102 0.28703895
0.00000000 0.73630828 0.26369172
0.00000000 0.75910705 0.24089292
0.00000000 0.78129905 0.21870093
0.00000000 0.80282593 0.19717407
0.00000000 0.82362932 0.17637068
0.00000000 0.84365088 0.15634911
0.00000000 0.13909055 0.86090946
0.00000000 0.15806648 0.84193355
0.00000000 0.17789623 0.82210374
0.00000000 0.19852149 0.80147851
0.00000000 0.21988390 0.78011608
0.00000000 0.24192514 0.75807488
0.00000000 0.26458684 0.73541313
0.00000000 0.28781068 0.71218932
0.00000000 0.31153834 0.68846166
0.00000000 0.33571145 0.66428858
0.00000000 0.36027166 0.63972837
0.00000000 0.38516065 0.61483932
0.00000000 0.41032010 0.58967990
0.00000000 0.43569165 0.56430835
0.00000000 0.46121699 0.53878301
0.00000000 0.48683771 0.51316231
0.00000000 0.51249552 0.48750448
0.00000000 0.53813207 0.46186790
0.00000000 0.56368905 0.43631095
0.00000000 0.58910811 0.41089189
0.00000000 0.61433089 0.38566914
0.00000000 0.63929904 0.36070096
0.00000000 0.66395420 0.33604577
0.00000000 0.68823814 0.31176186
0.00000000 0.71209240 0.28790760
0.00000000 0.73545873 0.26454127
0.00000000 0.75827873 0.24172129
0.00000000 0.78049409 0.21950592
0.00000000 0.80204642 0.19795357
0.00000000 0.82287747 0.17712252
0.00000000 0.84292883 0.15707116
0.00000000 0.86214221 0.13785779
0.00000000 0.88045925 0.11954077
0.00000000 0.17715226 0.82284772
0.00000000 0.19774929 0.80225068
0.00000000 0.21908562 0.78091437
0.00000000 0.24110290 0.75889707
0.00000000 0.26374280 0.73625720
0.00000000 0.28694701 0.71305299
0.00000000 0.31065717 0.68934286
0.00000000 0.33481491 0.66518509
0.00000000 0.35936192 0.64063805
0.00000000 0.38423988 0.61576015
0.00000000 0.40939039 0.59060961
0.00000000 0.43475518 0.56524479
0.00000000 0.46027586 0.53972411
0.00000000 0.48589411 0.51410586
0.00000000 0.51155162 0.48844838
0.00000000 0.53719002 0.46281001
0.00000000 0.56275094 0.43724906
0.00000000 0.58817607 0.41182393
0.00000000 0.61340708 0.38659289
0.00000000 0.63838565 0.36161435
0.00000000 0.66305339 0.33694661
0.00000000 0.68735200 0.31264800
0.00000000 0.71122313 0.28877687
0.00000000 0.73460841 0.26539159
0.00000000 0.75744957 0.24255046
0.00000000 0.77968818 0.22031182
0.00000000 0.80126595 0.19873403
0.00000000 0.82212460 0.17787543
0.00000000 0.84220564 0.15779434
0.00000000 0.86145091 0.13854910
0.00000000 0.87980193 0.12019808
0.00000000 0.89720041 0.10279959
0.00000000 0.91358805 0.08641197
0.00000000 0.21828824 0.78171176
0.00000000 0.24028152 0.75971848
0.00000000 0.26289955 0.73710042
0.00000000 0.28608403 0.71391594
0.00000000 0.30977660 0.69022340
0.00000000 0.33391890 0.66608107
0.00000000 0.35845265 0.64154738
0.00000000 0.38331944 0.61668056
0.00000000 0.40846097 0.59153903
0.00000000 0.43381891 0.56618106
0.00000000 0.45933491 0.54066509
0.00000000 0.48495060 0.51504940
0.00000000 0.51060766 0.48939231
0.00000000 0.53624779 0.46375221
0.00000000 0.56181264 0.43818739
0.00000000 0.58724380 0.41275620
0.00000000 0.61248296 0.38751704
0.00000000 0.63747185 0.36252815
0.00000000 0.66215205 0.33784792
0.00000000 0.68646526 0.31353471
0.00000000 0.71035314 0.28964683
0.00000000 0.73375738 0.26624262
0.00000000 0.75661957 0.24338044
0.00000000 0.77888137 0.22111861
0.00000000 0.80048454 0.19951548
0.00000000 0.82137060 0.17862938
0.00000000 0.84148133 0.15851866
0.00000000 0.86075836 0.13924164
0.00000000 0.87914330 0.12085668
0.00000000 0.89657789 0.10342211
0.00000000 0.91300374 0.08699627
0.00000000 0.92836249 0.07163750
0.00000000 0.94259584 0.05740415
0.00000000 0.26205707 0.73794293
0.00000000 0.28522173 0.71477824
0.00000000 0.30889663 0.69110334
0.00000000 0.33302343 0.66697657
0.00000000 0.35754380 0.64245617
0.00000000 0.38239938 0.61760062
0.00000000 0.40753186 0.59246814
0.00000000 0.43288285 0.56711715
0.00000000 0.45839405 0.54160595
0.00000000 0.48400712 0.51599288
0.00000000 0.50966370 0.49033630
0.00000000 0.53530550 0.46469450
0.00000000 0.56087410 0.43912590
0.00000000 0.58631122 0.41368878
0.00000000 0.61155850 0.38844147
0.00000000 0.63655764 0.36344236
0.00000000 0.66125023 0.33874977
0.00000000 0.68557799 0.31442201
0.00000000 0.70948255 0.29051745
0.00000000 0.73290557 0.26709440
0.00000000 0.75578874 0.24421126
0.00000000 0.77807373 0.22192630
0.00000000 0.79970211 0.20029791
0.00000000 0.82061559 0.17938438
0.00000000 0.84075588 0.15924411
0.00000000 0.86006463 0.13993539
0.00000000 0.87848341 0.12151657
0.00000000 0.89595401 0.10404600
0.00000000 0.91241801 0.08758201
0.00000000 0.92781705 0.07218296
0.00000000 0.94209284 0.05790716
0.00000000 0.95518702 0.04481297
0.00000000 0.96704125 0.03295872
0.00000000 0.30801728 0.69198269
0.00000000 0.33212849 0.66787148
0.00000000 0.35663542 0.64336461
0.00000000 0.38147971 0.61852032
0.00000000 0.40660301 0.59339696
0.00000000 0.43194702 0.56805301
0.00000000 0.45745334 0.54254663
0.00000000 0.48306370 0.51693630
0.00000000 0.50871974 0.49128026
0.00000000 0.53436309 0.46563691
0.00000000 0.55993545 0.44006458
0.00000000 0.58537841 0.41462156
0.00000000 0.61063373 0.38936627
0.00000000 0.63564301 0.36435699
0.00000000 0.66034794 0.33965206
0.00000000 0.68469012 0.31530985
0.00000000 0.70861131 0.29138869
0.00000000 0.73205310 0.26794693
0.00000000 0.75495714 0.24504286
0.00000000 0.77726513 0.22273487
0.00000000 0.79891872 0.20108129
0.00000000 0.81985956 0.18014044
0.00000000 0.84002930 0.15997067
0.00000000 0.85936970 0.14063032
0.00000000 0.87782228 0.12217774
0.00000000 0.89532876 0.10467125
0.00000000 0.91183078 0.08816920
0.00000000 0.92727005 0.07272994
0.00000000 0.94158822 0.05841178
0.00000000 0.95472693 0.04527308
0.00000000 0.96662784 0.03337218
0.00000000 0.97723258 0.02276742
0.00000000 0.98648286 0.01351713
0.00000000 0.35572749 0.64427251
0.00000000 0.38056040 0.61943960
0.00000000 0.40567449 0.59432554
0.00000000 0.43101138 0.56898862
0.00000000 0.45651281 0.54348719
0.00000000 0.48212036 0.51787966
0.00000000 0.50777572 0.49222428
0.00000000 0.53342056 0.46657941
0.00000000 0.55899656 0.44100341
0.00000000 0.58444536 0.41555464
0.00000000 0.60970861 0.39029139
0.00000000 0.63472795 0.36527202
0.00000000 0.65944511 0.34055486
0.00000000 0.68380171 0.31619829
0.00000000 0.70773941 0.29226062
0.00000000 0.73119986 0.26880017
0.00000000 0.75412470 0.24587528
0.00000000 0.77645564 0.22354433
0.00000000 0.79813439 0.20186563
0.00000000 0.81910247 0.18089753
0.00000000 0.83930165 0.16069837
0.00000000 0.85867351 0.14132647
0.00000000 0.87715983 0.12284019
0.00000000 0.89470214 0.10529786
0.00000000 0.91124219 0.08875783
0.00000000 0.92672157 0.07327843
0.00000000 0.94108200 0.05891800
0.00000000 0.95426512 0.04573487
0.00000000 0.96621257 0.03378740
0.00000000 0.97686607 0.02313392
0.00000000 0.98616725 0.01383276
0.00000000 0.99405771 0.00594227
0.00108143 0.99985313 0.00014686
0.00000000 0.40474623 0.59525377
0.00000000 0.43007600 0.56992400
0.00000000 0.45557237 0.54442763
0.00000000 0.48117706 0.51882291
0.00000000 0.50683171 0.49316829
0.00000000 0.53247797 0.46752200
0.00000000 0.55805755 0.44194245
0.00000000 0.58351207 0.41648796
0.00000000 0.60878319 0.39121684
0.00000000 0.63381255 0.36618748
0.00000000 0.65854180 0.34145817
0.00000000 0.68291271 0.31708729
0.00000000 0.70686686 0.29313317
0.00000000 0.73034590 0.26965412
0.00000000 0.75329149 0.24670851
0.00000000 0.77564532 0.22435467
0.00000000 0.79734904 0.20265095
0.00000000 0.81834435 0.18165566
0.00000000 0.83857280 0.16142717
0.00000000 0.85797620 0.14202382
0.00000000 0.87649608 0.12350392
0.00000000 0.89407414 0.10592584
0.00000000 0.91065210 0.08934789
0.00000000 0.92617154 0.07382844
0.00000000 0.94057417 0.05942580
0.00000000 0.95380169 0.04619833
0.00000000 0.96579564 0.03420437
0.00000000 0.97649777 0.02350225
0.00000000 0.98584968 0.01415031
0.00000000 0.99379313 0.00620689
0.00060475 0.99991935 0.00008067
0.01403132 0.99725145 0.00274856
0.02840432 0.99282360 0.00717642
0.00000000 0.45463210 0.54536790
0.00000000 0.48023385 0.51976615
0.00000000 0.50588769 0.49411231
0.00000000 0.53153533 0.46846470
0.00000000 0.55711836 0.44288164
0.00000000 0.58257848 0.41742152
0.00000000 0.60785741 0.39214262
0.00000000 0.63289666 0.36710334
0.00000000 0.65763807 0.34236196
0.00000000 0.68202317 0.31797686
0.00000000 0.70599365 0.29400635
0.00000000 0.72949117 0.27050880
0.00000000 0.75245744 0.24754253
0.00000000 0.77483410 0.22516589
0.00000000 0.79656279 0.20343721
0.00000000 0.81758517 0.18241484
0.00000000 0.83784288 0.16215710
0.00000000 0.85727763 0.14272235
0.00000000 0.87583107 0.12416892
0.00000000 0.89344484 0.10655516
0.00000000 0.91006058 0.08993939
0.00000000 0.92562002 0.07437996
0.00000000 0.94006479 0.05993520
0.00000000 0.95333654 0.04666347
0.00000000 0.96537691 0.03462309
0.00000000 0.97612756 0.02387241
0.00000000 0.98553026 0.01446976
0.00000000 0.99352652 0.00647349
0.00012941 0.99998307 0.00001695
0.01352033 0.99738121 0.00261881
0.02785928 0.99301690 0.00698311
0.04310280 0.98695713 0.01304289
0.05920741 0.97926885 0.02073117
0.00000000 0.50494367 0.49505633
0.00000000 0.53059256 0.46940747
0.00000000 0.55617899 0.44382101
0.00000000 0.58164471 0.41835532
0.00000000 0.60693127 0.39306873
0.00000000 0.63198042 0.36801958
0.00000000 0.65673381 0.34326622
0.00000000 0.68113303 0.31886697
0.00000000 0.70511979 0.29488018
0.00000000 0.72863579 0.27136421
0.00000000 0.75162262 0.24837735
0.00000000 0.77402198 0.22597799
0.00000000 0.79577553 0.20422444
0.00000000 0.81682497 0.18317504
0.00000000 0.83711183 0.16288815
0.00000000 0.85657793 0.14342208
0.00000000 0.87516481 0.12483520
0.00000000 0.89281416 0.10718583
0.00000000 0.90946770 0.09053231
0.00000000 0.92506701 0.07493299
0.00000000 0.93955380 0.06044619
0.00000000 0.95286971 0.04713026
0.00000000 0.96495646 0.03504355
0.00000000 0.97575563 0.02424439
0.00000000 0.98520887 0.01479112
0.00000000 0.99325794 0.00674207
0.00000000 0.99984443 0.00015560
0.01301062 0.99750853 0.00249146
0.02731547 0.99320787 0.00679210
0.04252648 0.98720932 0.01279069
0.05860018 0.97957975 0.02042025
0.07549311 0.97038615 0.02961382
0.09316180 0.95969558 0.04030445
0.00000000 0.55523944 0.44476053
0.00000000 0.58071065 0.41928935
0.00000000 0.60600483 0.39399517
0.00000000 0.63106376 0.36893624
0.00000000 0.65582907 0.34417096
0.00000000 0.68024236 0.31975764
0.00000000 0.70424533 0.29575467
0.00000000 0.72777969 0.27222031
0.00000000 0.75078702 0.24921298
0.00000000 0.77320904 0.22679096
0.00000000 0.79498738 0.20501262
0.00000000 0.81606370 0.18393628
0.00000000 0.83637971 0.16362031
0.00000000 0.85587698 0.14412302
0.00000000 0.87449723 0.12550275
0.00000000 0.89218217 0.10781785
0.00000000 0.90887332 0.09112666
0.00000000 0.92451251 0.07548752
0.00000000 0.93904126 0.06095876
0.00000000 0.95240128 0.04759873
0.00000000 0.96453422 0.03546576
0.00000000 0.97538179 0.02461820
0.00000000 0.98488563 0.01511437
0.00000000 0.99298739 0.00701263
0.00000000 0.99962866 0.00037132
0.01250220 0.99763352 0.00236649
0.02677288 0.99339658 0.00660339
0.04195132 0.98745930 0.01254070
0.05799406 0.97988856 0.02011144
0.07485762 0.97075135 0.02924867
0.09249854 0.96011460 0.03988540
0.11087335 0.94804531 0.05195469
0.12993859 0.93461043 0.06538958
0.00000000 0.60507810 0.39492190
0.00000000 0.63014668 0.36985329
0.00000000 0.65492380 0.34507617
0.00000000 0.67935109 0.32064888
0.00000000 0.70337021 0.29662976
0.00000000 0.72692287 0.27307716
0.00000000 0.74995059 0.25004938
0.00000000 0.77239519 0.22760481
0.00000000 0.79419827 0.20580176
0.00000000 0.81530142 0.18469855
0.00000000 0.83564645 0.16435356
0.00000000 0.85517490 0.14482512
0.00000000 0.87382847 0.12617156
0.00000000 0.89154881 0.10845122
0.00000000 0.90827757 0.09172244
0.00000000 0.92395645 0.07604355
0.00000000 0.93852711 0.06147291
0.00000000 0.95193118 0.04806885
0.00000000 0.96411031 0.03588970
0.00000000 0.97500616 0.02499382
0.00000000 0.98456049 0.01543953
0.00000000 0.99271482 0.00728517
0.00000000 0.99941093 0.00058909
0.01199507 0.99775606 0.00224391
0.02623153 0.99358302 0.00641698
0.04137734 0.98770708 0.01229292
0.05738905 0.98019522 0.01980476
0.07422318 0.97111446 0.02888553
0.09183627 0.96053171 0.03946829
0.11018486 0.94851393 0.05148607
0.12922546 0.93512809 0.06487190
0.14891462 0.92044115 0.07955883
0.16920885 0.90452009 0.09547988
0.00000000 0.65401810 0.34598187
0.00000000 0.67845935 0.32154068
0.00000000 0.70249450 0.29750550
0.00000000 0.72606528 0.27393469
0.00000000 0.74911344 0.25088659
0.00000000 0.77158046 0.22841951
0.00000000 0.79340816 0.20659183
0.00000000 0.81453812 0.18546185
0.00000000 0.83491206 0.16508794
0.00000000 0.85447156 0.14552842
0.00000000 0.87315840 0.12684163
0.00000000 0.89091408 0.10908592
0.00000000 0.90768039 0.09231963
0.00000000 0.92339891 0.07660109
0.00000000 0.93801135 0.06198864
0.00000000 0.95145935 0.04854063
0.00000000 0.96368462 0.03631539
0.00000000 0.97462875 0.02537126
0.00000000 0.98423344 0.01576658
0.00000000 0.99244034 0.00755969
0.00000000 0.99919105 0.00080892
0.01148923 0.99787629 0.00212373
0.02569140 0.99376714 0.00623288
0.04080453 0.98795265 0.01204735
0.05678515 0.98049980 0.01950019
0.07358980 0.97147554 0.02852444
0.09117500 0.96094686 0.03905313
0.10949729 0.94898069 0.05101929
0.12851322 0.93564403 0.06435598
0.14817928 0.92100376 0.07899623
0.16845202 0.90512693 0.09487306
0.18928799 0.88808048 0.11191954
0.21064371 0.86993134 0.13006869
0.00000000 0.70161813 0.29838187
0.00000000 0.72520703 0.27479294
0.00000000 0.74827540 0.25172457
0.00000000 0.77076489 0.22923510
0.00000000 0.79261714 0.20738284
0.00000000 0.81377381 0.18622617
0.00000000 0.83417660 0.16582340
0.00000000 0.85376710 0.14623289
0.00000000 0.87248701 0.12751296
0.00000000 0.89027804 0.10972197
0.00000000 0.90708178 0.09291824
0.00000000 0.92283988 0.07716012
0.00000000 0.93749404 0.06250595
0.00000000 0.95098591 0.04901407
0.00000000 0.96325719 0.03674280
0.00000000 0.97424948 0.02575051
0.00000000 0.98390448 0.01609552
0.00000000 0.99216384 0.00783617
0.00000000 0.99896920 0.00103080
0.01098467 0.99799407 0.00200595
0.02515250 0.99394894 0.00605108
0.04023289 0.98819602 0.01180400
0.05618237 0.98080224 0.01919775
0.07295747 0.97183460 0.02816538
0.09051473 0.96136010 0.03863990
0.10881068 0.94944561 0.05055438
0.12780185 0.93615818 0.06384183
0.14744475 0.92156470 0.07843530
0.16769597 0.90573215 0.09426784
0.18851198 0.88872755 0.11127247
0.20984934 0.87061775 0.12938224
0.23166460 0.85146981 0.14853017
0.25391427 0.83135068 0.16864932
0.00000000 0.74743664 0.25256333
0.00000000 0.76994848 0.23005153
0.00000000 0.79182518 0.20817481
0.00000000 0.81300849 0.18699151
0.00000000 0.83344001 0.16655998
0.00000000 0.85306144 0.14693855
0.00000000 0.87181443 0.12818556
0.00000000 0.88964063 0.11035936
0.00000000 0.90648174 0.09351827
0.00000000 0.92227936 0.07772065
0.00000000 0.93697518 0.06302483
0.00000000 0.95051086 0.04948915
0.00000000 0.96282804 0.03717195
0.00000000 0.97386843 0.02613157
0.00000000 0.98357368 0.01642635
0.00000000 0.99188536 0.00811462
0.00000000 0.99874526 0.00125473
0.01048142 0.99810946 0.00189057
0.02461484 0.99412841 0.00587159
0.03966243 0.98843712 0.01156287
0.05558071 0.98110253 0.01889745
0.07232621 0.97219163 0.02780836
0.08985545 0.96177137 0.03822863
0.10812500 0.94990867 0.05009131
0.12709136 0.93667054 0.06332944
0.14671107 0.92212397 0.07787605
0.16694066 0.90633583 0.09366419
0.18773668 0.88937312 0.11062688
0.20905563 0.87130284 0.12869719
0.23085406 0.85219187 0.14780812
0.25308850 0.83210731 0.16789272
0.27571550 0.81111598 0.18888403
0.29869157 0.78928488 0.21071512
0.00000000 0.79103231 0.20896770
0.00000000 0.81224215 0.18775786
0.00000000 0.83270234 0.16729765
0.00000000 0.85235465 0.14764537
0.00000000 0.87114060 0.12885940
0.00000000 0.88900191 0.11099807
0.00000000 0.90588027 0.09411971
0.00000000 0.92171735 0.07828267
0.00000000 0.93645471 0.06354528
0.00000000 0.95003408 0.04996589
0.00000000 0.96239716 0.03760283
0.00000000 0.97348559 0.02651444
0.00000000 0.98324096 0.01675906
0.00000000 0.99160498 0.00839504
0.00000000 0.99851930 0.00148070
0.00997945 0.99822241 0.00177759
0.02407842 0.99430555 0.00569442
0.03909315 0.98867601 0.01132397
0.05498016 0.98140073 0.01859928
0.07169600 0.97254664 0.02745338
0.08919719 0.96218067 0.03781931
0.10744026 0.95036989 0.04963011
0.12638175 0.93718117 0.06281883
0.14597820 0.92268151 0.07731849
0.16618612 0.90693784 0.09306213
0.18696207 0.89001721 0.10998280
0.20826256 0.87198645 0.12801354
0.23004413 0.85291260 0.14708738
0.25226331 0.83286268 0.16713735
0.27487662 0.81190348 0.18809649
0.29784063 0.79010212 0.20989786
0.32111183 0.76752549 0.23247448
0.34464678 0.74424058 0.25575939
0.00000000 0.83196360 0.16803640
0.00000000 0.85164660 0.14835337
0.00000000 0.87046552 0.12953450
0.00000000 0.88836187 0.11163811
0.00000000 0.90527743 0.09472256
0.00000000 0.92115384 0.07884618
0.00000000 0.93593270 0.06406730
0.00000000 0.94955575 0.05044427
0.00000000 0.96196455 0.03803543
0.00000000 0.97310090 0.02689911
0.00000000 0.98290634 0.01709366
0.00000000 0.99132258 0.00867742
0.00000000 0.99829131 0.00170871
0.00947879 0.99833298 0.00166702
0.02354324 0.99448043 0.00551957
0.03852504 0.98891270 0.01108729
0.05438074 0.98169678 0.01830324
0.07106685 0.97289956 0.02710044
0.08853992 0.96258807 0.03741194
0.10675647 0.95082921 0.04917078
0.12567304 0.93769002 0.06230998
0.14524616 0.92323738 0.07676260
0.16543236 0.90753835 0.09246168
0.18618818 0.89065975 0.10934023
0.20747013 0.87266868 0.12733132
0.22923477 0.85363203 0.14636795
0.25143862 0.83361679 0.16638321
0.27403823 0.81268990 0.18731010
0.29699010 0.79091835 0.20908166
0.32025075 0.76836908 0.23163095
0.34377676 0.74510902 0.25489098
0.36752465 0.72120517 0.27879483
