NTT763G Map/NTT763G Map.cube
# VEGAS Pro LUT
TITLE "NTT763G Map"
LUT_3D_SIZE 9
0.00000000 0.00000000 1.00000000
0.00000000 0.02712266 0.97287732
0.00000000 0.07610150 0.92389852
0.00000000 0.14320281 0.85679722
0.00000000 0.22469285 0.77530712
0.00000000 0.31683794 0.68316209
0.00000000 0.41590431 0.58409566
0.00000000 0.51815832 0.48184168
0.00000000 0.61986619 0.38013384
0.00000000 0.07395565 0.92604434
0.00000000 0.14045639 0.85954362
0.00000000 0.22148325 0.77851677
0.00000000 0.31330249 0.68669754
0.00000000 0.41218039 0.58781958
0.00000000 0.51438326 0.48561674
0.00000000 0.61617738 0.38382262
0.00000000 0.71382904 0.28617099
0.00000000 0.80360442 0.19639555
0.00000000 0.21828824 0.78171176
0.00000000 0.30977660 0.69022340
0.00000000 0.40846097 0.59153903
0.00000000 0.51060766 0.48939231
0.00000000 0.61248296 0.38751704
0.00000000 0.71035314 0.28964683
0.00000000 0.80048454 0.19951548
0.00000000 0.87914330 0.12085668
0.00000000 0.94259584 0.05740415
0.00000000 0.40474623 0.59525377
0.00000000 0.50683171 0.49316829
0.00000000 0.60878319 0.39121684
0.00000000 0.70686686 0.29313317
0.00000000 0.79734904 0.20265095
0.00000000 0.87649608 0.12350392
0.00000000 0.94057417 0.05942580
0.00000000 0.98584968 0.01415031
0.02840432 0.99282360 0.00717642
0.00000000 0.60507810 0.39492190
0.00000000 0.70337021 0.29662976
0.00000000 0.79419827 0.20580176
0.00000000 0.87382847 0.12617156
0.00000000 0.93852711 0.06147291
0.00000000 0.98456049 0.01543953
0.02623153 0.99358302 0.00641698
0.09183627 0.96053171 0.03946829
0.16920885 0.90452009 0.09547988
0.00000000 0.79103231 0.20896770
0.00000000 0.87114060 0.12885940
0.00000000 0.93645471 0.06354528
0.00000000 0.98324096 0.01675906
0.02407842 0.99430555 0.00569442
0.08919719 0.96218067 0.03781931
0.16618612 0.90693784 0.09306213
0.25226331 0.83286268 0.16713735
0.34464678 0.74424058 0.25575939
0.00000000 0.93435729 0.06564273
0.00000000 0.98189127 0.01810873
0.02194515 0.99499106 0.00500895
0.08657417 0.96379840 0.03620161
0.16317570 0.90933013 0.09066988
0.24896781 0.83587182 0.16412818
0.34116858 0.74770898 0.25229099
0.43699604 0.64912724 0.35087276
0.53366828 0.54441214 0.45558789
0.01983185 0.99563920 0.00436078
0.08396734 0.96538460 0.03461542
0.16017771 0.91169667 0.08830332
0.24568100 0.83886105 0.16113894
0.33769527 0.75116330 0.24883671
0.43343860 0.65288889 0.34711108
0.53012902 0.54832351 0.45167652
0.62498462 0.44175255 0.55824745
0.71522343 0.33746168 0.66253829
0.15719230 0.91403729 0.08596268
0.24240300 0.84183019 0.15816979
0.33422703 0.75460327 0.24539673
0.42988247 0.65664208 0.34335792
0.52658731 0.55223215 0.44776785
0.62155974 0.44565907 0.55434090
0.71201771 0.34120840 0.65879160
0.79517931 0.24316566 0.75683433
0.86826259 0.15581642 0.84418356
0.00000000 0.00752548 0.99247450
0.00000000 0.04342166 0.95657831
0.00000000 0.09975047 0.90024954
0.00000000 0.17277819 0.82722181
0.00000000 0.25877109 0.74122894
0.00000000 0.35399544 0.64600456
0.00000000 0.45471758 0.54528242
0.00000000 0.55720377 0.44279626
0.00000000 0.65772021 0.34227976
0.00000000 0.09735944 0.90264058
0.00000000 0.16983896 0.83016104
0.00000000 0.25542104 0.74457896
0.00000000 0.35037196 0.64962804
0.00000000 0.45095795 0.54904205
0.00000000 0.55344540 0.44655460
0.00000000 0.65410048 0.34589952
0.00000000 0.74918956 0.25081044
0.00000000 0.83497888 0.16502112
0.00000000 0.25208369 0.74791634
0.00000000 0.34675607 0.65324396
0.00000000 0.44720092 0.55279905
0.00000000 0.54968452 0.45031545
0.00000000 0.65047324 0.34952679
0.00000000 0.74583322 0.25416678
0.00000000 0.83203083 0.16796920
0.00000000 0.90533233 0.09466770
0.00000000 0.96200395 0.03799603
0.00000000 0.44344664 0.55655336
0.00000000 0.54592144 0.45407858
0.00000000 0.64683861 0.35316139
0.00000000 0.74246448 0.25753555
0.00000000 0.82906526 0.17093471
0.00000000 0.90290737 0.09709263
0.00000000 0.96025699 0.03974300
0.00000000 0.99738044 0.00261956
0.05204834 0.98283345 0.01716657
0.00000000 0.64319682 0.35680318
0.00000000 0.73908347 0.26091650
0.00000000 0.82608253 0.17391750
0.00000000 0.90046012 0.09953988
0.00000000 0.95848262 0.04151735
0.00000000 0.99641633 0.00358365
0.04967962 0.98396248 0.01603753
0.12009923 0.94165158 0.05834842
0.20122601 0.87801439 0.12198562
0.00000000 0.82308263 0.17691737
0.00000000 0.89799076 0.10200926
0.00000000 0.95668113 0.04331889
0.00000000 0.99542004 0.00457998
0.04732915 0.98505682 0.01494316
0.11730181 0.94361228 0.05638773
0.19808395 0.88068372 0.11931629
0.28689367 0.80055672 0.19944327
0.38094902 0.70751685 0.29248312
0.00000000 0.95485258 0.04514743
0.00000000 0.99439162 0.00560837
0.04499708 0.98611635 0.01388366
0.11451900 0.94554389 0.05445612
0.19495277 0.88332975 0.11667023
0.28351647 0.80375957 0.19624043
0.37742808 0.71111882 0.28888115
0.47390577 0.60969311 0.39030689
0.57016754 0.50376797 0.49623203
0.04268354 0.98714077 0.01285925
0.11175097 0.94744623 0.05255380
0.19183259 0.88595235 0.11404765
0.28014648 0.80694473 0.19305527
0.37391067 0.71470892 0.28529108
0.47034323 0.61353046 0.38646954
0.56666219 0.50769490 0.49230510
0.66008574 0.40148783 0.59851217
0.74783176 0.29919472 0.70080525
0.18872355 0.88855124 0.11144879
0.27678385 0.81011200 0.18988802
0.37039682 0.71828687 0.28171310
0.46678051 0.61736149 0.38263848
0.56315297 0.51162136 0.48837864
0.65673226 0.40535200 0.59464800
0.74473649 0.30283898 0.69716102
0.82438368 0.20836787 0.79163212
0.89289182 0.12622422 0.87377578
0.00000000 0.01856396 0.98143601
0.00000000 0.06269091 0.93730909
0.00000000 0.12582693 0.87417310
0.00000000 0.20423828 0.79576170
0.00000000 0.29419127 0.70580876
0.00000000 0.39195216 0.60804784
0.00000000 0.49378726 0.50621271
0.00000000 0.59596282 0.40403715
0.00000000 0.69474518 0.30525482
0.00000000 0.12321068 0.87678933
0.00000000 0.20112622 0.79887378
0.00000000 0.29072076 0.70927924
0.00000000 0.38826057 0.61173946
0.00000000 0.49001193 0.50998807
0.00000000 0.59224117 0.40775886
0.00000000 0.69121450 0.30878553
0.00000000 0.78319824 0.21680178
0.00000000 0.86445862 0.13554135
0.00000000 0.28726101 0.71273899
0.00000000 0.38457465 0.61542535
0.00000000 0.48623726 0.51376277
0.00000000 0.58851504 0.41148499
0.00000000 0.68767428 0.31232572
0.00000000 0.77998132 0.22001867
0.00000000 0.86170244 0.13829757
0.00000000 0.92910385 0.07089616
0.00000000 0.97845191 0.02154811
0.00000000 0.48246339 0.51753664
0.00000000 0.58478469 0.41521531
0.00000000 0.68412483 0.31587517
0.00000000 0.77675015 0.22324988
0.00000000 0.85892683 0.14107318
0.00000000 0.92692119 0.07307880
0.00000000 0.97699958 0.02300043
0.01473019 0.99707067 0.00292932
0.07763837 0.96914303 0.03085694
0.00000000 0.68056631 0.31943369
0.00000000 0.77350479 0.22649524
0.00000000 0.85613203 0.14386800
0.00000000 0.92471433 0.07528570
0.00000000 0.97551793 0.02448205
0.01268693 0.99758834 0.00241165
0.07508859 0.97061878 0.02938122
0.14991866 0.91967130 0.08032870
0.23439524 0.84903145 0.15096854
0.00000000 0.85331821 0.14668180
0.00000000 0.92248333 0.07751665
0.00000000 0.97400719 0.02599279
0.01066427 0.99806774 0.00193224
0.07255563 0.97206205 0.02793794
0.14697777 0.92192078 0.07807922
0.23114873 0.85192949 0.14807053
0.32228658 0.76637369 0.23362631
0.41760939 0.66953897 0.33046100
0.00000000 0.97246754 0.02753246
0.00866233 0.99850869 0.00149130
0.07003964 0.97347265 0.02652734
0.14405006 0.92414337 0.07585662
0.22791167 0.85480642 0.14519359
0.31884250 0.76974732 0.23025268
0.41406065 0.67325163 0.32674837
0.51078415 0.56960493 0.43039507
0.60623103 0.46309274 0.53690726
0.06754074 0.97485042 0.02514961
0.14113569 0.92633891 0.07366109
0.22468418 0.85766208 0.14233792
0.31540424 0.77310544 0.22689454
0.41051394 0.67695457 0.32304543
0.50723135 0.57349503 0.42650497
0.60277450 0.46701232 0.53298765
0.69436145 0.36179203 0.63820797
0.77921033 0.26211971 0.73788029
0.22146639 0.86049622 0.13950375
0.31197190 0.77644789 0.22355211
0.40696940 0.68064761 0.31935236
0.50367695 0.57738101 0.42261896
0.59931260 0.47093362 0.52906638
0.69109440 0.36559096 0.63440907
0.77624047 0.26563859 0.73436141
0.85196877 0.17536211 0.82463789
0.91549742 0.09904702 0.90095299
0.00000000 0.03290850 0.96709150
0.00000000 0.08472345 0.91527653
0.00000000 0.15412390 0.84587610
0.00000000 0.23737615 0.76262385
0.00000000 0.33074647 0.66925353
0.00000000 0.43050113 0.56949884
0.00000000 0.53290647 0.46709356
0.00000000 0.63422871 0.36577129
0.00000000 0.73073411 0.26926586
0.00000000 0.15130243 0.84869760
0.00000000 0.23411122 0.76588875
0.00000000 0.32717547 0.67282456
0.00000000 0.42676142 0.57323861
0.00000000 0.52913535 0.47086462
0.00000000 0.63056362 0.36943641
0.00000000 0.72731239 0.27268758
0.00000000 0.81564808 0.18435194
0.00000000 0.89183682 0.10816316
0.00000000 0.32361329 0.67638671
0.00000000 0.42302546 0.57697457
0.00000000 0.52536297 0.47463700
0.00000000 0.62689215 0.37310782
0.00000000 0.72387928 0.27612072
0.00000000 0.81259060 0.18740940
0.00000000 0.88929242 0.11070758
0.00000000 0.95025104 0.04974899
0.00000000 0.99173266 0.00826733
0.00000000 0.52158952 0.47841048
0.00000000 0.62321460 0.37678540
0.00000000 0.72043496 0.27956504
0.00000000 0.80951691 0.19048311
0.00000000 0.88672668 0.11327331
0.00000000 0.94833064 0.05166938
0.00000000 0.99059498 0.00940503
0.03708431 0.98950505 0.01049492
0.10502020 0.95199001 0.04801000
0.00000000 0.71697962 0.28302038
0.00000000 0.80642712 0.19357288
0.00000000 0.88413984 0.11586016
0.00000000 0.94638407 0.05361595
0.00000000 0.98942602 0.01057396
0.03483586 0.99040663 0.00959338
0.10230425 0.95378947 0.04621051
0.18114038 0.89482838 0.10517160
0.26856232 0.81780893 0.18219110
0.00000000 0.88153207 0.11846795
0.00000000 0.94441152 0.05558851
0.00000000 0.98822606 0.01177393
0.03260656 0.99127209 0.00872788
0.09960368 0.95555872 0.04444126
0.17807090 0.89734375 0.10265627
0.26522627 0.82091266 0.17908734
0.35828787 0.73055106 0.26944894
0.45447373 0.63054454 0.36945549
0.00000000 0.98699522 0.01300475
0.03039656 0.99210137 0.00789864
0.09691865 0.95729750 0.04270247
0.17501317 0.89983439 0.10016558
0.26189822 0.82399756 0.17600243
0.35479179 0.73407257 0.26592746
0.45091203 0.63434488 0.36565509
0.54747689 0.52910018 0.47089982
0.64170456 0.42262393 0.57737607
0.09424927 0.95900565 0.04099434
0.17196734 0.90230024 0.09769977
0.25857827 0.82706338 0.17293659
0.35130012 0.73758072 0.26241925
0.44735092 0.63813782 0.36186221
0.54394871 0.53302014 0.46697989
0.63831168 0.42651325 0.57348675
0.72765774 0.32290274 0.67709726
0.80920500 0.22647418 0.77352583
0.25526661 0.83010995 0.16989003
0.34781292 0.74107546 0.25892454
0.44379056 0.64192301 0.35807699
0.54041755 0.53693819 0.46306184
0.63491195 0.43040648 0.56959355
0.72449189 0.32661349 0.67338651
0.80637538 0.22984478 0.77015519
0.87778044 0.14438587 0.85561413
0.93592525 0.07452234 0.92547768
0.00000000 0.05035216 0.94964784
0.00000000 0.10931236 0.89068764
0.00000000 0.18443449 0.81556553
0.00000000 0.27198488 0.72801512
0.00000000 0.36822975 0.63177025
0.00000000 0.46943542 0.53056455
0.00000000 0.57186818 0.42813179
0.00000000 0.67179435 0.32820567
0.00000000 0.76548010 0.23451988
0.00000000 0.18142773 0.81857228
0.00000000 0.26858702 0.73141295
0.00000000 0.36457822 0.63542181
0.00000000 0.46566755 0.53433245
0.00000000 0.56812131 0.43187869
0.00000000 0.66820580 0.33179417
0.00000000 0.76218736 0.23781267
0.00000000 0.84633213 0.15366787
0.00000000 0.91690654 0.08309348
0.00000000 0.36093357 0.63906646
0.00000000 0.46190149 0.53809851
0.00000000 0.56437123 0.43562877
0.00000000 0.66460907 0.33539096
0.00000000 0.75888127 0.24111876
0.00000000 0.84345406 0.15654591
0.00000000 0.91459388 0.08540613
0.00000000 0.96856689 0.03143313
0.00383722 0.99942660 0.00057342
0.00000000 0.56061810 0.43938187
0.00000000 0.66100419 0.33899578
0.00000000 0.75556201 0.24443798
0.00000000 0.84055787 0.15944214
0.00000000 0.91225797 0.08774202
0.00000000 0.96692872 0.03307131
0.00190794 0.99973297 0.00026700
0.06148046 0.97809136 0.02190867
0.13403966 0.93161178 0.06838822
0.00000000 0.75222987 0.24777013
0.00000000 0.83764362 0.16235638
0.00000000 0.90989906 0.09010095
0.00000000 0.96526241 0.03473759
0.00000000 1.00000000 0.00000000
0.05904169 0.97935385 0.02064617
0.13117240 0.93371212 0.06628789
0.21361020 0.86736041 0.13263962
0.30357313 0.78458422 0.21541579
0.00000000 0.90751725 0.09248275
0.00000000 0.96356821 0.03643179
0.00000000 0.99913079 0.00086923
0.05662065 0.98058248 0.01941750
0.12831911 0.93578440 0.06421559
0.21042700 0.87011868 0.12988134
0.30016237 0.78787082 0.21212919
0.39474329 0.69332641 0.30667362
0.49138781 0.59077096 0.40922904
0.00000000 0.99822873 0.00177125
0.05421745 0.98177713 0.01822287
0.12547991 0.93782848 0.06217152
0.20725414 0.87285453 0.12714550
0.29675820 0.79114074 0.20885924
0.39121014 0.69697279 0.30302721
0.48782805 0.59463614 0.40536386
0.58382994 0.48841640 0.51158363
0.67643392 0.38259909 0.61740094
0.12265493 0.93984407 0.06015591
0.20409173 0.87556767 0.12443231
0.29336071 0.79439384 0.20560615
0.38767990 0.70060813 0.29939187
0.48426741 0.59849608 0.40150392
0.58034128 0.49234325 0.50765675
0.67311954 0.38643521 0.61356479
0.75982028 0.28505749 0.71494251
0.83766156 0.19249564 0.80750436
0.28997004 0.79762989 0.20237012
0.38415274 0.70423222 0.29576778
0.48070610 0.60235053 0.39764944
0.57684815 0.49627045 0.50372952
0.66979694 0.39027748 0.60972255
0.75677055 0.28865713 0.71134287
0.83498710 0.19569504 0.80430496
0.90166456 0.11567670 0.88432330
0.95402098 0.05288769 0.94711232
0.00000000 0.07068801 0.92931199
0.00000000 0.13625067 0.86374933
0.00000000 0.21655174 0.78344828
0.00000000 0.30785748 0.69214255
0.00000000 0.40643418 0.59356582
0.00000000 0.50854808 0.49145189
0.00000000 0.61046553 0.38953444
0.00000000 0.70845282 0.29154718
0.00000000 0.79877615 0.20122382
0.00000000 0.21337968 0.78662032
0.00000000 0.30434671 0.69565332
0.00000000 0.40272206 0.59727794
0.00000000 0.50477201 0.49522799
0.00000000 0.60676283 0.39323714
0.00000000 0.70496088 0.29503915
0.00000000 0.79563230 0.20436768
0.00000000 0.87504351 0.12495648
0.00000000 0.93946075 0.06053926
0.00000000 0.39901492 0.60098505
0.00000000 0.50099587 0.49900416
0.00000000 0.60305500 0.39694497
0.00000000 0.70145869 0.29854128
0.00000000 0.79247326 0.20752677
0.00000000 0.87236482 0.12763517
0.00000000 0.93739980 0.06260017
0.00000000 0.98384446 0.01615553
0.02505465 0.99398172 0.00601827
0.00000000 0.59934223 0.40065774
0.00000000 0.69794655 0.30205342
0.00000000 0.78929907 0.21070091
0.00000000 0.86966604 0.13033395
0.00000000 0.93531376 0.06468625
0.00000000 0.98250848 0.01749152
0.02291235 0.99468410 0.00531592
0.08776445 0.96306694 0.03693304
0.16454254 0.90824592 0.09175409
0.00000000 0.78611004 0.21388993
0.00000000 0.86694735 0.13305266
0.00000000 0.93320268 0.06679729
0.00000000 0.98114246 0.01885754
0.02078995 0.99534923 0.00465077
0.08515024 0.96466750 0.03533250
0.16153888 0.91062415 0.08937583
0.24717392 0.83750480 0.16249521
0.33927342 0.74959493 0.25040507
0.00000000 0.93106687 0.06893313
0.00000000 0.97974658 0.02025340
0.01868760 0.99597698 0.00402303
0.08255232 0.96623641 0.03376358
0.15854773 0.91297662 0.08702338
0.24389189 0.84048313 0.15951690
0.33580288 0.75304145 0.24695857
0.43149871 0.65493715 0.34506285
0.52819753 0.55045581 0.44954416
0.01660543 0.99656707 0.00343293
0.07997082 0.96777350 0.03222649
0.15556924 0.91530305 0.08469697
0.24061877 0.84344119 0.15655883
0.33233744 0.75647348 0.24352649
0.42794332 0.65868556 0.34131444
0.52465451 0.55436295 0.44563708
0.61968899 0.44779113 0.55220890
0.71026492 0.34325573 0.65674430
0.15260354 0.91760319 0.08239681
0.23735465 0.84637880 0.15362120
0.32887727 0.75989091 0.24010906
0.42438945 0.66242516 0.33757484
0.52110922 0.55826700 0.44173303
0.61625475 0.45170200 0.54829800
0.70704395 0.34701574 0.65298426
0.79069495 0.24849376 0.75150627
0.86442584 0.16042162 0.83957839
0.32542250 0.76329350 0.23670648
0.42083719 0.66615564 0.33384433
0.51756185 0.56216776 0.43783224
0.61281455 0.45561540 0.54438460
0.70381331 0.35078409 0.64921594
0.78777623 0.25195941 0.74804062
0.86192137 0.16342689 0.83657312
0.92346680 0.08947212 0.91052788
0.96963054 0.03438061 0.96561939
0.00000000 0.09370910 0.90629089
0.00000000 0.16533148 0.83466852
0.00000000 0.25026870 0.74973130
0.00000000 0.34478703 0.65521294
0.00000000 0.44515279 0.55484724
0.00000000 0.54763222 0.45236778
0.00000000 0.64849162 0.35150841
0.00000000 0.74399722 0.25600278
0.00000000 0.83041543 0.16958460
0.00000000 0.24695131 0.75304872
0.00000000 0.34118330 0.65881670
0.00000000 0.44140008 0.55859989
0.00000000 0.54386789 0.45613211
0.00000000 0.64485306 0.35514697
0.00000000 0.74062181 0.25937819
0.00000000 0.82744044 0.17255956
0.00000000 0.90157527 0.09842473
0.00000000 0.95929253 0.04070745
0.00000000 0.43765044 0.56234956
0.00000000 0.54010159 0.45989841
0.00000000 0.64120746 0.35879257
0.00000000 0.73723423 0.26276577
0.00000000 0.82444829 0.17555168
0.00000000 0.89911592 0.10088408
0.00000000 0.95750338 0.04249665
0.00000000 0.99587691 0.00412312
0.04839527 0.98456371 0.01543629
0.00000000 0.63755494 0.36244506
0.00000000 0.73383474 0.26616523
0.00000000 0.82143921 0.17856079
0.00000000 0.89663452 0.10336546
0.00000000 0.95568705 0.04431294
0.00000000 0.99486303 0.00513696
0.04605482 0.98563910 0.01436091
0.11578209 0.94466949 0.05533051
0.19637468 0.88212991 0.11787008
0.00000000 0.81841332 0.18158670
0.00000000 0.89413130 0.10586869
0.00000000 0.95384389 0.04615613
0.00000000 0.99381727 0.00618275
0.04373284 0.98667949 0.01332053
0.11300733 0.94658518 0.05341485
0.19324948 0.88476318 0.11523681
0.28167737 0.80549914 0.19450086
0.37550905 0.71307856 0.28692144
0.00000000 0.95197397 0.04802604
0.00000000 0.99273968 0.00726032
0.04142947 0.98768467 0.01231535
0.11024741 0.94847143 0.05152860
0.19013536 0.88737285 0.11262714
0.27831140 0.80867457 0.19132544
0.37199357 0.71666205 0.28333795
0.46839994 0.61562091 0.38437909
0.56474859 0.50983667 0.49016333
0.03914485 0.98865438 0.01134560
0.10750248 0.95032805 0.04967196
0.18703246 0.88995868 0.11004130
0.27495286 0.81183195 0.18816805
0.36848176 0.72023332 0.27976665
0.46483719 0.61944842 0.38055158
0.56123722 0.51376277 0.48623726
0.65489995 0.40746188 0.59253812
0.74304336 0.30483136 0.69516861
0.18394092 0.89252049 0.10747948
0.27160195 0.81497109 0.18502888
0.36497378 0.72379220 0.27620780
0.46127453 0.62326932 0.37673068
0.55772221 0.51768798 0.48231199
0.65153491 0.41133383 0.58866620
0.73993069 0.30849233 0.69150764
0.82012761 0.21344911 0.78655088
0.88934368 0.13048965 0.86951035
0.36146978 0.72733843 0.27266160
0.45771205 0.62708336 0.37291667
0.55420363 0.52161217 0.47838780
0.64816254 0.41521052 0.58478945
0.73680693 0.31216389 0.68783611
0.81735474 0.21675782 0.78324217
0.88702410 0.13327788 0.86672211
0.94303304 0.06600963 0.93399036
0.98259968 0.01923862 0.98076135
0.00000000 0.11920850 0.88079149
0.00000000 0.19634785 0.80365217
0.00000000 0.28537846 0.71462154
0.00000000 0.38256663 0.61743337
0.00000000 0.48417866 0.51582134
0.00000000 0.58648080 0.41351920
0.00000000 0.68573934 0.31426063
0.00000000 0.77822059 0.22177939
0.00000000 0.86019087 0.13980916
0.00000000 0.28193569 0.71806431
0.00000000 0.37888992 0.62111008
0.00000000 0.48040533 0.51959467
0.00000000 0.58274823 0.41725177
0.00000000 0.68218493 0.31781507
0.00000000 0.77498168 0.22501834
0.00000000 0.85740477 0.14259526
0.00000000 0.92572045 0.07427957
0.00000000 0.97619504 0.02380497
0.00000000 0.47663313 0.52336687
0.00000000 0.57901174 0.42098823
0.00000000 0.67862153 0.32137850
0.00000000 0.77172869 0.22827132
0.00000000 0.85459954 0.14540045
0.00000000 0.92350042 0.07649961
0.00000000 0.97469753 0.02530250
0.01158110 0.99785459 0.00214540
0.07370488 0.97141004 0.02858994
0.00000000 0.67504930 0.32495072
0.00000000 0.76846182 0.23153816
0.00000000 0.85177547 0.14822456
0.00000000 0.92125636 0.07874361
0.00000000 0.97317094 0.02682904
0.00956972 0.99831307 0.00168695
0.07118116 0.97283554 0.02716446
0.14537920 0.92313647 0.07686355
0.22938189 0.85350132 0.14649867
0.00000000 0.84893262 0.15106739
0.00000000 0.91898859 0.08101139
0.00000000 0.97161561 0.02838441
0.00757915 0.99873292 0.00126708
0.06867447 0.97422826 0.02577176
0.14245875 0.92534429 0.07465569
0.22615002 0.85636669 0.14363331
0.31696635 0.77158093 0.22841904
0.41212580 0.67527264 0.32472736
0.00000000 0.97003156 0.02996842
0.00560951 0.99911398 0.00088600
0.06618497 0.97558796 0.02441206
0.13955171 0.92752498 0.07247502
0.22292781 0.85921067 0.14078933
0.31353131 0.77493054 0.22506943
0.40858027 0.67897022 0.32102978
0.50529277 0.57561517 0.42438480
0.60088682 0.46915102 0.53084898
0.06371277 0.97691441 0.02308557
0.13665822 0.92967826 0.07032177
0.21971537 0.86203301 0.13796698
0.31010225 0.77826434 0.22173564
0.40503699 0.68265778 0.31734222
0.50173753 0.57949889 0.42050114
0.59742206 0.47307315 0.52692688
0.68930858 0.36766618 0.63233382
0.77461511 0.26756352 0.73243648
0.21651286 0.86483353 0.13516644
0.30667937 0.78158212 0.21841787
0.40149608 0.68633515 0.31366485
0.49818099 0.58337814 0.41662186
0.59395218 0.47699666 0.52300334
0.68602765 0.37147629 0.62852371
0.77162558 0.27110258 0.72889745
0.84796399 0.18016103 0.81983894
0.91226083 0.10293725 0.89706272
0.39795768 0.69000208 0.30999795
0.49462315 0.58725280 0.41274723
0.59047723 0.48092136 0.51907867
0.68273801 0.37529337 0.62470663
0.76862353 0.27465436 0.72534561
0.84535187 0.18328990 0.81671011
0.91014105 0.10548552 0.89451450
0.96020913 0.04552678 0.95447320
0.99277419 0.00769924 0.99230075
0.00000000 0.14697926 0.85302073
0.00000000 0.22909279 0.77090722
0.00000000 0.32167405 0.67832595
0.00000000 0.42098930 0.57901067
0.00000000 0.52330488 0.47669515
0.00000000 0.62488699 0.37511301
0.00000000 0.72200197 0.27799806
0.00000000 0.81091607 0.18908396
0.00000000 0.88789558 0.11210444
0.00000000 0.31812587 0.68187410
0.00000000 0.41725954 0.58274043
0.00000000 0.51953089 0.48046914
0.00000000 0.62120610 0.37879387
0.00000000 0.71855158 0.28144842
0.00000000 0.80783355 0.19216645
0.00000000 0.88531828 0.11468171
0.00000000 0.94727206 0.05272792
0.00000000 0.98996121 0.01003877
0.00000000 0.51575607 0.48424393
0.00000000 0.61751944 0.38248059
0.00000000 0.71509033 0.28490967
0.00000000 0.80473506 0.19526492
0.00000000 0.88271999 0.11728001
0.00000000 0.94531131 0.05468868
0.00000000 0.98877537 0.01122465
0.03361750 0.99088317 0.00911681
0.10082930 0.95475829 0.04524170
0.00000000 0.71161830 0.28838167
0.00000000 0.80162084 0.19837916
0.00000000 0.88010085 0.11989914
0.00000000 0.94332469 0.05667534
0.00000000 0.98755854 0.01244147
0.03139871 0.99172896 0.00827106
0.09813718 0.95651096 0.04348904
0.17640159 0.89870536 0.10129464
0.26340997 0.82259768 0.17740232
0.00000000 0.87746108 0.12253892
0.00000000 0.94131231 0.05868770
0.00000000 0.98631096 0.01368905
0.02919928 0.99253833 0.00746168
0.09546068 0.95823306 0.04176695
0.17335033 0.90118247 0.09881750
0.26008633 0.82567221 0.17432778
0.35288668 0.73598778 0.26401225
0.44896951 0.63641471 0.36358532
0.00000000 0.98503280 0.01496720
0.02701936 0.99331111 0.00668888
0.09279990 0.95992434 0.04007564
0.17031105 0.90363467 0.09636534
0.25677088 0.82872754 0.17127243
0.34939745 0.73948866 0.26051137
0.44540879 0.64020342 0.35979658
0.54202300 0.53515750 0.46484253
0.63645810 0.42863634 0.57136363
0.09015501 0.96158469 0.03841533
0.16728389 0.90606165 0.09393838
0.25346377 0.83176351 0.16823648
0.34591275 0.74297589 0.25702408
0.44184887 0.64398438 0.35601562
0.53849018 0.53907442 0.46092558
0.63305479 0.43253165 0.56746835
0.72276068 0.32864156 0.67135841
0.80482596 0.23168975 0.76831025
0.25016516 0.83477986 0.16522014
0.34243283 0.74644941 0.25355062
0.43828994 0.64775729 0.35224271
0.53495461 0.54298913 0.45701084
0.62964487 0.43643051 0.56356949
0.71957880 0.33236691 0.66763306
0.80197448 0.23508392 0.76491606
0.87404990 0.14886709 0.85113293
0.93302315 0.07800195 0.92199802
0.43473208 0.65152204 0.34847799
0.53141630 0.54690146 0.45309854
0.62622851 0.44033277 0.55966723
0.71638674 0.33610144 0.66389853
0.79910898 0.23849307 0.76150692
0.87161338 0.15179318 0.84820682
0.93111801 0.08028734 0.91971266
0.97484082 0.02826109 0.97173893
1.00000000 0.00000000 1.00000000
