TEKMVVM3757 Map/TEKMVVM3757 Map.cube
# VEGAS Pro LUT
TITLE "TEKMVVM3757 Map"
LUT_3D_SIZE 33
0.27450982 0.00000000 0.39215687
0.27490422 0.00453989 0.39484045
0.27521402 0.01064474 0.39832911
0.27544814 0.01825477 0.40259522
0.27561548 0.02731022 0.40761113
0.27572498 0.03775135 0.41334918
0.27578560 0.04951839 0.41978177
0.27580622 0.06255157 0.42688119
0.27579582 0.07679114 0.43461987
0.27576330 0.09217735 0.44297013
0.27571759 0.10865042 0.45190430
0.27566764 0.12615059 0.46139479
0.27562237 0.14461812 0.47141388
0.27559069 0.16399324 0.48193401
0.27558157 0.18421619 0.49292749
0.27560392 0.20522720 0.50436670
0.27566665 0.22696652 0.51622397
0.27577871 0.24937439 0.52847165
0.27594903 0.27239105 0.54108208
0.27618656 0.29595676 0.55402774
0.27650020 0.32001171 0.56728083
0.27689889 0.34449619 0.58081377
0.27739155 0.36935040 0.59459889
0.27798712 0.39451462 0.60860860
0.27869454 0.41992906 0.62281525
0.27952275 0.44553396 0.63719112
0.28048062 0.47126958 0.65170866
0.28157714 0.49707615 0.66634017
0.28282124 0.52289391 0.68105799
0.28422180 0.54866308 0.69583458
0.28578779 0.57432395 0.71064216
0.28752813 0.59981674 0.72545314
0.28945178 0.62508166 0.74023986
0.27520403 0.01039311 0.39818680
0.27544075 0.01794882 0.40242481
0.27561039 0.02695216 0.40741363
0.27572188 0.03734337 0.41312560
0.27578411 0.04906269 0.41953313
0.27580607 0.06205035 0.42660853
0.27579665 0.07624660 0.43432418
0.27576476 0.09159167 0.44265240
0.27571940 0.10802582 0.45156559
0.27566946 0.12548926 0.46103609
0.27562383 0.14392227 0.47103626
0.27559152 0.16326505 0.48153844
0.27558139 0.18345787 0.49251500
0.27560243 0.20444095 0.50393826
0.27566352 0.22615454 0.51578063
0.27577361 0.24853887 0.52801448
0.27594164 0.27153420 0.54061210
0.27617654 0.29508075 0.55354583
0.27648720 0.31911877 0.56678814
0.27688262 0.34358850 0.58031124
0.27737167 0.36843017 0.59408760
0.27796331 0.39358404 0.60808957
0.27866644 0.41899034 0.62228942
0.27949002 0.44458929 0.63665956
0.28044298 0.47032115 0.65117240
0.28153425 0.49612617 0.66580021
0.28277275 0.52194458 0.68051535
0.28416741 0.54771662 0.69529021
0.28572714 0.57338256 0.71009713
0.28746092 0.59888256 0.72490853
0.28937766 0.62415689 0.73969662
0.29148626 0.64914584 0.75443393
0.29379568 0.67378962 0.76909268
0.27560523 0.02659598 0.40721712
0.27571869 0.03693719 0.41290298
0.27578259 0.04860870 0.41928539
0.27580586 0.06155076 0.42633671
0.27579743 0.07570361 0.43402928
0.27576625 0.09100748 0.44233549
0.27572119 0.10740262 0.45122764
0.27567124 0.12482926 0.46067813
0.27562535 0.14322764 0.47065929
0.27559236 0.16253802 0.48114350
0.27558127 0.18270062 0.49210307
0.27560100 0.20365569 0.50351042
0.27566046 0.22534345 0.51533788
0.27576861 0.24770418 0.52755779
0.27593434 0.27067807 0.54014248
0.27616659 0.29420540 0.55306441
0.27647433 0.31822640 0.56629580
0.27686647 0.34268132 0.57980907
0.27735192 0.36751038 0.59357661
0.27793962 0.39265379 0.60757077
0.27863851 0.41805187 0.62176383
0.27945751 0.44364479 0.63612825
0.28040555 0.46937284 0.65063626
0.28149155 0.49517623 0.66526031
0.28272447 0.52099520 0.67997277
0.28411323 0.54676998 0.69474590
0.28566673 0.57244086 0.70955217
0.28739396 0.59794807 0.72436386
0.28930378 0.62323177 0.73915333
0.29140517 0.64823228 0.75389296
0.29370704 0.67288983 0.76855510
0.29621834 0.69714463 0.78311211
0.29894796 0.72093695 0.79753631
0.27578104 0.04815644 0.41903856
0.27580562 0.06105281 0.42606577
0.27579820 0.07516217 0.43373525
0.27576768 0.09042476 0.44201934
0.27572301 0.10678080 0.45089045
0.27567309 0.12417056 0.46032089
0.27562684 0.14253426 0.47028300
0.27559325 0.16181214 0.48074919
0.27558118 0.18194444 0.49169180
0.27559963 0.20287141 0.50308317
0.27565747 0.22453329 0.51489562
0.27576366 0.24687031 0.52710158
0.27592710 0.26982272 0.53967339
0.27615678 0.29333076 0.55258334
0.27646157 0.31733465 0.56580389
0.27685043 0.34177464 0.57930726
0.27733231 0.36659098 0.59306592
0.27791607 0.39172393 0.60705221
0.27861071 0.41711366 0.62123847
0.27942514 0.44270051 0.63559705
0.28036827 0.46842462 0.65010029
0.28144905 0.49422631 0.66472059
0.28267640 0.52004576 0.67943025
0.28405926 0.54582322 0.69420165
0.28560656 0.57149899 0.70900720
0.28732723 0.59701324 0.72381914
0.28923020 0.62230623 0.73860997
0.29132438 0.64731824 0.75335187
0.29361871 0.67198944 0.76801735
0.29612213 0.69626015 0.78257871
0.29884359 0.72007054 0.79700834
0.30179197 0.74336088 0.81127852
0.30497622 0.76607138 0.82536161
0.27579895 0.07462230 0.43344203
0.27576911 0.08984352 0.44170401
0.27572480 0.10616039 0.45055401
0.27567491 0.12351318 0.45996433
0.27562839 0.14184210 0.46990740
0.27559415 0.16108741 0.48035553
0.27558115 0.18118934 0.49128109
0.27559829 0.20208813 0.50265646
0.27565452 0.22372404 0.51445389
0.27575877 0.24603727 0.52664590
0.27591997 0.26896811 0.53920472
0.27614704 0.29245675 0.55210274
0.27644894 0.31644347 0.56531233
0.27683455 0.34086847 0.57880580
0.27731282 0.36567202 0.59255558
0.27789268 0.39079437 0.60653394
0.27858308 0.41617575 0.62071335
0.27939296 0.44175637 0.63506609
0.28033119 0.46747652 0.64956450
0.28140676 0.49327639 0.66418093
0.28262857 0.51909626 0.67888784
0.28400552 0.54487634 0.69365746
0.28554663 0.57055688 0.70846224
0.28726074 0.59607816 0.72327447
0.28915685 0.62138033 0.73806649
0.29124382 0.64640373 0.75281072
0.29353064 0.67108858 0.76747954
0.29602623 0.69537503 0.78204519
0.29873949 0.71920341 0.79648012
0.30167937 0.74251395 0.81075668
0.30485481 0.76524687 0.82484716
0.30827472 0.78734237 0.83872396
0.31194803 0.80874079 0.85235947
0.27572659 0.10554139 0.45021832
0.27567673 0.12285712 0.45960853
0.27562994 0.14115119 0.46953249
0.27559510 0.16036385 0.47996253
0.27558115 0.18043533 0.49087101
0.27559704 0.20130587 0.50223029
0.27565166 0.22291569 0.51401275
0.27575400 0.24520507 0.52619070
0.27591294 0.26811424 0.53873646
0.27613741 0.29158342 0.55162251
0.27643639 0.31555289 0.56482112
0.27681875 0.33996281 0.57830465
0.27729347 0.36475351 0.59204549
0.27786946 0.38986519 0.60601598
0.27855563 0.41523808 0.62018847
0.27936092 0.44081244 0.63453531
0.28029430 0.46652851 0.64902884
0.28136465 0.49232653 0.66364145
0.28258091 0.51814669 0.67834550
0.28395203 0.54392934 0.69311333
0.28548691 0.56961459 0.70791727
0.28719452 0.59514278 0.72272968
0.28908375 0.62045407 0.73752296
0.29116356 0.64548880 0.75226945
0.29344288 0.67018712 0.76694155
0.29593062 0.69448930 0.78151149
0.29863572 0.71833557 0.79595172
0.30156711 0.74166620 0.81023455
0.30473369 0.76442146 0.82433242
0.30814445 0.78654146 0.83821756
0.31180829 0.80796659 0.85186243
0.31573415 0.82863700 0.86523932
0.31993091 0.84849298 0.87832063
0.27563149 0.14046152 0.46915826
0.27559605 0.15964144 0.47957018
0.27558118 0.17968239 0.49046153
0.27559581 0.20052458 0.50180471
0.27564886 0.22210829 0.51357210
0.27574927 0.24437372 0.52573597
0.27590597 0.26726115 0.53826874
0.27612790 0.29071078 0.55114275
0.27642396 0.31466287 0.56433034
0.27680311 0.33905768 0.57780391
0.27727428 0.36383542 0.59153575
0.27784637 0.38893637 0.60549825
0.27852833 0.41430071 0.61966383
0.27932909 0.43986872 0.63400471
0.28025758 0.46558061 0.64849335
0.28132275 0.49137667 0.66310209
0.28253347 0.51719707 0.67780322
0.28389874 0.54298216 0.69256920
0.28542745 0.56867206 0.70737231
0.28712854 0.59420705 0.72218496
0.28901094 0.61952740 0.73697942
0.29108357 0.64457339 0.75172812
0.29335538 0.66928512 0.76640338
0.29583529 0.69360292 0.78097761
0.29853225 0.71746707 0.79542309
0.30145514 0.74081773 0.80971223
0.30461293 0.76359516 0.82381737
0.30801454 0.78573966 0.83771086
0.31166890 0.80719137 0.85136503
0.31558496 0.82789063 0.86475229
0.31977162 0.84777761 0.87784499
0.32423782 0.86679256 0.89061540
0.32899249 0.88487571 0.90303600
0.27558127 0.17893054 0.49005267
0.27559465 0.19974431 0.50137973
0.27564612 0.22130179 0.51313198
0.27574465 0.24354321 0.52528179
0.27589911 0.26640880 0.53780144
0.27611849 0.28983882 0.55066341
0.27641165 0.31377348 0.56383997
0.27678758 0.33815306 0.57730347
0.27725521 0.36291778 0.59102631
0.27782342 0.38800788 0.60498083
0.27850118 0.41336358 0.61913937
0.27929741 0.43892518 0.63347435
0.28022105 0.46463284 0.64795804
0.28128102 0.49042684 0.66256285
0.28248626 0.51624745 0.67726105
0.28384566 0.54203486 0.69202513
0.28536820 0.56772929 0.70682740
0.28706279 0.59327108 0.72164011
0.28893837 0.61860043 0.73643577
0.29100385 0.64365751 0.75118667
0.29326817 0.66838259 0.76586509
0.29574028 0.69271600 0.78044355
0.29842907 0.71659786 0.79489422
0.30134350 0.73996848 0.80918962
0.30449250 0.76276809 0.82330203
0.30788499 0.78493690 0.83720374
0.31152990 0.80641514 0.85086727
0.31543615 0.82714313 0.86426485
0.31961271 0.84706104 0.87736881
0.32406846 0.86610913 0.89015162
0.32881236 0.88422769 0.90258557
0.33385333 0.90135688 0.91464305
0.33920032 0.91743696 0.92629635
0.27564347 0.22049622 0.51269239
0.27574009 0.24271354 0.52482808
0.27589235 0.26555723 0.53733462
0.27610916 0.28896755 0.55018449
0.27639946 0.31288472 0.56334996
0.27677220 0.33724898 0.57680339
0.27723628 0.36200058 0.59051716
0.27780065 0.38707975 0.60446370
0.27847421 0.41242677 0.61861521
0.27926594 0.43798181 0.63294417
0.28018472 0.46368518 0.64742285
0.28123951 0.48947707 0.66202372
0.28243923 0.51529771 0.67671901
0.28379282 0.54108745 0.69148111
0.28530920 0.56678641 0.70628244
0.28699729 0.59233481 0.72109532
0.28886604 0.61767304 0.73589206
0.29092440 0.64274120 0.75064510
0.29318124 0.66747957 0.76532668
0.29564553 0.69182843 0.77990931
0.29832622 0.71572793 0.79436517
0.30123219 0.73911846 0.80866677
0.30437240 0.76194012 0.82278639
0.30775577 0.78413320 0.83669639
0.31139123 0.80563790 0.85036916
0.31528771 0.82639456 0.86377698
0.31945416 0.84634334 0.87689227
0.32389948 0.86542451 0.88968736
0.32863262 0.88357824 0.90213466
0.33366251 0.90074492 0.91420645
0.33899808 0.91686463 0.92587513
0.34464824 0.93187773 0.93711299
0.35062194 0.94572437 0.94789249
0.27588564 0.26470643 0.53686827
0.27609992 0.28809693 0.54970598
0.27638736 0.31199652 0.56286031
0.27675691 0.33634540 0.57630366
0.27721748 0.36108381 0.59000838
0.27777800 0.38615200 0.60394681
0.27844739 0.41149020 0.61809129
0.27923462 0.43703866 0.63241416
0.28014857 0.46273762 0.64688790
0.28119820 0.48852733 0.66148472
0.28239241 0.51434797 0.67617702
0.28374019 0.54013991 0.69093716
0.28525043 0.56584322 0.70573753
0.28693205 0.59139830 0.72055048
0.28879401 0.61674523 0.73534834
0.29084522 0.64182442 0.75010341
0.29309461 0.66657597 0.76478815
0.29555109 0.69094020 0.77937490
0.29822364 0.71485734 0.79383594
0.30112118 0.73826760 0.80814368
0.30425259 0.76111126 0.82227045
0.30762687 0.78332853 0.83618867
0.31125292 0.80485964 0.84987062
0.31513962 0.82564485 0.86328870
0.31929600 0.84562445 0.87641525
0.32373089 0.86473858 0.88922262
0.32845330 0.88292754 0.90168321
0.33347210 0.90013152 0.91376930
0.33879626 0.91629082 0.92545331
0.34443471 0.93134570 0.93670756
0.35039634 0.94523633 0.94750440
0.35669011 0.95790297 0.95781618
0.36332497 0.96928585 0.96761531
0.27637541 0.31110895 0.56237108
0.27674177 0.33544236 0.57580429
0.27719882 0.36016750 0.58949989
0.27775550 0.38522461 0.60343021
0.27842075 0.41055393 0.61756760
0.27920344 0.43609571 0.63188440
0.28011259 0.46179020 0.64635307
0.28115708 0.48757762 0.66094583
0.28234583 0.51339823 0.67563516
0.28368777 0.53919220 0.69039327
0.28519189 0.56489986 0.70519269
0.28686705 0.59046143 0.72000563
0.28872222 0.61581713 0.73480451
0.29076630 0.64090723 0.74956167
0.29300824 0.66567189 0.76424950
0.29545695 0.69005144 0.77884030
0.29812139 0.71398610 0.79330647
0.30101049 0.73741603 0.80762035
0.30413315 0.76028162 0.82175428
0.30749834 0.78252298 0.83568066
0.31111494 0.80408037 0.84937179
0.31499192 0.82489413 0.86280006
0.31913820 0.84490436 0.87593782
0.32356271 0.86405140 0.88875747
0.32827437 0.88227546 0.90123123
0.33328211 0.89951676 0.91333163
0.33859488 0.91571558 0.92503089
0.34422159 0.93081212 0.93630141
0.35017118 0.94474661 0.94711560
0.35645258 0.95745933 0.95744574
0.36307472 0.96889055 0.96726424
0.37004653 0.97898042 0.97654337
0.37737694 0.98766923 0.98525560
0.27718028 0.35925162 0.58899170
0.27773315 0.38429758 0.60291386
0.27839422 0.40961796 0.61704415
0.27917248 0.43515298 0.63135487
0.28007680 0.46084291 0.64581841
0.28111613 0.48662797 0.66040713
0.28229943 0.51244843 0.67509335
0.28363559 0.53824443 0.68984944
0.28513357 0.56395632 0.70464778
0.28680229 0.58952433 0.71946073
0.28865066 0.61488867 0.73426062
0.29068765 0.63998955 0.74901980
0.29292214 0.66476727 0.76371068
0.29536310 0.68916208 0.77830553
0.29801944 0.71311414 0.79277682
0.30090013 0.73656374 0.80709678
0.30401403 0.75945109 0.82123780
0.30737013 0.78171647 0.83517230
0.31097734 0.80330014 0.84887260
0.31484458 0.82414228 0.86231101
0.31898078 0.84418315 0.87545997
0.32339489 0.86336297 0.88829178
0.32809582 0.88162208 0.90077877
0.33309254 0.89890057 0.91289341
0.33839393 0.91513878 0.92460793
0.34400892 0.93027693 0.93589473
0.34994647 0.94425523 0.94672614
0.35621551 0.95701402 0.95707458
0.36282495 0.96849340 0.96691239
0.36978376 0.97863370 0.97621191
0.37710080 0.98737514 0.98494548
0.38478506 0.99465793 0.99308544
0.39299881 0.99992150 1.00000000
0.27836788 0.40868229 0.61652094
0.27914166 0.43421048 0.63082552
0.28004119 0.45989576 0.64528388
0.28107542 0.48567837 0.65986848
0.28225324 0.51149857 0.67455161
0.28358364 0.53729653 0.68930566
0.28507549 0.56301260 0.70410293
0.28673777 0.58858693 0.71891582
0.28857937 0.61395985 0.73371673
0.29060924 0.63907146 0.74847788
0.29283634 0.66386217 0.76317173
0.29526955 0.68827206 0.77777064
0.29791781 0.71224147 0.79224694
0.30079007 0.73571062 0.80657297
0.30389524 0.75861973 0.82072109
0.30724227 0.78090906 0.83466363
0.31084007 0.80251884 0.84837306
0.31469759 0.82338935 0.86182159
0.31882375 0.84346074 0.87498170
0.32322747 0.86267334 0.88782567
0.32791770 0.88096732 0.90032583
0.33290336 0.89828295 0.91245461
0.33819339 0.91456050 0.92418432
0.34379670 0.92974019 0.93548739
0.34972224 0.94376224 0.94633609
0.35597891 0.95656693 0.95670277
0.36257568 0.96809441 0.96655983
0.36952144 0.97828507 0.97587961
0.37682515 0.98707902 0.98463452
0.38449574 0.99441653 0.99279678
0.39262798 0.99995697 1.00000000
0.40291438 0.99845904 1.00000000
0.41361532 0.99588192 1.00000000
0.28000575 0.45894870 0.64474958
0.28103486 0.48472881 0.65933001
0.28220725 0.51054865 0.67401004
0.28353187 0.53634852 0.68876195
0.28501764 0.56206870 0.70355815
0.28667349 0.58764929 0.71837091
0.28850833 0.61303061 0.73317271
0.29053113 0.63815296 0.74793589
0.29275081 0.66295648 0.76263267
0.29517627 0.68738151 0.77723557
0.29781646 0.71136814 0.79171687
0.30068031 0.73485678 0.80604887
0.30377677 0.75778753 0.82020402
0.30711475 0.78010070 0.83415467
0.31070316 0.80173659 0.84787315
0.31455097 0.82263529 0.86133176
0.31866708 0.84273720 0.87450296
0.32306045 0.86198241 0.88735902
0.32773998 0.88031125 0.89987236
0.33271462 0.89766395 0.91201532
0.33799326 0.91398078 0.92376024
0.34358490 0.92920190 0.93507946
0.34949842 0.94326758 0.94594532
0.35574275 0.95611811 0.95633024
0.36232686 0.96769369 0.96620655
0.36925963 0.97793454 0.97554660
0.37655002 0.98678094 0.98432273
0.38420695 0.99417311 0.99250734
0.39225775 0.99999100 1.00000000
0.40252846 0.99853349 1.00000000
0.41321456 0.99599534 1.00000000
0.42429426 0.99241751 1.00000000
0.43574581 0.98784101 1.00000000
0.28216150 0.50959879 0.67346853
0.28348035 0.53540045 0.68821830
0.28496003 0.56112456 0.70301330
0.28660944 0.58671135 0.71782601
0.28843758 0.61210108 0.73262870
0.29045328 0.63723403 0.74739373
0.29266554 0.66205031 0.76209348
0.29508328 0.68649030 0.77670032
0.29771543 0.71049416 0.79118657
0.30057091 0.73400217 0.80552459
0.30365863 0.75695449 0.81968677
0.30698755 0.77929145 0.83364540
0.31056660 0.80095327 0.84737289
0.31440473 0.82188022 0.86084157
0.31851080 0.84201247 0.87402380
0.32289380 0.86129028 0.88689196
0.32756263 0.87965387 0.89941841
0.33252627 0.89704359 0.91157544
0.33779359 0.91339952 0.92333549
0.34337354 0.92866200 0.93467087
0.34927505 0.94277132 0.94555390
0.35550708 0.95566756 0.95595706
0.36207849 0.96729112 0.96585256
0.36899829 0.97758210 0.97521281
0.37627536 0.98648089 0.98401016
0.38391867 0.99392760 0.99221700
0.39193711 0.99986255 0.99980569
0.40214312 0.99860650 1.00000000
0.41281432 0.99610740 1.00000000
0.42387992 0.99256712 1.00000000
0.43531817 0.98802662 1.00000000
0.44710726 0.98252684 1.00000000
0.45922539 0.97610885 1.00000000
0.28490263 0.56018025 0.70246851
0.28654566 0.58577317 0.71728104
0.28836703 0.61117125 0.73208463
0.29037571 0.63631463 0.74685156
0.29258057 0.66114366 0.76155418
0.29499060 0.68559855 0.77616489
0.29761469 0.70961952 0.79065609
0.30046180 0.73314679 0.80500007
0.30354083 0.75612062 0.81916916
0.30686072 0.77848130 0.83313578
0.31043041 0.80016905 0.84687227
0.31425881 0.82112402 0.86035097
0.31835487 0.84128660 0.87354428
0.32272753 0.86059690 0.88642448
0.32738572 0.87899518 0.89896393
0.33233833 0.89642173 0.91113508
0.33759430 0.91281682 0.92291021
0.34316260 0.92812061 0.93426168
0.34905213 0.94227332 0.94516188
0.35527185 0.95521528 0.95558316
0.36183062 0.96688670 0.96549779
0.36873743 0.97722781 0.97487825
0.37600121 0.98617887 0.98369682
0.38363087 0.99368006 0.99192590
0.39163536 0.99967164 0.99953783
0.40175831 0.99867809 1.00000000
0.41241461 0.99621803 1.00000000
0.42346609 0.99271530 1.00000000
0.43489102 0.98821086 1.00000000
0.44666758 0.98274571 1.00000000
0.45877400 0.97636074 1.00000000
0.47118852 0.96909702 1.00000000
0.48388934 0.96099544 1.00000000
0.28829676 0.61024100 0.73154050
0.29029837 0.63539481 0.74630922
0.29249588 0.66023648 0.76101476
0.29489818 0.68470615 0.77562934
0.29751426 0.70874417 0.79012543
0.30035299 0.73229069 0.80447525
0.30342332 0.75528598 0.81865132
0.30673420 0.77767026 0.83262587
0.31029454 0.79938376 0.84637129
0.31411329 0.82036680 0.85986000
0.31819934 0.84055954 0.87306428
0.32256168 0.85990226 0.88595647
0.32720917 0.87833518 0.89850897
0.33215079 0.89579856 0.91069418
0.33739546 0.91223264 0.92248434
0.34295213 0.92757761 0.93385190
0.34882966 0.94177377 0.94476920
0.35503706 0.95476133 0.95520854
0.36158323 0.96648055 0.96514237
0.36847708 0.97687161 0.97454292
0.37572756 0.98587489 0.98338270
0.38334361 0.99343050 0.99163389
0.39133412 0.99947870 0.99926901
0.40137410 0.99874812 1.00000000
0.41201544 0.99632728 1.00000000
0.42305276 0.99286216 1.00000000
0.43446434 0.98839384 1.00000000
0.44622833 0.98296332 1.00000000
0.45832303 0.97661150 1.00000000
0.47072658 0.96937931 1.00000000
0.48341724 0.96130782 1.00000000
0.49637324 0.95243800 1.00000000
0.50957280 0.94281077 1.00000000
0.29241145 0.65932882 0.76047516
0.29480609 0.68381321 0.77509362
0.29741412 0.70786816 0.78959453
0.30024451 0.73143381 0.80395025
0.30330616 0.75445044 0.81813318
0.30660802 0.77685827 0.83211565
0.31015903 0.79859751 0.84587002
0.31396812 0.81960845 0.85936862
0.31804419 0.83983135 0.87258387
0.32239619 0.85920638 0.88548803
0.32703304 0.87767386 0.89805353
0.33196369 0.89517397 0.91025269
0.33719704 0.91164696 0.92205793
0.34274206 0.92703307 0.93344152
0.34860766 0.94127256 0.94437581
0.35480276 0.95430565 0.95483327
0.36133629 0.96607256 0.96478617
0.36821720 0.97651356 0.97420686
0.37545440 0.98556894 0.98306775
0.38305682 0.99317884 0.99134111
0.39103341 0.99928355 0.99899936
0.40099046 0.99881679 1.00000000
0.41161680 0.99643511 1.00000000
0.42263994 0.99300766 1.00000000
0.43403813 0.98857558 1.00000000
0.44578955 0.98317969 1.00000000
0.45787245 0.97686100 1.00000000
0.47026503 0.96966052 1.00000000
0.48294553 0.96161920 1.00000000
0.49589217 0.95277798 1.00000000
0.50908309 0.94317788 1.00000000
0.52249664 0.93285990 1.00000000
0.53611094 0.92186493 1.00000000
0.29731429 0.70699149 0.78906345
0.30013633 0.73057622 0.80342501
0.30318934 0.75361407 0.81761479
0.30648220 0.77604538 0.83160514
0.31002387 0.79781032 0.84536839
0.31382331 0.81884909 0.85887688
0.31788939 0.83910203 0.87210298
0.32223108 0.85850930 0.88501912
0.32685730 0.87701124 0.89759755
0.33177698 0.89454800 0.90981072
0.33699906 0.91105980 0.92163092
0.34253243 0.92648697 0.93303049
0.34838608 0.94076967 0.94398189
0.35456890 0.95384824 0.95445734
0.36108983 0.96566278 0.96442926
0.36795780 0.97615367 0.97387004
0.37518173 0.98526102 0.98275197
0.38277057 0.99292517 0.99104744
0.39073324 0.99908632 0.99872881
0.40060738 0.99888390 1.00000000
0.41121870 0.99654150 1.00000000
0.42222762 0.99315184 1.00000000
0.43361241 0.98875594 1.00000000
0.44535121 0.98339480 1.00000000
0.45742232 0.97710931 1.00000000
0.46980390 0.96994054 1.00000000
0.48247418 0.96192944 1.00000000
0.49541140 0.95311695 1.00000000
0.50859374 0.94354403 1.00000000
0.52199948 0.93325174 1.00000000
0.53560680 0.92228091 1.00000000
0.54939389 0.91067266 1.00000000
0.56333905 0.89846784 1.00000000
0.30307281 0.75277692 0.81709611
0.30635670 0.77523160 0.83109426
0.30988908 0.79702204 0.84486634
0.31367886 0.81808865 0.85838473
0.31773499 0.83837157 0.87162173
0.32206637 0.85781103 0.88454974
0.32668197 0.87634730 0.89714110
0.33159068 0.89392060 0.90936822
0.33680147 0.91047120 0.92120332
0.34232324 0.92593932 0.93261892
0.34816495 0.94026518 0.94358724
0.35433549 0.95338911 0.95408070
0.36084384 0.96525121 0.96407163
0.36769888 0.97579187 0.97353244
0.37490955 0.98495120 0.98243546
0.38248482 0.99266946 0.99075300
0.39043358 0.99888700 0.99845743
0.40022486 0.99894959 1.00000000
0.41082114 0.99664646 1.00000000
0.42181584 0.99329460 1.00000000
0.43318716 0.98893499 1.00000000
0.44491333 0.98360866 1.00000000
0.45697260 0.97735649 1.00000000
0.46934313 0.97021949 1.00000000
0.48200318 0.96223861 1.00000000
0.49493098 0.95345485 1.00000000
0.50810468 0.94390923 1.00000000
0.52150261 0.93364263 1.00000000
0.53510284 0.92269605 1.00000000
0.54888374 0.91111052 1.00000000
0.56282347 0.89892691 1.00000000
0.57690024 0.88618630 1.00000000
0.59109223 0.87292963 1.00000000
0.30975461 0.79623288 0.84436405
0.31353477 0.81732714 0.85789222
0.31758094 0.83763993 0.87114006
0.32190204 0.85711151 0.88407993
0.32650703 0.87568206 0.89668417
0.33140481 0.89329183 0.90892512
0.33660433 0.90988111 0.92077518
0.34211451 0.92539012 0.93220669
0.34794426 0.93975908 0.94319195
0.35410255 0.95292825 0.95370340
0.36059830 0.96483785 0.96371329
0.36744043 0.97542816 0.97319412
0.37463787 0.98463941 0.98211813
0.38219956 0.99241179 0.99045771
0.39013442 0.99868554 0.99818522
0.39984289 0.99901378 1.00000000
0.41042411 0.99675000 1.00000000
0.42140454 0.99343604 1.00000000
0.43276238 0.98911279 1.00000000
0.44447592 0.98382127 1.00000000
0.45652330 0.97760242 1.00000000
0.46888277 0.97049725 1.00000000
0.48153254 0.96254671 1.00000000
0.49445087 0.95379180 1.00000000
0.50761592 0.94427341 1.00000000
0.52100599 0.93403262 1.00000000
0.53459918 0.92311037 1.00000000
0.54837382 0.91154760 1.00000000
0.56230807 0.89938527 1.00000000
0.57638019 0.88666445 1.00000000
0.59056830 0.87342596 1.00000000
0.60485077 0.85971093 1.00000000
0.61920571 0.84556025 1.00000000
0.31742728 0.83690721 0.87065798
0.32173809 0.85641074 0.88360965
0.32633248 0.87501550 0.89622676
0.33121932 0.89266169 0.90848154
0.33640757 0.90928960 0.92034650
0.34190616 0.92483938 0.93179387
0.34772402 0.93925136 0.94279605
0.35387006 0.95246571 0.95332539
0.36035323 0.96442276 0.96335423
0.36718246 0.97506261 0.97285503
0.37436667 0.98432565 0.98179996
0.38191482 0.99215204 0.99016154
0.38983577 0.99848199 0.99791205
0.39946154 0.99907649 1.00000000
0.41002762 0.99685216 1.00000000
0.42099375 0.99357605 1.00000000
0.43233812 0.98928922 1.00000000
0.44403893 0.98403263 1.00000000
0.45607442 0.97784716 1.00000000
0.46842280 0.97077388 1.00000000
0.48106229 0.96285373 1.00000000
0.49397111 0.95412761 1.00000000
0.50712746 0.94463664 1.00000000
0.52050966 0.93442172 1.00000000
0.53409576 0.92352378 1.00000000
0.54786408 0.91198385 1.00000000
0.56179285 0.89984286 1.00000000
0.57586026 0.88714182 1.00000000
0.59004456 0.87392169 1.00000000
0.60432392 0.86022347 1.00000000
0.61867660 0.84608805 1.00000000
0.63308078 0.83155650 1.00000000
