TEKMVVM3757 Map/TEKMVVM3757 Map.cube
# VEGAS Pro LUT
TITLE "TEKMVVM3757 Map"
LUT_3D_SIZE 5
0.27450982 0.00000000 0.39215687
0.27579582 0.07679114 0.43461987
0.27566665 0.22696652 0.51622397
0.27869454 0.41992906 0.62281525
0.28945178 0.62508166 0.74023986
0.27564347 0.22049622 0.51269239
0.27847421 0.41242677 0.61861521
0.28886604 0.61767304 0.73589206
0.31139123 0.80563790 0.85036916
0.35062194 0.94572437 0.94789249
0.28829676 0.61024100 0.73154050
0.31029454 0.79938376 0.84637129
0.34882966 0.94177377 0.94476920
0.41201544 0.99632728 1.00000000
0.50957280 0.94281077 1.00000000
0.34706599 0.93771845 0.94160444
0.40884143 0.99715006 1.00000000
0.50566399 0.94572043 1.00000000
0.61708957 0.84766835 1.00000000
0.73196644 0.72397161 1.00000000
0.50177491 0.94856697 1.00000000
0.61286086 0.85185844 1.00000000
0.72780836 0.72873348 1.00000000
0.83546555 0.60016990 1.00000000
0.92468059 0.48714560 1.00000000
0.27545804 0.01867511 0.40282920
0.27566516 0.12705451 0.46188504
0.27620041 0.29715237 0.55468547
0.28163597 0.49837160 0.66707671
0.29654410 0.70011514 0.78490478
0.27612188 0.29015583 0.55083764
0.28129616 0.49077222 0.66275889
0.29577479 0.69303858 0.78063774
0.32413000 0.86635780 0.89032036
0.37093401 0.98013282 0.97765279
0.29502428 0.68592286 0.77635962
0.32278794 0.86084914 0.88659453
0.36883223 0.97735685 0.97499996
0.44682741 0.98266625 1.00000000
0.55111146 0.90919387 1.00000000
0.36676139 0.97446048 0.97229850
0.44332483 0.98437572 1.00000000
0.54703051 0.91269594 1.00000000
0.66108733 0.80239195 1.00000000
0.77434355 0.67444152 1.00000000
0.54296356 0.91614580 1.00000000
0.65683717 0.80689108 1.00000000
0.77032042 0.67921817 1.00000000
0.87226152 0.55410492 1.00000000
0.95150864 0.45252913 1.00000000
0.27578932 0.05076991 0.42046443
0.27558222 0.18628973 0.49405557
0.27744651 0.37186223 0.59599489
0.28595439 0.57689035 0.71212852
0.30567810 0.77077699 0.82830250
0.27728823 0.36450309 0.59190643
0.28547066 0.56935757 0.70776862
0.30470073 0.76419616 0.82419199
0.33955064 0.91842192 0.92702258
0.39513397 0.99968898 1.00000000
0.30374452 0.75756043 0.82006299
0.33793876 0.91382241 0.92364442
0.39215687 1.00000000 1.00000000
0.48470557 0.96045327 1.00000000
0.59409517 0.87007439 1.00000000
0.38975441 0.99842608 0.99783742
0.48093408 0.96293724 1.00000000
0.58990175 0.87405682 1.00000000
0.70496869 0.75455034 1.00000000
0.81498319 0.62539572 1.00000000
0.58571655 0.87799776 1.00000000
0.70075673 0.75924629 1.00000000
0.81115466 0.63007492 1.00000000
0.90575856 0.51146144 1.00000000
0.97341663 0.42438370 1.00000000
0.27575704 0.09458856 0.44427809
0.27580041 0.25280100 0.53034705
0.27965841 0.44940034 0.63936770
0.29190323 0.65378946 0.75718617
0.31710714 0.83537138 0.86964864
0.27939588 0.44184220 0.63511431
0.29125115 0.64648688 0.75285995
0.31589729 0.82945001 0.86577022
0.35790655 0.96013439 0.95969135
0.42808390 0.99099606 1.00000000
0.31471094 0.82345784 0.86186612
0.35600039 0.95660764 0.95673656
0.42474684 0.99225283 1.00000000
0.52503186 0.93085092 1.00000000
0.63790596 0.82661515 1.00000000
0.42144191 0.99342322 1.00000000
0.52105111 0.93399721 1.00000000
0.63365960 0.83096558 1.00000000
0.74811560 0.70530623 1.00000000
0.85326725 0.57799685 1.00000000
0.62941581 0.83528543 1.00000000
0.74400145 0.71008682 1.00000000
0.84969294 0.58246648 1.00000000
0.93533856 0.47340229 1.00000000
0.98978645 0.40387207 1.00000000
0.27561462 0.14843524 0.47348565
0.27657309 0.32489246 0.56997490
0.28308946 0.52807081 0.68401939
0.29973590 0.72737318 0.80146527
0.33108470 0.89220256 0.90815866
0.28269821 0.52047735 0.67967683
0.29889098 0.72046447 0.79724836
0.32961789 0.88710415 0.90458810
0.37945113 0.98979944 0.98754215
0.46442533 0.97313917 1.00000000
0.32817695 0.88191921 0.90098453
0.37722626 0.98750907 0.98508650
0.46078795 0.97522950 1.00000000
0.56718820 0.89502192 1.00000000
0.68192559 0.77997869 1.00000000
0.45717695 0.97724426 1.00000000
0.56305778 0.89871836 1.00000000
0.67768610 0.78458506 1.00000000
0.78990996 0.65582222 1.00000000
0.88857764 0.53340769 1.00000000
0.67344332 0.78917158 1.00000000
0.78595322 0.66057527 1.00000000
0.88531721 0.53755552 1.00000000
0.96038342 0.44109008 1.00000000
1.00000000 0.39215687 1.00000000
