TEKMVVM3757 Map/TEKMVVM3757 Map.cube
# VEGAS Pro LUT
TITLE "TEKMVVM3757 Map"
LUT_3D_SIZE 9
0.27450982 0.00000000 0.39215687
0.27561548 0.02731022 0.40761113
0.27579582 0.07679114 0.43461987
0.27562237 0.14461812 0.47141388
0.27566665 0.22696652 0.51622397
0.27650020 0.32001171 0.56728083
0.27869454 0.41992906 0.62281525
0.28282124 0.52289391 0.68105799
0.28945178 0.62508166 0.74023986
0.27579895 0.07462230 0.43344203
0.27562839 0.14184210 0.46990740
0.27565452 0.22372404 0.51445389
0.27644894 0.31644347 0.56531233
0.27858308 0.41617575 0.62071335
0.28262857 0.51909626 0.67888784
0.28915685 0.62138033 0.73806649
0.29873949 0.71920341 0.79648012
0.31194803 0.80874079 0.85235947
0.27564347 0.22049622 0.51269239
0.27639946 0.31288472 0.56334996
0.27847421 0.41242677 0.61861521
0.28243923 0.51529771 0.67671901
0.28886604 0.61767304 0.73589206
0.29832622 0.71572793 0.79436517
0.31139123 0.80563790 0.85036916
0.32863262 0.88357824 0.90213466
0.35062194 0.94572437 0.94789249
0.27836788 0.40868229 0.61652094
0.28225324 0.51149857 0.67455161
0.28857937 0.61395985 0.73371673
0.29791781 0.71224147 0.79224694
0.31084007 0.80251884 0.84837306
0.32791770 0.88096732 0.90032583
0.34972224 0.94376224 0.94633609
0.37682515 0.98707902 0.98463452
0.41361532 0.99588192 1.00000000
0.28829676 0.61024100 0.73154050
0.29751426 0.70874417 0.79012543
0.31029454 0.79938376 0.84637129
0.32720917 0.87833518 0.89850897
0.34882966 0.94177377 0.94476920
0.37572756 0.98587489 0.98338270
0.41201544 0.99632728 1.00000000
0.45832303 0.97661150 1.00000000
0.50957280 0.94281077 1.00000000
0.30975461 0.79623288 0.84436405
0.32650703 0.87568206 0.89668417
0.34794426 0.93975908 0.94319195
0.37463787 0.98463941 0.98211813
0.41042411 0.99675000 1.00000000
0.45652330 0.97760242 1.00000000
0.50761592 0.94427341 1.00000000
0.56230807 0.89938527 1.00000000
0.61920571 0.84556025 1.00000000
0.34706599 0.93771845 0.94160444
0.37355608 0.98337275 0.98084086
0.40884143 0.99715006 1.00000000
0.45473033 0.97857416 1.00000000
0.50566399 0.94572043 1.00000000
0.56024837 0.90121108 1.00000000
0.61708957 0.84766835 1.00000000
0.67479360 0.78771442 1.00000000
0.73196644 0.72397161 1.00000000
0.40726748 0.99752718 1.00000000
0.45294419 0.97952658 1.00000000
0.50371695 0.94715166 1.00000000
0.55819172 0.90302467 1.00000000
0.61497462 0.84976780 1.00000000
0.67267156 0.79000330 1.00000000
0.72988868 0.72635341 1.00000000
0.78523189 0.66144031 1.00000000
0.83730727 0.59788626 1.00000000
0.50177491 0.94856697 1.00000000
0.55613822 0.90482587 1.00000000
0.61286086 0.85185844 1.00000000
0.67054892 0.79228687 1.00000000
0.72780836 0.72873348 1.00000000
0.78324521 0.66382039 1.00000000
0.83546555 0.60016990 1.00000000
0.88307530 0.54040426 1.00000000
0.92468059 0.48714560 1.00000000
0.27507690 0.00755411 0.39657366
0.27576232 0.04376850 0.41664198
0.27574036 0.10069536 0.44759026
0.27558252 0.17451005 0.48764923
0.27586031 0.26138794 0.53504974
0.27714530 0.35750440 0.58802241
0.28000897 0.45903480 0.64479816
0.28502288 0.56215447 0.70360768
0.29275855 0.66303885 0.76268172
0.27574709 0.09827842 0.44627944
0.27558410 0.17153959 0.48603460
0.27583575 0.25800467 0.53319633
0.27707356 0.35384902 0.58599538
0.27986902 0.45524800 0.64266253
0.28479370 0.55837697 0.70142859
0.29241914 0.65941131 0.76052421
0.30331680 0.75452644 0.81818032
0.31805828 0.83989763 0.87262756
0.27581254 0.25463408 0.53135055
0.27700391 0.35020113 0.58397359
0.27973196 0.45146352 0.64052975
0.28456819 0.55459660 0.69924992
0.29208410 0.65577579 0.75836480
0.30285129 0.75117642 0.81610519
0.31744123 0.83697385 0.87070185
0.33642545 0.90934342 0.92038548
0.36037549 0.96446055 0.96338695
0.27959773 0.44768158 0.63839996
0.28434628 0.55081362 0.69707185
0.29175350 0.65213245 0.75620353
0.30239093 0.74781340 0.81402582
0.31683010 0.83403194 0.86876947
0.33564255 0.90696329 0.91866523
0.35939980 0.96278286 0.96194386
0.38867337 0.99766606 0.99683613
0.43068418 0.98996639 1.00000000
0.29142725 0.64848149 0.75404048
0.30193573 0.74443763 0.81194228
0.31622490 0.83107197 0.86683053
0.33486634 0.90455991 0.91693598
0.35843155 0.96107680 0.96048939
0.38749203 0.99679804 0.99572158
0.42899951 0.99063843 1.00000000
0.47735584 0.96524316 1.00000000
0.53012282 0.92676282 1.00000000
0.31562561 0.82809430 0.86488515
0.33409679 0.90213364 0.91519791
0.35747072 0.95934266 0.95902371
0.38631892 0.99589664 0.99459332
0.42732269 0.99128920 1.00000000
0.47549015 0.96642536 1.00000000
0.52811962 0.92837989 1.00000000
0.58381706 0.87977505 1.00000000
0.64118850 0.82323313 1.00000000
0.35651731 0.95758051 0.95754683
0.38515401 0.99496216 0.99345154
0.42565379 0.99191856 1.00000000
0.47363052 0.96758968 1.00000000
0.52612048 0.92998272 1.00000000
0.58172977 0.88171989 1.00000000
0.63906437 0.82542348 1.00000000
0.69673032 0.76371568 1.00000000
0.75333357 0.69921869 1.00000000
0.42399287 0.99252641 1.00000000
0.47177699 0.96873605 1.00000000
0.52412564 0.93157113 1.00000000
0.57964486 0.88365388 1.00000000
0.63694066 0.82760650 1.00000000
0.69461912 0.76605135 1.00000000
0.75128615 0.70161051 1.00000000
0.80554789 0.63690633 1.00000000
0.85601026 0.57456094 1.00000000
0.52213502 0.93314493 1.00000000
0.57756233 0.88557678 1.00000000
0.63481748 0.82978213 1.00000000
0.69250655 0.76838309 1.00000000
0.74923551 0.70400196 1.00000000
0.80361038 0.63926101 1.00000000
0.85423726 0.57678235 1.00000000
0.89972210 0.51918834 1.00000000
0.93867099 0.46910116 1.00000000
0.27545804 0.01867511 0.40282920
0.27580637 0.06323769 0.42725444
0.27566516 0.12705451 0.46188504
0.27560601 0.20630094 0.50495183
0.27620041 0.29715237 0.55468547
0.27801988 0.39578411 0.60931689
0.28163597 0.49837160 0.66707671
0.28762022 0.60109013 0.72619575
0.29654410 0.70011514 0.78490478
0.27567241 0.12440993 0.46045071
0.27560011 0.20315649 0.50323844
0.27616033 0.29364872 0.55275822
0.27792463 0.39206201 0.60724074
0.28146449 0.49457172 0.66491681
0.28735146 0.59735322 0.72401720
0.29615709 0.69658184 0.78277272
0.30845287 0.78843302 0.83941400
0.32481039 0.86908197 0.89217192
0.27612188 0.29015583 0.55083764
0.27783176 0.38834545 0.60516894
0.28129616 0.49077222 0.66275889
0.28708667 0.59361148 0.72183824
0.29577479 0.69303858 0.78063774
0.30793205 0.78522891 0.83738822
0.32413000 0.86635780 0.89032036
0.34494016 0.93260068 0.93766493
0.37093401 0.98013282 0.97765279
0.28113100 0.48697329 0.66060299
0.28682581 0.58986515 0.71965891
0.29539719 0.68948555 0.77850002
0.30741671 0.78200984 0.83535719
0.32345587 0.86361349 0.88846117
0.34408620 0.93047172 0.93604267
0.36987925 0.97876000 0.97633255
0.40344149 0.99835509 1.00000000
0.44858941 0.98178160 1.00000000
0.29502428 0.68592286 0.77635962
0.30690679 0.77877605 0.83332115
0.32278794 0.86084914 0.88659453
0.34323925 0.92831767 0.93441057
0.36883223 0.97735685 0.97499996
0.40189818 0.99865222 1.00000000
0.44682741 0.98266625 1.00000000
0.49702981 0.95197272 1.00000000
0.55111146 0.90919387 1.00000000
0.32212621 0.85806507 0.88472050
0.34239927 0.92613864 0.93276864
0.36779296 0.97592360 0.97365528
0.40036389 0.99892586 1.00000000
0.44507253 0.98353100 1.00000000
0.49510562 0.95333213 1.00000000
0.54906923 0.91095138 1.00000000
0.60556936 0.85901105 1.00000000
0.66321206 0.80013335 1.00000000
0.36676139 0.97446048 0.97229850
0.39883867 0.99917597 1.00000000
0.44332483 0.98437572 1.00000000
0.49318677 0.95467502 1.00000000
0.54703051 0.91269594 1.00000000
0.60346198 0.86106086 1.00000000
0.66108733 0.80239195 1.00000000
0.71851254 0.73931146 1.00000000
0.77434355 0.67444152 1.00000000
0.44158444 0.98520029 1.00000000
0.49127331 0.95600128 1.00000000
0.54499525 0.91442752 1.00000000
0.60135621 0.86310118 1.00000000
0.65896237 0.80464458 1.00000000
0.71641958 0.74167991 1.00000000
0.77233398 0.67682934 1.00000000
0.82531154 0.61271518 1.00000000
0.87395835 0.55195963 1.00000000
0.54296356 0.91614580 1.00000000
0.59925216 0.86513186 1.00000000
0.65683717 0.80689108 1.00000000
0.71432459 0.74404579 1.00000000
0.77032042 0.67921817 1.00000000
0.82343078 0.61503047 1.00000000
0.87226152 0.55410492 1.00000000
0.91541880 0.49906370 1.00000000
0.95150864 0.45252913 1.00000000
0.27568495 0.03315104 0.41082549
0.27577922 0.08550582 0.43935043
0.27560189 0.15565662 0.47740617
0.27572450 0.23977883 0.52322352
0.27671859 0.33404779 0.57503325
0.27915564 0.43463886 0.63106608
0.28360721 0.53772742 0.68955284
0.29064485 0.63948882 0.74872422
0.30084005 0.73609847 0.80681109
0.27560660 0.15280487 0.47585776
0.27570805 0.23648083 0.52142096
0.27665994 0.33044425 0.57304156
0.27903378 0.43087050 0.62895036
0.28340113 0.53393495 0.68737817
0.29033348 0.63581300 0.74655575
0.30040240 0.73267990 0.80471385
0.31417939 0.82071114 0.86008322
0.33223599 0.89608198 0.91089463
0.27660322 0.32684949 0.57105565
0.27891463 0.42710575 0.62683803
0.28319851 0.53014088 0.68520457
0.29002640 0.63213032 0.74438590
0.29996976 0.72924936 0.80261284
0.31360021 0.81767344 0.85811615
0.33148924 0.89357781 0.90912658
0.35420838 0.95313793 0.95387495
0.38232917 0.99252915 0.99059200
0.28299934 0.52634543 0.68303204
0.28972349 0.62844110 0.74221474
0.29954213 0.72580707 0.80050814
0.31302682 0.81461877 0.85614300
0.33074903 0.89105153 0.90735006
0.35328037 0.95128071 0.95236015
0.38119227 0.99148166 0.98940402
0.41995043 0.99392641 1.00000000
0.46725374 0.97147280 1.00000000
0.29911947 0.72235316 0.79839981
0.31245914 0.81154734 0.85416383
0.33001533 0.88850331 0.90556514
0.35235962 0.94939637 0.95083457
0.38006347 0.99040192 0.98820287
0.41831768 0.99445891 1.00000000
0.46542183 0.97255611 1.00000000
0.51726770 0.93694550 1.00000000
0.57246131 0.89024931 1.00000000
0.32928813 0.88593334 0.90377194
0.35144612 0.94748509 0.94929832
0.37894267 0.98929006 0.98698860
0.41669324 0.99496931 1.00000000
0.46359637 0.97362083 1.00000000
0.51529247 0.93846804 1.00000000
0.57038760 0.89213324 1.00000000
0.62748778 0.83723861 1.00000000
0.68519902 0.77640635 1.00000000
0.37782988 0.98814631 0.98576140
0.41507715 0.99545747 1.00000000
0.46177736 0.97466683 1.00000000
0.51332188 0.93997544 1.00000000
0.56831664 0.89400554 1.00000000
0.62536776 0.83937937 1.00000000
0.68308121 0.77871913 1.00000000
0.74006301 0.71464705 1.00000000
0.79491919 0.64978540 1.00000000
0.45996493 0.97569406 1.00000000
0.51135588 0.94146764 1.00000000
0.56624848 0.89586616 1.00000000
0.62324864 0.84151202 1.00000000
0.68096238 0.78102732 1.00000000
0.73799580 0.71703428 1.00000000
0.79295492 0.65215522 1.00000000
0.84444571 0.58901232 1.00000000
0.89107418 0.53022778 1.00000000
0.56418312 0.89771497 1.00000000
0.62113041 0.84363633 1.00000000
0.67884266 0.78333068 1.00000000
0.73592579 0.71942031 1.00000000
0.79098594 0.65452737 1.00000000
0.84262902 0.59127414 1.00000000
0.88946104 0.53228283 1.00000000
0.93008816 0.48017564 1.00000000
0.96311629 0.43757486 1.00000000
0.27578932 0.05076991 0.42046443
0.27571261 0.11036091 0.45283186
0.27558222 0.18628973 0.49405557
0.27596968 0.27473173 0.54236633
0.27744651 0.37186223 0.59599489
0.28058425 0.47385666 0.65317202
0.28595439 0.57689035 0.71212852
0.29412851 0.67713869 0.77109510
0.30567810 0.77077699 0.82830250
0.27558136 0.18325123 0.49240258
0.27593964 0.27130064 0.54048395
0.27736625 0.36817926 0.59394825
0.28043276 0.47006252 0.65102613
0.28571066 0.57312572 0.70994854
0.29377148 0.67354429 0.76894605
0.30518675 0.76749355 0.82624960
0.32052803 0.85114884 0.88008982
0.34036681 0.92068559 0.92869759
0.27728823 0.36450309 0.59190643
0.28028426 0.46626997 0.64888281
0.28547066 0.56935757 0.70776862
0.29341900 0.66994119 0.76679474
0.30470073 0.76419616 0.82419199
0.31988743 0.84829795 0.87819099
0.33955064 0.91842192 0.92702258
0.36426184 0.97074336 0.96891749
0.39513397 0.99968898 1.00000000
0.28523442 0.56558597 0.70558894
0.29307100 0.66632950 0.76464128
0.30421999 0.76088506 0.82212973
0.31925291 0.84542817 0.87628508
0.33874130 0.91613412 0.92533815
0.36325666 0.96917826 0.96751964
0.39364073 0.99985659 1.00000000
0.43734384 0.98713785 1.00000000
0.48659989 0.95918536 1.00000000
0.30374452 0.75756043 0.82006299
0.31862444 0.84253961 0.87437230
0.33793876 0.91382241 0.92364442
0.36225906 0.96758407 0.96611005
0.39215687 1.00000000 1.00000000
0.43562913 0.98789173 1.00000000
0.48470557 0.96045327 1.00000000
0.53799224 0.92030674 1.00000000
0.59409517 0.87007439 1.00000000
0.33714300 0.91148698 0.92194152
0.36126903 0.96596098 0.96468890
0.39095151 0.99922997 0.99892569
0.43392196 0.98862487 1.00000000
0.48281696 0.96170390 1.00000000
0.53597343 0.92197847 1.00000000
0.59199744 0.87207073 1.00000000
0.64949501 0.81460297 1.00000000
0.70707220 0.75219738 1.00000000
0.38975441 0.99842608 0.99783742
0.43222249 0.98933715 1.00000000
0.48093408 0.96293724 1.00000000
0.53395849 0.92363638 1.00000000
0.58990175 0.87405682 1.00000000
0.64736980 0.81682068 1.00000000
0.70496869 0.75455034 1.00000000
0.76130450 0.68986791 1.00000000
0.81498319 0.62539572 1.00000000
0.47905707 0.96415311 1.00000000
0.53194755 0.92528039 1.00000000
0.58780807 0.87603253 1.00000000
0.64524472 0.81903166 1.00000000
0.70286351 0.75690001 1.00000000
0.75927049 0.69225991 1.00000000
0.81307167 0.62773347 1.00000000
0.86287302 0.56594300 1.00000000
0.90728056 0.50951070 1.00000000
0.58571655 0.87799776 1.00000000
0.64311993 0.82123560 1.00000000
0.70075673 0.75924629 1.00000000
0.75723296 0.69465202 1.00000000
0.81115466 0.63007492 1.00000000
0.86112785 0.56813735 1.00000000
0.90575856 0.51146144 1.00000000
0.94365281 0.46266952 1.00000000
0.97341663 0.42438370 1.00000000
0.27580279 0.07131974 0.43164799
0.27563819 0.13759100 0.46760073
0.27563784 0.21874185 0.51173520
0.27637324 0.31094763 0.56228220
0.27841589 0.41038373 0.61747241
0.28233737 0.51322556 0.67553663
0.28870916 0.61564833 0.73470563
0.29810286 0.71382761 0.79321021
0.31108990 0.80393863 0.84928107
0.27562833 0.21553707 0.50998712
0.27632651 0.30740392 0.56032950
0.27831095 0.40664181 0.61538023
0.28215319 0.50942606 0.67337006
0.28842473 0.61193204 0.73252976
0.29769710 0.71033520 0.79109013
0.31054181 0.80081075 0.84728187
0.32753044 0.87953424 0.89933580
0.34923449 0.94268090 0.94548267
0.27820855 0.40290466 0.61329204
0.28197229 0.50562620 0.67120510
0.28814432 0.60821021 0.73035312
0.29729617 0.70683205 0.78896689
0.30999935 0.79766703 0.84527713
0.32682541 0.87689060 0.89751464
0.34834585 0.94067806 0.94391018
0.37513220 0.98520482 0.98269451
0.41114637 0.99656069 1.00000000
0.28786796 0.60448301 0.72817576
0.29690006 0.70331836 0.78684050
0.30946246 0.79450762 0.84326684
0.32612669 0.87422609 0.89568549
0.34746432 0.93864924 0.94232732
0.37404683 0.98395234 0.98142302
0.40955976 0.99697101 1.00000000
0.45554447 0.97813487 1.00000000
0.50655061 0.94506466 1.00000000
0.30893111 0.79133266 0.84125113
0.32543433 0.87154090 0.89384860
0.34658989 0.93659449 0.94073427
0.37296933 0.98266876 0.98013890
0.40798184 0.99735862 1.00000000
0.45375523 0.97909606 1.00000000
0.50460136 0.94650310 1.00000000
0.55912620 0.90220183 1.00000000
0.61593580 0.84881461 1.00000000
0.34572253 0.93451411 0.93913108
0.37189966 0.98135436 0.97884232
0.40641266 0.99772322 1.00000000
0.45197284 0.98003793 1.00000000
0.50265700 0.94792563 1.00000000
0.55707127 0.90400869 1.00000000
0.61382151 0.85090923 1.00000000
0.67151386 0.79124957 1.00000000
0.72875428 0.72765183 1.00000000
0.40485230 0.99806476 1.00000000
0.45019740 0.98096019 1.00000000
0.50071776 0.94933224 1.00000000
0.55501944 0.90580314 1.00000000
0.61170846 0.85299504 1.00000000
0.66939086 0.79353023 1.00000000
0.72667259 0.73003089 1.00000000
0.78215975 0.66511935 1.00000000
0.83445829 0.60141778 1.00000000
0.49878362 0.95072275 1.00000000
0.55297089 0.90758497 1.00000000
0.60959679 0.85507178 1.00000000
0.66726732 0.79580545 1.00000000
0.72458851 0.73240811 1.00000000
0.78016639 0.66750205 1.00000000
0.83260691 0.60370946 1.00000000
0.88051623 0.54365259 1.00000000
0.92250025 0.48995370 1.00000000
0.60748655 0.85713941 1.00000000
0.66514331 0.79807508 1.00000000
0.72250205 0.73478323 1.00000000
0.77816874 0.66988623 1.00000000
0.83074945 0.60600621 1.00000000
0.87885010 0.54576546 1.00000000
0.92107683 0.49178618 1.00000000
0.95603561 0.44669062 1.00000000
0.98233241 0.41310099 1.00000000
0.27575704 0.09458856 0.44427809
0.27558765 0.16698410 0.48355898
0.27580041 0.25280100 0.53034705
0.27696681 0.34821460 0.58287299
0.27965841 0.44940034 0.63936770
0.28444669 0.55253351 0.69806182
0.29190323 0.65378946 0.75718617
0.30259955 0.74934369 0.81497151
0.31710714 0.83537138 0.86964864
0.27577919 0.24945039 0.52851325
0.27690038 0.34457871 0.58085948
0.27952573 0.44561985 0.63723946
0.28422678 0.54874915 0.69588405
0.29157501 0.65014195 0.75502390
0.30214199 0.74597365 0.81288987
0.31649926 0.83241963 0.86771268
0.33521834 0.90565521 0.91772312
0.35887071 0.96185577 0.96115190
0.27939588 0.44184220 0.63511431
0.28401041 0.54496241 0.69370693
0.29125115 0.64648688 0.75285995
0.30168959 0.74259096 0.81080413
0.31589729 0.82945001 0.86577022
0.33444577 0.90323931 0.91598904
0.35790655 0.96013439 0.95969135
0.38685113 0.99631047 0.99510783
0.42808390 0.99099606 1.00000000
0.29093161 0.64282453 0.75069433
0.30124229 0.73919576 0.80871433
0.31530118 0.82646263 0.86382133
0.33367985 0.90080059 0.91424614
0.35694978 0.95838493 0.95821953
0.38568249 0.99539101 0.99397224
0.42641139 0.99163514 1.00000000
0.47447506 0.96706265 1.00000000
0.52702868 0.92925596 1.00000000
0.31471094 0.82345784 0.86186612
0.33292055 0.89833915 0.91249454
0.35600039 0.95660764 0.95673656
0.38452202 0.99443859 0.99282306
0.42474684 0.99225283 1.00000000
0.47261873 0.96821719 1.00000000
0.52503186 0.93085092 1.00000000
0.58059227 0.88277614 1.00000000
0.63790596 0.82661515 1.00000000
0.35505837 0.95480269 0.95524263
0.38336968 0.99345326 0.99166048
0.42309031 0.99284887 1.00000000
0.47076857 0.96935374 1.00000000
0.52303934 0.93243140 1.00000000
0.57850862 0.88470411 1.00000000
0.63578248 0.82879412 1.00000000
0.69346696 0.76732367 1.00000000
0.75016803 0.70291501 1.00000000
0.42144191 0.99342322 1.00000000
0.46892461 0.97047204 1.00000000
0.52105111 0.93399721 1.00000000
0.57642746 0.88662100 1.00000000
0.63365960 0.83096558 1.00000000
0.69135368 0.76965326 1.00000000
0.74811560 0.70530623 1.00000000
0.80255145 0.64054668 1.00000000
0.85326725 0.57799685 1.00000000
0.51906729 0.93554831 1.00000000
0.57434875 0.88852668 1.00000000
0.63153738 0.83312941 1.00000000
0.68923914 0.77197874 1.00000000
0.74606007 0.70769686 1.00000000
0.80060619 0.64290601 1.00000000
0.85148352 0.58022845 1.00000000
0.89729810 0.52228642 1.00000000
0.93665594 0.47170210 1.00000000
0.62941581 0.83528543 1.00000000
0.68712342 0.77429992 1.00000000
0.74400145 0.71008682 1.00000000
0.79865593 0.64526826 1.00000000
0.84969294 0.58246648 1.00000000
0.89571846 0.52430373 1.00000000
0.93533856 0.47340229 1.00000000
0.96715921 0.43238431 1.00000000
0.98978645 0.40387207 1.00000000
0.27568376 0.12036438 0.45825666
0.27559265 0.19832821 0.50060850
0.27610159 0.28825518 0.54979295
0.27778211 0.38632065 0.60404074
0.28120568 0.48870000 0.66158271
0.28694388 0.59156859 0.72064954
0.29556826 0.69110179 0.77947205
0.30765030 0.78347492 0.83628100
0.32376152 0.86486340 0.88930720
0.27606562 0.28477922 0.54788291
0.27769288 0.38261303 0.60197580
0.28104222 0.48490146 0.65942794
0.28668517 0.58781981 0.71847004
0.29519320 0.68754345 0.77733284
0.30713791 0.78024775 0.83424723
0.32309079 0.86210811 0.88744390
0.34362337 0.92929989 0.93515366
0.36930719 0.97799838 0.97560722
0.28088188 0.48110375 0.65727526
0.28643030 0.58406669 0.71629024
0.29482281 0.68397564 0.77519101
0.30663094 0.77700597 0.83220845
0.32242626 0.85933304 0.88557321
0.34278023 0.92713219 0.93351614
0.36826441 0.97657883 0.97426802
0.40106016 0.99880439 1.00000000
0.44586930 0.98314041 1.00000000
0.29445705 0.68039852 0.77304667
0.30612940 0.77374965 0.83016467
0.32176787 0.85653824 0.88369519
0.34194401 0.92493963 0.93186897
0.36722934 0.97512925 0.97291672
0.39953083 0.99906522 1.00000000
0.44411835 0.98399425 1.00000000
0.49405831 0.95406663 1.00000000
0.54795676 0.91190457 1.00000000
0.32111564 0.85372400 0.88180995
0.34111473 0.92272246 0.93021208
0.36620197 0.97364980 0.97155339
0.39801061 0.99930239 1.00000000
0.44237462 0.98482800 1.00000000
0.49214238 0.95540047 1.00000000
0.54591990 0.91364205 1.00000000
0.60231322 0.86217499 1.00000000
0.65992826 0.80362141 1.00000000
0.36518225 0.97214073 0.97017807
0.39649960 0.99951577 1.00000000
0.44063824 0.98564148 1.00000000
0.49023190 0.95671767 1.00000000
0.54388660 0.91536641 1.00000000
0.60020834 0.86421001 1.00000000
0.65780318 0.80587071 1.00000000
0.71527714 0.74297071 1.00000000
0.77123618 0.67813224 1.00000000
0.43890920 0.98643464 1.00000000
0.48832688 0.95801800 1.00000000
0.54185688 0.91707748 1.00000000
0.59810519 0.86623532 1.00000000
0.65567791 0.80811381 1.00000000
0.71318102 0.74533516 1.00000000
0.76922047 0.68052155 1.00000000
0.82240242 0.61629522 1.00000000
0.87133276 0.55527842 1.00000000
0.53983086 0.91877514 1.00000000
0.59600389 0.86825085 1.00000000
0.65355253 0.81035066 1.00000000
0.71108288 0.74769682 1.00000000
0.76720095 0.68291163 1.00000000
0.82051265 0.61861724 1.00000000
0.86962414 0.55743587 1.00000000
0.91314137 0.50198984 1.00000000
0.94967043 0.45490128 1.00000000
0.65142715 0.81258106 1.00000000
0.70898288 0.75005567 1.00000000
0.76517755 0.68530238 1.00000000
0.81861728 0.62094349 1.00000000
0.86790794 0.55960113 1.00000000
0.91165572 0.50389761 1.00000000
0.94846648 0.45645514 1.00000000
0.97694641 0.41989595 1.00000000
0.99570137 0.39684224 1.00000000
0.27561462 0.14843524 0.47348565
0.27568489 0.23141138 0.51865125
0.27657309 0.32489246 0.56997490
0.27885076 0.42505381 0.62568736
0.28308946 0.52807081 0.68401939
0.28986064 0.63011879 0.74320173
0.29973590 0.72737318 0.80146527
0.31328675 0.81600934 0.85704064
0.33108470 0.89220256 0.90815866
0.27651930 0.32131156 0.56799817
0.27873573 0.42129493 0.62358046
0.28289214 0.52427465 0.68184751
0.28956005 0.62642604 0.74102992
0.29931098 0.72392458 0.79935855
0.31271645 0.81294549 0.85506415
0.33034804 0.88966429 0.90637755
0.35277724 0.95025623 0.95152938
0.38057557 0.99089670 0.98875046
0.28269821 0.52047735 0.67967683
0.28926361 0.62272698 0.73885697
0.29889098 0.72046447 0.79724836
0.31215191 0.80986506 0.85308182
0.32961789 0.88710415 0.90458810
0.35186043 0.94835716 0.94999796
0.37945113 0.98979944 0.98754215
0.41743058 0.99474007 1.00000000
0.46442533 0.97313917 1.00000000
0.29847592 0.71699303 0.79513466
0.31159306 0.80676812 0.85109353
0.32889420 0.88452244 0.90279037
0.35095090 0.94643128 0.94845587
0.37833470 0.98867017 0.98632085
0.41581070 0.99523836 1.00000000
0.46260339 0.97419369 1.00000000
0.51421702 0.93929213 1.00000000
0.56925768 0.89315593 1.00000000
0.32817695 0.88191921 0.90098453
0.35004857 0.94447881 0.94690323
0.37722626 0.98750907 0.98508650
0.41419923 0.99571437 1.00000000
0.46078795 0.97522950 1.00000000
0.51224893 0.94079125 1.00000000
0.56718820 0.89502192 1.00000000
0.62421173 0.84054363 1.00000000
0.68192559 0.77997869 1.00000000
0.37612578 0.98631638 0.98383933
0.41259623 0.99616790 1.00000000
0.45897913 0.97624642 1.00000000
0.51028556 0.94227505 1.00000000
0.56512153 0.89687610 1.00000000
0.62209314 0.84267175 1.00000000
0.67980629 0.78228432 1.00000000
0.73686707 0.71833593 1.00000000
0.79188150 0.65344882 1.00000000
0.45717695 0.97724426 1.00000000
0.50832695 0.94374335 1.00000000
0.56305778 0.89871836 1.00000000
0.61997551 0.84479153 1.00000000
0.67768610 0.78458506 1.00000000
0.73479557 0.72072119 1.00000000
0.78990996 0.65582222 1.00000000
0.84163529 0.59251028 1.00000000
0.88857764 0.53340769 1.00000000
0.56099701 0.90054858 1.00000000
0.61785895 0.84690279 1.00000000
0.67556506 0.78688085 1.00000000
0.73272133 0.72310513 1.00000000
0.78793389 0.65819776 1.00000000
0.83980858 0.59478098 1.00000000
0.88695157 0.53547704 1.00000000
0.92796880 0.48290816 1.00000000
0.96146637 0.43969655 1.00000000
0.67344332 0.78917158 1.00000000
0.73064452 0.72548747 1.00000000
0.78595322 0.66057527 1.00000000
0.83797544 0.59705722 1.00000000
0.88531721 0.53755552 1.00000000
0.92658454 0.48469239 1.00000000
0.96038342 0.44109008 1.00000000
0.98531991 0.40937084 1.00000000
1.00000000 0.39215687 1.00000000
