Luig Group/Luig Group.cube
# VEGAS Pro LUT
TITLE "Luig Group"
LUT_3D_SIZE 9
0.00000050 0.00000050 0.00000050
0.11875004 0.00000000 0.12500000
0.23750007 0.00000000 0.25000000
0.35625011 0.00000000 0.37500000
0.47500014 0.00000000 0.50000000
0.59375018 0.00000000 0.62500000
0.71250021 0.00000000 0.75000000
0.83125025 0.00000000 0.87500000
0.95000029 0.00000000 1.00000000
0.12500000 0.11874998 0.00000000
0.12500000 0.00000000 0.00624999
0.25000000 0.00000000 0.13750005
0.37500000 0.00000000 0.26875010
0.50000000 0.00000000 0.39999998
0.62500000 0.00000000 0.53124994
0.75000000 0.00000000 0.66250002
0.87500000 0.00000000 0.79374993
1.00000000 0.00000000 0.92500019
0.25000000 0.23749995 0.00000000
0.25000000 0.11250007 0.00000000
0.25000000 0.00000000 0.01249999
0.37500000 0.00000000 0.14375004
0.50000000 0.00000000 0.27500010
0.62500000 0.00000000 0.40625006
0.75000000 0.00000000 0.53750020
0.87500000 0.00000000 0.66875005
1.00000000 0.00000000 0.79999995
0.37500000 0.35624993 0.00000000
0.37500000 0.23124987 0.00000000
0.37500000 0.10625008 0.00000000
0.37500000 0.00000000 0.01874998
0.50000000 0.00000000 0.15000004
0.62500000 0.00000000 0.28124994
0.75000000 0.00000000 0.41250014
0.87500000 0.00000000 0.54374993
1.00000000 0.00000000 0.67500007
0.50000000 0.47499990 0.00000000
0.50000000 0.35000002 0.00000000
0.50000000 0.22500014 0.00000000
0.50000000 0.09999990 0.00000000
0.50000000 0.00000000 0.02499998
0.62500000 0.00000000 0.15625007
0.75000000 0.00000000 0.28750008
0.87500000 0.00000000 0.41875011
1.00000000 0.00000000 0.55000019
0.62500000 0.59374988 0.00000000
0.62500000 0.46875000 0.00000000
0.62500000 0.34375012 0.00000000
0.62500000 0.21874979 0.00000000
0.62500000 0.09374991 0.00000000
0.62500000 0.00000000 0.03124997
0.75000000 0.00000000 0.16250002
0.87500000 0.00000000 0.29374993
1.00000000 0.00000000 0.42499995
0.75000000 0.71249986 0.00000000
0.75000000 0.58750033 0.00000000
0.75000000 0.46249974 0.00000000
0.75000000 0.33750021 0.00000000
0.75000000 0.21250015 0.00000000
0.75000000 0.08750010 0.00000000
0.75000000 0.00000000 0.03749996
0.87500000 0.00000000 0.16875011
1.00000000 0.00000000 0.30000007
0.87500000 0.83124983 0.00000000
0.87500000 0.70625031 0.00000000
0.87500000 0.58124954 0.00000000
0.87500000 0.45625001 0.00000000
0.87500000 0.33124986 0.00000000
0.87500000 0.20624971 0.00000000
0.87500000 0.08125019 0.00000000
0.87500000 0.00000000 0.04374996
1.00000000 0.00000000 0.17500019
1.00000000 0.94999981 0.00000000
1.00000000 0.82500029 0.00000000
1.00000000 0.70000005 0.00000000
1.00000000 0.57499981 0.00000000
1.00000000 0.45000029 0.00000000
1.00000000 0.32500005 0.00000000
1.00000000 0.19999981 0.00000000
1.00000000 0.07500029 0.00000000
1.00000000 0.00000000 0.04999995
0.00000000 0.12500000 0.11875001
0.00000000 0.00625002 0.12500000
0.11250001 0.00000000 0.25000000
0.23125005 0.00000000 0.37500000
0.34999990 0.00000000 0.50000000
0.46875030 0.00000000 0.62500000
0.58750015 0.00000000 0.75000000
0.70625007 0.00000000 0.87500000
0.82500005 0.00000000 1.00000000
0.00624996 0.12500000 0.00000000
0.12500000 0.12500000 0.12500000
0.24375004 0.12500000 0.25000000
0.36250007 0.12500000 0.37500000
0.48125011 0.12500000 0.50000000
0.60000014 0.12500000 0.62500000
0.71875018 0.12500000 0.75000000
0.83750021 0.12500000 0.87500000
0.95625025 0.12500000 1.00000000
0.13749999 0.25000000 0.00000000
0.25000000 0.24374998 0.12500000
0.25000000 0.12500000 0.13124999
0.37500000 0.12500000 0.26250005
0.50000000 0.12500000 0.39375010
0.62500000 0.12500000 0.52499998
0.75000000 0.12500000 0.65624994
0.87500000 0.12500000 0.78750002
1.00000000 0.12500000 0.91874993
0.26875001 0.37500000 0.00000000
0.37500000 0.36249995 0.12500000
0.37500000 0.23750007 0.12500000
0.37500000 0.12500000 0.13749999
0.50000000 0.12500000 0.26875004
0.62500000 0.12500000 0.40000010
0.75000000 0.12500000 0.53125006
0.87500000 0.12500000 0.66250020
1.00000000 0.12500000 0.79375005
0.39999986 0.50000000 0.00000000
0.50000000 0.48124993 0.12500000
0.50000000 0.35624987 0.12500000
0.50000000 0.23125008 0.12500000
0.50000000 0.12500000 0.14374998
0.62500000 0.12500000 0.27500004
0.75000000 0.12500000 0.40624994
0.87500000 0.12500000 0.53750014
1.00000000 0.12500000 0.66874993
0.53125024 0.62500000 0.00000000
0.62500000 0.59999990 0.12500000
0.62500000 0.47500002 0.12500000
0.62500000 0.35000014 0.12500000
0.62500000 0.22499990 0.12500000
0.62500000 0.12500000 0.14999998
0.75000000 0.12500000 0.28125006
0.87500000 0.12500000 0.41250008
1.00000000 0.12500000 0.54375011
0.66250008 0.75000000 0.00000000
0.75000000 0.71874988 0.12500000
0.75000000 0.59375000 0.12500000
0.75000000 0.46875012 0.12500000
0.75000000 0.34374979 0.12500000
0.75000000 0.21874991 0.12500000
0.75000000 0.12500000 0.15624997
0.87500000 0.12500000 0.28750002
1.00000000 0.12500000 0.41874993
0.79375005 0.87500000 0.00000000
0.87500000 0.83749986 0.12500000
0.87500000 0.71250033 0.12500000
0.87500000 0.58749974 0.12500000
0.87500000 0.46250021 0.12500000
0.87500000 0.33750015 0.12500000
0.87500000 0.21250010 0.12500000
0.87500000 0.12500000 0.16249996
1.00000000 0.12500000 0.29375011
0.92499995 1.00000000 0.00000000
1.00000000 0.95624983 0.12500000
1.00000000 0.83125031 0.12500000
1.00000000 0.70624954 0.12500000
1.00000000 0.58125001 0.12500000
1.00000000 0.45624986 0.12500000
1.00000000 0.33124971 0.12500000
1.00000000 0.20625019 0.12500000
1.00000000 0.12500000 0.16874996
0.00000000 0.25000000 0.23750001
0.00000000 0.13749993 0.25000000
0.00000000 0.01250005 0.25000000
0.10624999 0.00000000 0.37500000
0.22500002 0.00000000 0.50000000
0.34374997 0.00000000 0.62500000
0.46250010 0.00000000 0.75000000
0.58124995 0.00000000 0.87500000
0.69999981 0.00000000 1.00000000
0.00000000 0.25000000 0.11249995
0.12500000 0.25000000 0.24375001
0.12500000 0.13125002 0.25000000
0.23750001 0.12500000 0.37500000
0.35625005 0.12500000 0.50000000
0.47499990 0.12500000 0.62500000
0.59375030 0.12500000 0.75000000
0.71250015 0.12500000 0.87500000
0.83125007 0.12500000 1.00000000
0.01249993 0.25000000 0.00000000
0.13124996 0.25000000 0.12500000
0.25000000 0.25000000 0.25000000
0.36875004 0.25000000 0.37500000
0.48750007 0.25000000 0.50000000
0.60625011 0.25000000 0.62500000
0.72500014 0.25000000 0.75000000
0.84375012 0.25000006 0.87499994
0.96250021 0.25000000 1.00000000
0.14374995 0.37500000 0.00000000
0.26249999 0.37500000 0.12500000
0.37500000 0.36874998 0.25000000
0.37500000 0.25000000 0.25624999
0.50000000 0.25000000 0.38750005
0.62500000 0.25000000 0.51875007
0.75000000 0.25000000 0.64999998
0.87499994 0.25000006 0.78124988
1.00000000 0.25000000 0.91250002
0.27499998 0.50000000 0.00000000
0.39375001 0.50000000 0.12500000
0.50000000 0.48749995 0.25000000
0.50000000 0.36250007 0.25000000
0.50000000 0.25000000 0.26249999
0.62500000 0.25000000 0.39375004
0.75000000 0.25000000 0.52500010
0.87499994 0.25000006 0.65625006
1.00000000 0.25000000 0.78750020
0.40624991 0.62500000 0.00000000
0.52499986 0.62500000 0.12500000
0.62500000 0.60624993 0.25000000
0.62500000 0.48124987 0.25000000
0.62500000 0.35625008 0.25000000
0.62500000 0.25000000 0.26874998
0.75000000 0.25000000 0.40000004
0.87499994 0.25000006 0.53124994
1.00000000 0.25000000 0.66250014
0.53750002 0.75000000 0.00000000
0.65625024 0.75000000 0.12500000
0.75000000 0.72499990 0.25000000
0.75000000 0.60000002 0.25000000
0.75000000 0.47500014 0.25000000
0.75000000 0.34999990 0.25000000
0.75000000 0.25000000 0.27499998
0.87499994 0.25000006 0.40625009
1.00000000 0.25000000 0.53750008
0.66874987 0.87500000 0.00000000
0.78750008 0.87500000 0.12500000
0.87499994 0.84374982 0.25000006
0.87499994 0.71875000 0.25000006
0.87499994 0.59375012 0.25000006
0.87499994 0.46874982 0.25000006
0.87499994 0.34374994 0.25000006
0.87499994 0.25000006 0.28125003
1.00000000 0.25000000 0.41250002
0.79999971 1.00000000 0.00000000
0.91875005 1.00000000 0.12500000
1.00000000 0.96249986 0.25000000
1.00000000 0.83750033 0.25000000
1.00000000 0.71249974 0.25000000
1.00000000 0.58750021 0.25000000
1.00000000 0.46250015 0.25000000
1.00000000 0.33750010 0.25000000
1.00000000 0.25000000 0.28749996
0.00000000 0.37500000 0.35625002
0.00000000 0.26874992 0.37500000
0.00000000 0.14375013 0.37500000
0.00000000 0.01875007 0.37500000
0.10000014 0.00000000 0.50000000
0.21875009 0.00000000 0.62500000
0.33750004 0.00000000 0.75000000
0.45624980 0.00000000 0.87500000
0.57500029 0.00000000 1.00000000
0.00000000 0.37500000 0.23125023
0.12500000 0.37500000 0.36250001
0.12500000 0.26249993 0.37500000
0.12500000 0.13750005 0.37500000
0.23124999 0.12500000 0.50000000
0.35000002 0.12500000 0.62500000
0.46874997 0.12500000 0.75000000
0.58750010 0.12500000 0.87500000
0.70624995 0.12500000 1.00000000
0.00000000 0.37500000 0.10625017
0.12500000 0.37500000 0.23749995
0.25000000 0.37500000 0.36875001
0.25000000 0.25625002 0.37500000
0.36250001 0.25000000 0.50000000
0.48125005 0.25000000 0.62500000
0.59999990 0.25000000 0.75000000
0.71875024 0.25000006 0.87499994
0.83750015 0.25000000 1.00000000
0.01874989 0.37500000 0.00000000
0.13749993 0.37500000 0.12500000
0.25624996 0.37500000 0.25000000
0.37500000 0.37500000 0.37500000
0.49375004 0.37500000 0.50000000
0.61250007 0.37500000 0.62500000
0.73125011 0.37500000 0.75000000
0.85000020 0.37499994 0.87500006
0.96875018 0.37500000 1.00000000
0.15000010 0.50000000 0.00000000
0.26874995 0.50000000 0.12500000
0.38749999 0.50000000 0.25000000
0.50000000 0.49374998 0.37500000
0.50000000 0.37500000 0.38124999
0.62500000 0.37500000 0.51250005
0.75000000 0.37500000 0.64375007
0.87500006 0.37499994 0.77500004
1.00000000 0.37500000 0.90624994
0.28125003 0.62500000 0.00000000
0.39999998 0.62500000 0.12500000
0.51875001 0.62500000 0.25000000
0.62500000 0.61249995 0.37500000
0.62500000 0.48750007 0.37500000
0.62500000 0.37500000 0.38749999
0.75000000 0.37500000 0.51875007
0.87500006 0.37499994 0.65000010
1.00000000 0.37500000 0.78125006
0.41249996 0.75000000 0.00000000
0.53124988 0.75000000 0.12500000
0.64999986 0.75000000 0.25000000
0.75000000 0.73124993 0.37500000
0.75000000 0.60624987 0.37500000
0.75000000 0.48125008 0.37500000
0.75000000 0.37500000 0.39374998
0.87500006 0.37499994 0.52500004
1.00000000 0.37500000 0.65624994
0.54375035 0.87500000 0.00000000
0.66250002 0.87500000 0.12500000
0.78125018 0.87499994 0.25000006
0.87500006 0.84999996 0.37499994
0.87500006 0.72500002 0.37499994
0.87500006 0.60000014 0.37499994
0.87500006 0.47499987 0.37499994
0.87500006 0.37499994 0.39999992
1.00000000 0.37500000 0.53125006
0.67500019 1.00000000 0.00000000
0.79374987 1.00000000 0.12500000
0.91250008 1.00000000 0.25000000
1.00000000 0.96874988 0.37500000
1.00000000 0.84375000 0.37500000
1.00000000 0.71875012 0.37500000
1.00000000 0.59374976 0.37500000
1.00000000 0.46874991 0.37500000
1.00000000 0.37500000 0.40624997
0.00000000 0.50000000 0.47500002
0.00000000 0.40000010 0.50000000
0.00000000 0.27499986 0.50000000
0.00000000 0.14999998 0.50000000
0.00000000 0.02500010 0.50000000
0.09374976 0.00000000 0.62500000
0.21249998 0.00000000 0.75000000
0.33124965 0.00000000 0.87500000
0.45000005 0.00000000 1.00000000
0.00000000 0.50000000 0.35000014
0.12500000 0.50000000 0.48125002
0.12500000 0.39374992 0.50000000
0.12500000 0.26875013 0.50000000
0.12500000 0.14375007 0.50000000
0.22500014 0.12500000 0.62500000
0.34375009 0.12500000 0.75000000
0.46250004 0.12500000 0.87500000
0.58124983 0.12500000 1.00000000
0.00000000 0.50000000 0.22499990
0.12500000 0.50000000 0.35625023
0.25000000 0.50000000 0.48750001
0.25000000 0.38749993 0.50000000
0.25000000 0.26250005 0.50000000
0.35624999 0.25000000 0.62500000
0.47500002 0.25000000 0.75000000
0.59374994 0.25000006 0.87499994
0.71250010 0.25000000 1.00000000
0.00000000 0.50000000 0.10000002
0.12500000 0.50000000 0.23125017
0.25000000 0.50000000 0.36249995
0.37500000 0.50000000 0.49375001
0.37500000 0.38125002 0.50000000
0.48750001 0.37500000 0.62500000
0.60625005 0.37500000 0.75000000
0.72499990 0.37499994 0.87500006
0.84375030 0.37500000 1.00000000
0.02499986 0.50000000 0.00000000
0.14374989 0.50000000 0.12500000
0.26249993 0.50000000 0.25000000
0.38124996 0.50000000 0.37500000
0.50000000 0.50000000 0.50000000
0.61875004 0.50000000 0.62500000
0.73750013 0.49999994 0.75000006
0.85625011 0.50000000 0.87500000
0.97500014 0.50000000 1.00000000
0.15625015 0.62500000 0.00000000
0.27500010 0.62500000 0.12500000
0.39374995 0.62500000 0.25000000
0.51249999 0.62500000 0.37500000
0.62500000 0.61874998 0.50000000
0.62500000 0.50000000 0.50625002
0.75000006 0.49999994 0.63750005
0.87500000 0.50000000 0.76875007
1.00000000 0.50000000 0.89999998
0.28749990 0.75000000 0.00000000
0.40625003 0.75000000 0.12500000
0.52499998 0.75000000 0.25000000
0.64375001 0.75000000 0.37500000
0.75000006 0.73750001 0.49999994
0.75000006 0.61250007 0.49999994
0.75000006 0.49999994 0.51249993
0.87500000 0.50000000 0.64375007
1.00000000 0.50000000 0.77500010
0.41875020 0.87500000 0.00000000
0.53749996 0.87500000 0.12500000
0.65624988 0.87499994 0.25000006
0.77499992 0.87500006 0.37499994
0.87500000 0.85624993 0.50000000
0.87500000 0.73124987 0.50000000
0.87500000 0.60625005 0.50000000
0.87500000 0.50000000 0.51874995
1.00000000 0.50000000 0.65000004
0.54999995 1.00000000 0.00000000
0.66875035 1.00000000 0.12500000
0.78750002 1.00000000 0.25000000
0.90625024 1.00000000 0.37500000
1.00000000 0.97499990 0.50000000
1.00000000 0.85000002 0.50000000
1.00000000 0.72500014 0.50000000
1.00000000 0.59999990 0.50000000
1.00000000 0.50000000 0.52499998
0.00000000 0.62500000 0.59375000
0.00000000 0.53125012 0.62500000
0.00000000 0.40624976 0.62500000
0.00000000 0.28124988 0.62500000
0.00000000 0.15625000 0.62500000
0.00000000 0.03125012 0.62500000
0.08749992 0.00000000 0.75000000
0.20625013 0.00000000 0.87500000
0.32499981 0.00000000 1.00000000
0.00000000 0.62500000 0.46874970
0.12500000 0.62500000 0.60000002
0.12500000 0.52500010 0.62500000
0.12500000 0.39999986 0.62500000
0.12500000 0.27499998 0.62500000
0.12500000 0.15000010 0.62500000
0.21874976 0.12500000 0.75000000
0.33749998 0.12500000 0.87500000
0.45624965 0.12500000 1.00000000
0.00000000 0.62500000 0.34374982
0.12500000 0.62500000 0.47500014
0.25000000 0.62500000 0.60625005
0.25000000 0.51874995 0.62500000
0.25000000 0.39375013 0.62500000
0.25000000 0.26875007 0.62500000
0.35000014 0.25000000 0.75000000
0.46875012 0.25000006 0.87499994
0.58750004 0.25000000 1.00000000
0.00000000 0.62500000 0.21874994
0.12500000 0.62500000 0.34999990
0.25000000 0.62500000 0.48125023
0.37500000 0.62500000 0.61250001
0.37500000 0.51249993 0.62500000
0.37500000 0.38750005 0.62500000
0.48124999 0.37500000 0.75000000
0.60000002 0.37499994 0.87500006
0.71875000 0.37500000 1.00000000
0.00000000 0.62500000 0.09375006
0.12500000 0.62500000 0.22500002
0.25000000 0.62500000 0.35625017
0.37500000 0.62500000 0.48749995
0.50000000 0.62500000 0.61874998
0.50000000 0.50625002 0.62500000
0.61250001 0.49999994 0.75000006
0.73125005 0.50000000 0.87500000
0.84999990 0.50000000 1.00000000
0.03124982 0.62500000 0.00000000
0.14999986 0.62500000 0.12500000
0.26874989 0.62500000 0.25000000
0.38749993 0.62500000 0.37500000
0.50624996 0.62500000 0.50000000
0.62500000 0.62500000 0.62500000
0.74375004 0.62500000 0.75000000
0.86250007 0.62500000 0.87500000
0.98125011 0.62500000 1.00000000
0.16250038 0.75000000 0.00000000
0.28125015 0.75000000 0.12500000
0.40000010 0.75000000 0.25000000
0.51874995 0.75000000 0.37500000
0.63749999 0.75000006 0.49999994
0.75000000 0.74374998 0.62500000
0.75000000 0.62500000 0.63125002
0.87500000 0.62500000 0.76250005
1.00000000 0.62500000 0.89375007
0.29375005 0.87500000 0.00000000
0.41249990 0.87500000 0.12500000
0.53125006 0.87499994 0.25000006
0.64999998 0.87500006 0.37499994
0.76875001 0.87500000 0.50000000
0.87500000 0.86249995 0.62500000
0.87500000 0.73750007 0.62500000
0.87500000 0.62500000 0.63749999
1.00000000 0.62500000 0.76875007
0.42499971 1.00000000 0.00000000
0.54375017 1.00000000 0.12500000
0.66249996 1.00000000 0.25000000
0.78124988 1.00000000 0.37500000
0.89999986 1.00000000 0.50000000
1.00000000 0.98124993 0.62500000
1.00000000 0.85624987 0.62500000
1.00000000 0.73125005 0.62500000
1.00000000 0.62500000 0.64374995
0.00000000 0.75000000 0.71250004
0.00000000 0.66249990 0.75000000
0.00000000 0.53749985 0.75000000
0.00000000 0.41249979 0.75000000
0.00000000 0.28750026 0.75000000
0.00000000 0.16249967 0.75000000
0.00000000 0.03750014 0.75000000
0.08124998 0.00000000 0.87500000
0.20000029 0.00000000 1.00000000
0.00000000 0.75000000 0.58749998
0.12500000 0.75000000 0.71875000
0.12500000 0.65625012 0.75000000
0.12500000 0.53124976 0.75000000
0.12500000 0.40624988 0.75000000
0.12500000 0.28125000 0.75000000
0.12500000 0.15625012 0.75000000
0.21249992 0.12500000 0.87500000
0.33125013 0.12500000 1.00000000
0.00000000 0.75000000 0.46250045
0.12500000 0.75000000 0.59374970
0.25000000 0.75000000 0.72500002
0.25000000 0.65000010 0.75000000
0.25000000 0.52499986 0.75000000
0.25000000 0.39999998 0.75000000
0.25000000 0.27500010 0.75000000
0.34374979 0.25000006 0.87499994
0.46249998 0.25000000 1.00000000
0.00000000 0.75000000 0.33749986
0.12500000 0.75000000 0.46874982
0.25000000 0.75000000 0.60000014
0.37500000 0.75000000 0.73125005
0.37500000 0.64374995 0.75000000
0.37500000 0.51875013 0.75000000
0.37500000 0.39375007 0.75000000
0.47500011 0.37499994 0.87500006
0.59375012 0.37500000 1.00000000
0.00000000 0.75000000 0.21250033
0.12500000 0.75000000 0.34374994
0.25000000 0.75000000 0.47499990
0.37500000 0.75000000 0.60625023
0.49999994 0.75000006 0.73750007
0.49999994 0.63749993 0.75000006
0.49999994 0.51249999 0.75000006
0.60624999 0.50000000 0.87500000
0.72500002 0.50000000 1.00000000
0.00000000 0.75000000 0.08749974
0.12500000 0.75000000 0.21875006
0.25000000 0.75000000 0.35000002
0.37500000 0.75000000 0.48125017
0.49999994 0.75000006 0.61249995
0.62500000 0.75000000 0.74374998
0.62500000 0.63125002 0.75000000
0.73750001 0.62500000 0.87500000
0.85625005 0.62500000 1.00000000
0.03749979 0.75000000 0.00000000
0.15624982 0.75000000 0.12500000
0.27499986 0.75000000 0.25000000
0.39374989 0.75000000 0.37500000
0.51249987 0.75000006 0.49999994
0.63124996 0.75000000 0.62500000
0.75000000 0.75000000 0.75000000
0.86875010 0.74999994 0.87500006
0.98750007 0.75000000 1.00000000
0.16874990 0.87500000 0.00000000
0.28750038 0.87500000 0.12500000
0.40625018 0.87499994 0.25000006
0.52500010 0.87500006 0.37499994
0.64374995 0.87500000 0.50000000
0.76249999 0.87500000 0.62500000
0.87500006 0.86875004 0.74999994
0.87500006 0.74999994 0.75624996
1.00000000 0.75000000 0.88750005
0.30000019 1.00000000 0.00000000
0.41875005 1.00000000 0.12500000
0.53749990 1.00000000 0.25000000
0.65625000 1.00000000 0.37500000
0.77499998 1.00000000 0.50000000
0.89375001 1.00000000 0.62500000
1.00000000 0.98749995 0.75000000
1.00000000 0.86250007 0.75000000
1.00000000 0.75000000 0.76249999
0.00000000 0.87500000 0.83125007
0.00000000 0.79374981 0.87500000
0.00000000 0.66875029 0.87500000
0.00000000 0.54374951 0.87500000
0.00000000 0.41874999 0.87500000
0.00000000 0.29374984 0.87500000
0.00000000 0.16874969 0.87500000
0.00000000 0.04375017 0.87500000
0.07500005 0.00000000 1.00000000
0.00000000 0.87500000 0.70624989
0.12500000 0.87500000 0.83750004
0.12500000 0.78749990 0.87500000
0.12500000 0.66249985 0.87500000
0.12500000 0.53749979 0.87500000
0.12500000 0.41250026 0.87500000
0.12500000 0.28749967 0.87500000
0.12500000 0.16250014 0.87500000
0.20624998 0.12500000 1.00000000
0.00000000 0.87500000 0.58125037
0.12500000 0.87500000 0.71249998
0.25000006 0.87499994 0.84375000
0.25000006 0.78125006 0.87499994
0.25000006 0.65624976 0.87499994
0.25000006 0.53124988 0.87499994
0.25000006 0.40625003 0.87499994
0.25000006 0.28125018 0.87499994
0.33749992 0.25000000 1.00000000
0.00000000 0.87500000 0.45624959
0.12500000 0.87500000 0.58750045
0.25000006 0.87499994 0.71874970
0.37499994 0.87500006 0.85000008
0.37499994 0.77500015 0.87500006
0.37499994 0.64999986 0.87500006
0.37499994 0.52499998 0.87500006
0.37499994 0.40000004 0.87500006
0.46874976 0.37500000 1.00000000
0.00000000 0.87500000 0.33125007
0.12500000 0.87500000 0.46249986
0.25000006 0.87499994 0.59374982
0.37499994 0.87500006 0.72500014
0.50000000 0.87500000 0.85625005
0.50000000 0.76874995 0.87500000
0.50000000 0.64375013 0.87500000
0.50000000 0.51875007 0.87500000
0.60000014 0.50000000 1.00000000
0.00000000 0.87500000 0.20624992
0.12500000 0.87500000 0.33750033
0.25000006 0.87499994 0.46874997
0.37499994 0.87500006 0.59999990
0.50000000 0.87500000 0.73125023
0.62500000 0.87500000 0.86250001
0.62500000 0.76249993 0.87500000
0.62500000 0.63750005 0.87500000
0.73124999 0.62500000 1.00000000
0.00000000 0.87500000 0.08124977
0.12500000 0.87500000 0.21249974
0.25000006 0.87499994 0.34375009
0.37499994 0.87500006 0.47499999
0.50000000 0.87500000 0.60625017
0.62500000 0.87500000 0.73749995
0.74999994 0.87500006 0.86875004
0.74999994 0.75624996 0.87500006
0.86250001 0.75000000 1.00000000
0.04374975 0.87500000 0.00000000
0.16249979 0.87500000 0.12500000
0.28124988 0.87499994 0.25000006
0.39999980 0.87500006 0.37499994
0.51874989 0.87500000 0.50000000
0.63749993 0.87500000 0.62500000
0.75624990 0.87500006 0.74999994
0.87500000 0.87500000 0.87500000
0.99375004 0.87500000 1.00000000
0.17499995 1.00000000 0.00000000
0.29374990 1.00000000 0.12500000
0.41250038 1.00000000 0.25000000
0.53125012 1.00000000 0.37500000
0.65000010 1.00000000 0.50000000
0.76874995 1.00000000 0.62500000
0.88749999 1.00000000 0.75000000
1.00000000 0.99374998 0.87500000
1.00000000 0.87500000 0.88125002
0.00000000 1.00000000 0.95000005
0.00000000 0.92499971 1.00000000
0.00000000 0.80000019 1.00000000
0.00000000 0.67499995 1.00000000
0.00000000 0.54999971 1.00000000
0.00000000 0.42500019 1.00000000
0.00000000 0.29999995 1.00000000
0.00000000 0.17499971 1.00000000
0.00000000 0.05000019 1.00000000
0.00000000 1.00000000 0.82499981
0.12500000 1.00000000 0.95625007
0.12500000 0.91874981 1.00000000
0.12500000 0.79375029 1.00000000
0.12500000 0.66874951 1.00000000
0.12500000 0.54374999 1.00000000
0.12500000 0.41874984 1.00000000
0.12500000 0.29374969 1.00000000
0.12500000 0.16875017 1.00000000
0.00000000 1.00000000 0.70000029
0.12500000 1.00000000 0.83124989
0.25000000 1.00000000 0.96250004
0.25000000 0.91249990 1.00000000
0.25000000 0.78749985 1.00000000
0.25000000 0.66249979 1.00000000
0.25000000 0.53750026 1.00000000
0.25000000 0.41249967 1.00000000
0.25000000 0.28750014 1.00000000
0.00000000 1.00000000 0.57500005
0.12500000 1.00000000 0.70625037
0.25000000 1.00000000 0.83749998
0.37500000 1.00000000 0.96875000
0.37500000 0.90625012 1.00000000
0.37500000 0.78124976 1.00000000
0.37500000 0.65624988 1.00000000
0.37500000 0.53125000 1.00000000
0.37500000 0.40625012 1.00000000
0.00000000 1.00000000 0.44999981
0.12500000 1.00000000 0.58124959
0.25000000 1.00000000 0.71250045
0.37500000 1.00000000 0.84374970
0.50000000 1.00000000 0.97500002
0.50000000 0.90000010 1.00000000
0.50000000 0.77499986 1.00000000
0.50000000 0.64999998 1.00000000
0.50000000 0.52500010 1.00000000
0.00000000 1.00000000 0.32500029
0.12500000 1.00000000 0.45625007
0.25000000 1.00000000 0.58749986
0.37500000 1.00000000 0.71874982
0.50000000 1.00000000 0.85000014
0.62500000 1.00000000 0.98125005
0.62500000 0.89374995 1.00000000
0.62500000 0.76875013 1.00000000
0.62500000 0.64375007 1.00000000
0.00000000 1.00000000 0.20000005
0.12500000 1.00000000 0.33124992
0.25000000 1.00000000 0.46250033
0.37500000 1.00000000 0.59374994
0.50000000 1.00000000 0.72499990
0.62500000 1.00000000 0.85625023
0.75000000 1.00000000 0.98750001
0.75000000 0.88749993 1.00000000
0.75000000 0.76250005 1.00000000
0.00000000 1.00000000 0.07499981
0.12500000 1.00000000 0.20624977
0.25000000 1.00000000 0.33749974
0.37500000 1.00000000 0.46875006
0.50000000 1.00000000 0.60000002
0.62500000 1.00000000 0.73125017
0.75000000 1.00000000 0.86249995
0.87500000 1.00000000 0.99374998
0.87500000 0.88125002 1.00000000
0.04999971 1.00000000 0.00000000
0.16874975 1.00000000 0.12500000
0.28749979 1.00000000 0.25000000
0.40624982 1.00000000 0.37500000
0.52499986 1.00000000 0.50000000
0.64374989 1.00000000 0.62500000
0.76249993 1.00000000 0.75000000
0.88124996 1.00000000 0.87500000
1.00000048 1.00000048 1.00000048
