Luig Group/Luig Group.cube
# VEGAS Pro LUT
TITLE "Luig Group"
LUT_3D_SIZE 33
0.00000050 0.00000050 0.00000050
0.02968751 0.00000000 0.03125000
0.05937502 0.00000000 0.06250000
0.08906253 0.00000000 0.09375000
0.11875004 0.00000000 0.12500000
0.14843754 0.00000000 0.15625000
0.17812505 0.00000000 0.18750000
0.20781256 0.00000000 0.21875000
0.23750007 0.00000000 0.25000000
0.26718760 0.00000000 0.28125000
0.29687509 0.00000000 0.31250000
0.32656258 0.00000000 0.34375000
0.35625011 0.00000000 0.37500000
0.38593763 0.00000000 0.40625000
0.41562513 0.00000000 0.43750000
0.44531262 0.00000000 0.46875000
0.47500014 0.00000000 0.50000000
0.50468767 0.00000000 0.53125000
0.53437519 0.00000000 0.56250000
0.56406265 0.00000000 0.59375000
0.59375018 0.00000000 0.62500000
0.62343770 0.00000000 0.65625000
0.65312517 0.00000000 0.68750000
0.68281269 0.00000000 0.71875000
0.71250021 0.00000000 0.75000000
0.74218774 0.00000000 0.78125000
0.77187526 0.00000000 0.81250000
0.80156273 0.00000000 0.84375000
0.83125025 0.00000000 0.87500000
0.86093777 0.00000000 0.90625000
0.89062524 0.00000000 0.93750000
0.92031276 0.00000000 0.96875000
0.95000029 0.00000000 1.00000000
0.03125000 0.02968749 0.00000000
0.03125000 0.00000000 0.00156250
0.06250000 0.00000000 0.03437501
0.09375000 0.00000000 0.06718753
0.12500000 0.00000000 0.09999999
0.15625000 0.00000000 0.13281249
0.18750000 0.00000000 0.16562501
0.21875000 0.00000000 0.19843748
0.25000000 0.00000000 0.23125005
0.28125000 0.00000000 0.26406252
0.31250000 0.00000000 0.29687506
0.34375000 0.00000000 0.32968757
0.37500000 0.00000000 0.36250001
0.40625000 0.00000000 0.39531246
0.43750000 0.00000000 0.42812499
0.46875000 0.00000000 0.46093744
0.50000000 0.00000000 0.49374998
0.53125000 0.00000000 0.52656245
0.56250000 0.00000000 0.55937493
0.59375000 0.00000000 0.59218746
0.62500000 0.00000000 0.62500006
0.65468735 0.00000000 0.65625000
0.68437493 0.00000000 0.68750000
0.71406245 0.00000000 0.71875000
0.74374986 0.00000000 0.75000000
0.77343744 0.00000000 0.78125000
0.80312485 0.00000000 0.81250000
0.83281243 0.00000000 0.84375000
0.86250013 0.00000000 0.87500000
0.89218748 0.00000000 0.90625000
0.92187500 0.00000000 0.93750000
0.95156240 0.00000000 0.96875000
0.98124981 0.00000000 1.00000000
0.06250000 0.05937499 0.00000000
0.06250000 0.02812502 0.00000000
0.06250000 0.00000000 0.00312500
0.09375000 0.00000000 0.03593751
0.12500000 0.00000000 0.06875002
0.15625000 0.00000000 0.10156251
0.18750000 0.00000000 0.13437505
0.21875000 0.00000000 0.16718751
0.25000000 0.00000000 0.19999999
0.28125000 0.00000000 0.23281255
0.31250000 0.00000000 0.26562497
0.34375000 0.00000000 0.29843760
0.37500000 0.00000000 0.33125001
0.40625000 0.00000000 0.36406255
0.43750000 0.00000000 0.39687496
0.46875000 0.00000000 0.42968753
0.50000000 0.00000000 0.46250010
0.53125000 0.00000000 0.49531254
0.56250000 0.00000000 0.52812505
0.59375000 0.00000000 0.56093758
0.62500000 0.00000000 0.59375012
0.65625000 0.00000000 0.62656254
0.68750000 0.00000000 0.65937513
0.71875000 0.00000000 0.69218755
0.75000000 0.00000000 0.72500002
0.78125000 0.00000000 0.75781262
0.81250000 0.00000000 0.79062492
0.84375000 0.00000000 0.82343757
0.87500000 0.00000000 0.85624999
0.90625000 0.00000000 0.88906240
0.93750000 0.00000000 0.92187488
0.96875000 0.00000000 0.95468765
1.00000000 0.00000000 0.98749995
0.09375000 0.08906248 0.00000000
0.09375000 0.05781247 0.00000000
0.09375000 0.02656252 0.00000000
0.09375000 0.00000000 0.00468750
0.12500000 0.00000000 0.03750001
0.15625000 0.00000000 0.07031249
0.18750000 0.00000000 0.10312504
0.21875000 0.00000000 0.13593748
0.25000000 0.00000000 0.16875002
0.28125000 0.00000000 0.20156258
0.31250000 0.00000000 0.23437500
0.34375000 0.00000000 0.26718748
0.37500000 0.00000000 0.29999998
0.40625000 0.00000000 0.33281246
0.43750000 0.00000000 0.36562508
0.46875000 0.00000000 0.39843744
0.50000000 0.00000000 0.43125004
0.53125000 0.00000000 0.46406263
0.56250000 0.00000000 0.49687499
0.59375000 0.00000000 0.52968746
0.62500000 0.00000000 0.56250012
0.65625000 0.00000000 0.59531265
0.68750000 0.00000000 0.62812513
0.71875000 0.00000000 0.66093755
0.75000000 0.00000000 0.69375014
0.78125000 0.00000000 0.72656262
0.81250000 0.00000000 0.75937498
0.84375000 0.00000000 0.79218763
0.87500000 0.00000000 0.82500011
0.90625000 0.00000000 0.85781270
0.93750000 0.00000000 0.89062518
0.96875000 0.00000000 0.92343765
1.00000000 0.00000000 0.95625007
0.12500000 0.11874998 0.00000000
0.12500000 0.08750001 0.00000000
0.12500000 0.05625004 0.00000000
0.12500000 0.02499998 0.00000000
0.12500000 0.00000000 0.00624999
0.15625000 0.00000000 0.03906252
0.18750000 0.00000000 0.07187502
0.21875000 0.00000000 0.10468753
0.25000000 0.00000000 0.13750005
0.28125000 0.00000000 0.17031249
0.31250000 0.00000000 0.20312503
0.34375000 0.00000000 0.23593752
0.37500000 0.00000000 0.26875010
0.40625000 0.00000000 0.30156255
0.43750000 0.00000000 0.33437502
0.46875000 0.00000000 0.36718753
0.50000000 0.00000000 0.39999998
0.53125000 0.00000000 0.43281254
0.56250000 0.00000000 0.46562511
0.59375000 0.00000000 0.49843758
0.62500000 0.00000000 0.53124994
0.65625000 0.00000000 0.56406254
0.68750000 0.00000000 0.59687519
0.71875000 0.00000000 0.62968761
0.75000000 0.00000000 0.66250002
0.78125000 0.00000000 0.69531238
0.81250000 0.00000000 0.72812510
0.84375000 0.00000000 0.76093763
0.87500000 0.00000000 0.79374993
0.90625000 0.00000000 0.82656258
0.93750000 0.00000000 0.85937506
0.96875000 0.00000000 0.89218771
1.00000000 0.00000000 0.92500019
0.15625000 0.14843747 0.00000000
0.15625000 0.11718750 0.00000000
0.15625000 0.08593753 0.00000000
0.15625000 0.05468745 0.00000000
0.15625000 0.02343748 0.00000000
0.15625000 0.00000000 0.00781249
0.18750000 0.00000000 0.04062501
0.21875000 0.00000000 0.07343748
0.25000000 0.00000000 0.10624999
0.28125000 0.00000000 0.13906251
0.31250000 0.00000000 0.17187506
0.34375000 0.00000000 0.20468755
0.37500000 0.00000000 0.23749995
0.40625000 0.00000000 0.27031246
0.43750000 0.00000000 0.30312499
0.46875000 0.00000000 0.33593747
0.50000000 0.00000000 0.36875010
0.53125000 0.00000000 0.40156245
0.56250000 0.00000000 0.43437505
0.59375000 0.00000000 0.46718749
0.62500000 0.00000000 0.49999997
0.65625000 0.00000000 0.53281242
0.68750000 0.00000000 0.56562495
0.71875000 0.00000000 0.59843761
0.75000000 0.00000000 0.63125014
0.78125000 0.00000000 0.66406244
0.81250000 0.00000000 0.69687515
0.84375000 0.00000000 0.72968763
0.87500000 0.00000000 0.76250005
0.90625000 0.00000000 0.79531252
0.93750000 0.00000000 0.82812500
0.96875000 0.00000000 0.86093736
1.00000000 0.00000000 0.89374995
0.18750000 0.17812496 0.00000000
0.18750000 0.14687508 0.00000000
0.18750000 0.11562493 0.00000000
0.18750000 0.08437505 0.00000000
0.18750000 0.05312504 0.00000000
0.18750000 0.02187502 0.00000000
0.18750000 0.00000000 0.00937499
0.21875000 0.00000000 0.04218753
0.25000000 0.00000000 0.07500002
0.28125000 0.00000000 0.10781253
0.31250000 0.00000000 0.14062497
0.34375000 0.00000000 0.17343758
0.37500000 0.00000000 0.20625007
0.40625000 0.00000000 0.23906255
0.43750000 0.00000000 0.27187496
0.46875000 0.00000000 0.30468756
0.50000000 0.00000000 0.33750004
0.53125000 0.00000000 0.37031254
0.56250000 0.00000000 0.40312517
0.59375000 0.00000000 0.43593761
0.62500000 0.00000000 0.46875000
0.65625000 0.00000000 0.50156254
0.68750000 0.00000000 0.53437495
0.71875000 0.00000000 0.56718761
0.75000000 0.00000000 0.59999996
0.78125000 0.00000000 0.63281244
0.81250000 0.00000000 0.66562492
0.84375000 0.00000000 0.69843769
0.87500000 0.00000000 0.73125017
0.90625000 0.00000000 0.76406246
0.93750000 0.00000000 0.79687488
0.96875000 0.00000000 0.82968742
1.00000000 0.00000000 0.86250007
0.21875000 0.20781246 0.00000000
0.21875000 0.17656258 0.00000000
0.21875000 0.14531238 0.00000000
0.21875000 0.11406250 0.00000000
0.21875000 0.08281247 0.00000000
0.21875000 0.05156243 0.00000000
0.21875000 0.02031255 0.00000000
0.21875000 0.00000000 0.01093749
0.25000000 0.00000000 0.04375005
0.28125000 0.00000000 0.07656245
0.31250000 0.00000000 0.10937501
0.34375000 0.00000000 0.14218749
0.37500000 0.00000000 0.17500006
0.40625000 0.00000000 0.20781247
0.43750000 0.00000000 0.24062508
0.46875000 0.00000000 0.27343747
0.50000000 0.00000000 0.30624998
0.53125000 0.00000000 0.33906245
0.56250000 0.00000000 0.37187508
0.59375000 0.00000000 0.40468752
0.62500000 0.00000000 0.43750003
0.65625000 0.00000000 0.47031268
0.68750000 0.00000000 0.50312501
0.71875000 0.00000000 0.53593761
0.75000000 0.00000000 0.56875008
0.78125000 0.00000000 0.60156250
0.81250000 0.00000000 0.63437498
0.84375000 0.00000000 0.66718769
0.87500000 0.00000000 0.69999993
0.90625000 0.00000000 0.73281270
0.93750000 0.00000000 0.76562518
0.96875000 0.00000000 0.79843742
1.00000000 0.00000000 0.83125019
0.25000000 0.23749995 0.00000000
0.25000000 0.20625007 0.00000000
0.25000000 0.17500001 0.00000000
0.25000000 0.14374995 0.00000000
0.25000000 0.11250007 0.00000000
0.25000000 0.08125001 0.00000000
0.25000000 0.04999995 0.00000000
0.25000000 0.01875007 0.00000000
0.25000000 0.00000000 0.01249999
0.28125000 0.00000000 0.04531257
0.31250000 0.00000000 0.07812504
0.34375000 0.00000000 0.11093752
0.37500000 0.00000000 0.14375004
0.40625000 0.00000000 0.17656255
0.43750000 0.00000000 0.20937505
0.46875000 0.00000000 0.24218754
0.50000000 0.00000000 0.27500010
0.53125000 0.00000000 0.30781254
0.56250000 0.00000000 0.34062499
0.59375000 0.00000000 0.37343743
0.62500000 0.00000000 0.40625006
0.65625000 0.00000000 0.43906257
0.68750000 0.00000000 0.47187504
0.71875000 0.00000000 0.50468761
0.75000000 0.00000000 0.53750020
0.78125000 0.00000000 0.57031250
0.81250000 0.00000000 0.60312510
0.84375000 0.00000000 0.63593739
0.87500000 0.00000000 0.66875005
0.90625000 0.00000000 0.70156264
0.93750000 0.00000000 0.73437506
0.96875000 0.00000000 0.76718748
1.00000000 0.00000000 0.79999995
0.28125000 0.26718745 0.00000000
0.28125000 0.23593757 0.00000000
0.28125000 0.20468748 0.00000000
0.28125000 0.17343740 0.00000000
0.28125000 0.14218752 0.00000000
0.28125000 0.11093744 0.00000000
0.28125000 0.07968756 0.00000000
0.28125000 0.04843748 0.00000000
0.28125000 0.01718760 0.00000000
0.28125000 0.00000000 0.01406249
0.31250000 0.00000000 0.04687496
0.34375000 0.00000000 0.07968755
0.37500000 0.00000000 0.11250003
0.40625000 0.00000000 0.14531247
0.43750000 0.00000000 0.17812501
0.46875000 0.00000000 0.21093747
0.50000000 0.00000000 0.24375004
0.53125000 0.00000000 0.27656245
0.56250000 0.00000000 0.30937511
0.59375000 0.00000000 0.34218755
0.62500000 0.00000000 0.37500009
0.65625000 0.00000000 0.40781245
0.68750000 0.00000000 0.44062507
0.71875000 0.00000000 0.47343761
0.75000000 0.00000000 0.50625002
0.78125000 0.00000000 0.53906256
0.81250000 0.00000000 0.57187515
0.84375000 0.00000000 0.60468775
0.87500000 0.00000000 0.63750017
0.90625000 0.00000000 0.67031258
0.93750000 0.00000000 0.70312500
0.96875000 0.00000000 0.73593748
1.00000000 0.00000000 0.76875007
0.31250000 0.29687494 0.00000000
0.31250000 0.26562497 0.00000000
0.31250000 0.23437500 0.00000000
0.31250000 0.20312503 0.00000000
0.31250000 0.17187506 0.00000000
0.31250000 0.14062509 0.00000000
0.31250000 0.10937490 0.00000000
0.31250000 0.07812493 0.00000000
0.31250000 0.04687496 0.00000000
0.31250000 0.01562499 0.00000000
0.31250000 0.00000000 0.01562499
0.34375000 0.00000000 0.04843745
0.37500000 0.00000000 0.08125001
0.40625000 0.00000000 0.11406255
0.43750000 0.00000000 0.14687496
0.46875000 0.00000000 0.17968756
0.50000000 0.00000000 0.21249998
0.53125000 0.00000000 0.24531256
0.56250000 0.00000000 0.27812502
0.59375000 0.00000000 0.31093746
0.62500000 0.00000000 0.34375012
0.65625000 0.00000000 0.37656257
0.68750000 0.00000000 0.40937510
0.71875000 0.00000000 0.44218737
0.75000000 0.00000000 0.47499990
0.78125000 0.00000000 0.50781256
0.81250000 0.00000000 0.54062492
0.84375000 0.00000000 0.57343745
0.87500000 0.00000000 0.60624999
0.90625000 0.00000000 0.63906252
0.93750000 0.00000000 0.67187494
0.96875000 0.00000000 0.70468754
1.00000000 0.00000000 0.73750019
0.34375000 0.32656243 0.00000000
0.34375000 0.29531246 0.00000000
0.34375000 0.26406249 0.00000000
0.34375000 0.23281252 0.00000000
0.34375000 0.20156255 0.00000000
0.34375000 0.17031258 0.00000000
0.34375000 0.13906261 0.00000000
0.34375000 0.10781240 0.00000000
0.34375000 0.07656243 0.00000000
0.34375000 0.04531246 0.00000000
0.34375000 0.01406249 0.00000000
0.34375000 0.00000000 0.01718748
0.37500000 0.00000000 0.05000000
0.40625000 0.00000000 0.08281247
0.43750000 0.00000000 0.11562493
0.46875000 0.00000000 0.14843747
0.50000000 0.00000000 0.18125010
0.53125000 0.00000000 0.21406247
0.56250000 0.00000000 0.24687494
0.59375000 0.00000000 0.27968758
0.62500000 0.00000000 0.31250015
0.65625000 0.00000000 0.34531268
0.68750000 0.00000000 0.37812513
0.71875000 0.00000000 0.41093737
0.75000000 0.00000000 0.44375002
0.78125000 0.00000000 0.47656262
0.81250000 0.00000000 0.50937498
0.84375000 0.00000000 0.54218745
0.87500000 0.00000000 0.57500011
0.90625000 0.00000000 0.60781240
0.93750000 0.00000000 0.64062518
0.96875000 0.00000000 0.67343754
1.00000000 0.00000000 0.70624995
0.37500000 0.35624993 0.00000000
0.37500000 0.32500005 0.00000000
0.37500000 0.29375017 0.00000000
0.37500000 0.26250002 0.00000000
0.37500000 0.23124987 0.00000000
0.37500000 0.19999999 0.00000000
0.37500000 0.16875011 0.00000000
0.37500000 0.13749996 0.00000000
0.37500000 0.10625008 0.00000000
0.37500000 0.07499993 0.00000000
0.37500000 0.04375005 0.00000000
0.37500000 0.01249990 0.00000000
0.37500000 0.00000000 0.01874998
0.40625000 0.00000000 0.05156255
0.43750000 0.00000000 0.08437505
0.46875000 0.00000000 0.11718756
0.50000000 0.00000000 0.15000004
0.53125000 0.00000000 0.18281256
0.56250000 0.00000000 0.21562506
0.59375000 0.00000000 0.24843749
0.62500000 0.00000000 0.28124994
0.65625000 0.00000000 0.31406257
0.68750000 0.00000000 0.34687516
0.71875000 0.00000000 0.37968737
0.75000000 0.00000000 0.41250014
0.78125000 0.00000000 0.44531262
0.81250000 0.00000000 0.47812510
0.84375000 0.00000000 0.51093745
0.87500000 0.00000000 0.54374993
0.90625000 0.00000000 0.57656270
0.93750000 0.00000000 0.60937512
0.96875000 0.00000000 0.64218760
1.00000000 0.00000000 0.67500007
0.40625000 0.38593742 0.00000000
0.40625000 0.35468751 0.00000000
0.40625000 0.32343757 0.00000000
0.40625000 0.29218763 0.00000000
0.40625000 0.26093742 0.00000000
0.40625000 0.22968751 0.00000000
0.40625000 0.19843729 0.00000000
0.40625000 0.16718736 0.00000000
0.40625000 0.13593744 0.00000000
0.40625000 0.10468751 0.00000000
0.40625000 0.07343759 0.00000000
0.40625000 0.04218737 0.00000000
0.40625000 0.01093744 0.00000000
0.40625000 0.00000000 0.02031248
0.43750000 0.00000000 0.05312502
0.46875000 0.00000000 0.08593747
0.50000000 0.00000000 0.11874998
0.53125000 0.00000000 0.15156247
0.56250000 0.00000000 0.18437499
0.59375000 0.00000000 0.21718761
0.62500000 0.00000000 0.24999999
0.65625000 0.00000000 0.28281245
0.68750000 0.00000000 0.31562519
0.71875000 0.00000000 0.34843740
0.75000000 0.00000000 0.38124999
0.78125000 0.00000000 0.41406268
0.81250000 0.00000000 0.44687515
0.84375000 0.00000000 0.47968751
0.87500000 0.00000000 0.51250005
0.90625000 0.00000000 0.54531264
0.93750000 0.00000000 0.57812500
0.96875000 0.00000000 0.61093760
1.00000000 0.00000000 0.64375019
0.43750000 0.41562492 0.00000000
0.43750000 0.38437504 0.00000000
0.43750000 0.35312515 0.00000000
0.43750000 0.32187498 0.00000000
0.43750000 0.29062477 0.00000000
0.43750000 0.25937489 0.00000000
0.43750000 0.22812501 0.00000000
0.43750000 0.19687513 0.00000000
0.43750000 0.16562493 0.00000000
0.43750000 0.13437505 0.00000000
0.43750000 0.10312486 0.00000000
0.43750000 0.07187498 0.00000000
0.43750000 0.04062510 0.00000000
0.43750000 0.00937490 0.00000000
0.43750000 0.00000000 0.02187498
0.46875000 0.00000000 0.05468756
0.50000000 0.00000000 0.08750010
0.53125000 0.00000000 0.12031256
0.56250000 0.00000000 0.15312490
0.59375000 0.00000000 0.18593751
0.62500000 0.00000000 0.21875001
0.65625000 0.00000000 0.25156257
0.68750000 0.00000000 0.28437498
0.71875000 0.00000000 0.31718740
0.75000000 0.00000000 0.35000011
0.78125000 0.00000000 0.38281268
0.81250000 0.00000000 0.41562495
0.84375000 0.00000000 0.44843751
0.87500000 0.00000000 0.48125017
0.90625000 0.00000000 0.51406252
0.93750000 0.00000000 0.54687494
0.96875000 0.00000000 0.57968765
1.00000000 0.00000000 0.61249995
0.46875000 0.44531241 0.00000000
0.46875000 0.41406268 0.00000000
0.46875000 0.38281226 0.00000000
0.46875000 0.35156250 0.00000000
0.46875000 0.32031241 0.00000000
0.46875000 0.28906232 0.00000000
0.46875000 0.25781259 0.00000000
0.46875000 0.22656250 0.00000000
0.46875000 0.19531243 0.00000000
0.46875000 0.16406235 0.00000000
0.46875000 0.13281226 0.00000000
0.46875000 0.10156251 0.00000000
0.46875000 0.07031243 0.00000000
0.46875000 0.03906235 0.00000000
0.46875000 0.00781260 0.00000000
0.46875000 0.00000000 0.02343748
0.50000000 0.00000000 0.05625004
0.53125000 0.00000000 0.08906247
0.56250000 0.00000000 0.12187502
0.59375000 0.00000000 0.15468742
0.62500000 0.00000000 0.18750004
0.65625000 0.00000000 0.22031246
0.68750000 0.00000000 0.25312501
0.71875000 0.00000000 0.28593740
0.75000000 0.00000000 0.31874996
0.78125000 0.00000000 0.35156244
0.81250000 0.00000000 0.38437501
0.84375000 0.00000000 0.41718754
0.87500000 0.00000000 0.44999999
0.90625000 0.00000000 0.48281246
0.93750000 0.00000000 0.51562518
0.96875000 0.00000000 0.54843765
1.00000000 0.00000000 0.58125007
0.50000000 0.47499990 0.00000000
0.50000000 0.44375002 0.00000000
0.50000000 0.41250014 0.00000000
0.50000000 0.38124990 0.00000000
0.50000000 0.35000002 0.00000000
0.50000000 0.31875014 0.00000000
0.50000000 0.28749990 0.00000000
0.50000000 0.25625002 0.00000000
0.50000000 0.22500014 0.00000000
0.50000000 0.19374990 0.00000000
0.50000000 0.16250002 0.00000000
0.50000000 0.13125014 0.00000000
0.50000000 0.09999990 0.00000000
0.50000000 0.06875002 0.00000000
0.50000000 0.03750014 0.00000000
0.50000000 0.00624990 0.00000000
0.50000000 0.00000000 0.02499998
0.53125000 0.00000000 0.05781257
0.56250000 0.00000000 0.09062514
0.59375000 0.00000000 0.12343754
0.62500000 0.00000000 0.15625007
0.65625000 0.00000000 0.18906258
0.68750000 0.00000000 0.22187504
0.71875000 0.00000000 0.25468743
0.75000000 0.00000000 0.28750008
0.78125000 0.00000000 0.32031247
0.81250000 0.00000000 0.35312510
0.84375000 0.00000000 0.38593757
0.87500000 0.00000000 0.41875011
0.90625000 0.00000000 0.45156240
0.93750000 0.00000000 0.48437509
0.96875000 0.00000000 0.51718771
1.00000000 0.00000000 0.55000019
0.53125000 0.50468743 0.00000000
0.53125000 0.47343749 0.00000000
0.53125000 0.44218761 0.00000000
0.53125000 0.41093731 0.00000000
0.53125000 0.37968740 0.00000000
0.53125000 0.34843749 0.00000000
0.53125000 0.31718761 0.00000000
0.53125000 0.28593770 0.00000000
0.53125000 0.25468743 0.00000000
0.53125000 0.22343752 0.00000000
0.53125000 0.19218761 0.00000000
0.53125000 0.16093732 0.00000000
0.53125000 0.12968743 0.00000000
0.53125000 0.09843752 0.00000000
0.53125000 0.06718761 0.00000000
0.53125000 0.03593733 0.00000000
0.53125000 0.00468743 0.00000000
0.53125000 0.00000000 0.02656247
0.56250000 0.00000000 0.05937506
0.59375000 0.00000000 0.09218766
0.62500000 0.00000000 0.12499988
0.65625000 0.00000000 0.15781246
0.68750000 0.00000000 0.19062507
0.71875000 0.00000000 0.22343743
0.75000000 0.00000000 0.25625020
0.78125000 0.00000000 0.28906250
0.81250000 0.00000000 0.32187515
0.84375000 0.00000000 0.35468757
0.87500000 0.00000000 0.38749990
0.90625000 0.00000000 0.42031264
0.93750000 0.00000000 0.45312500
0.96875000 0.00000000 0.48593771
1.00000000 0.00000000 0.51874995
0.56250000 0.53437489 0.00000000
0.56250000 0.50312501 0.00000000
0.56250000 0.47187513 0.00000000
0.56250000 0.44062525 0.00000000
0.56250000 0.40937495 0.00000000
0.56250000 0.37812507 0.00000000
0.56250000 0.34687480 0.00000000
0.56250000 0.31562492 0.00000000
0.56250000 0.28437504 0.00000000
0.56250000 0.25312516 0.00000000
0.56250000 0.22187488 0.00000000
0.56250000 0.19062500 0.00000000
0.56250000 0.15937512 0.00000000
0.56250000 0.12812483 0.00000000
0.56250000 0.09687495 0.00000000
0.56250000 0.06562507 0.00000000
0.56250000 0.03437519 0.00000000
0.56250000 0.00312491 0.00000000
0.56250000 0.00000000 0.02812497
0.59375000 0.00000000 0.06093756
0.62500000 0.00000000 0.09374991
0.65625000 0.00000000 0.12656258
0.68750000 0.00000000 0.15937510
0.71875000 0.00000000 0.19218743
0.75000000 0.00000000 0.22500005
0.78125000 0.00000000 0.25781253
0.81250000 0.00000000 0.29062495
0.84375000 0.00000000 0.32343760
0.87500000 0.00000000 0.35625002
0.90625000 0.00000000 0.38906258
0.93750000 0.00000000 0.42187494
0.96875000 0.00000000 0.45468742
1.00000000 0.00000000 0.48750007
0.59375000 0.56406236 0.00000000
0.59375000 0.53281248 0.00000000
0.59375000 0.50156260 0.00000000
0.59375000 0.47031274 0.00000000
0.59375000 0.43906245 0.00000000
0.59375000 0.40781257 0.00000000
0.59375000 0.37656224 0.00000000
0.59375000 0.34531236 0.00000000
0.59375000 0.31406248 0.00000000
0.59375000 0.28281260 0.00000000
0.59375000 0.25156230 0.00000000
0.59375000 0.22031242 0.00000000
0.59375000 0.18906254 0.00000000
0.59375000 0.15781224 0.00000000
0.59375000 0.12656236 0.00000000
0.59375000 0.09531248 0.00000000
0.59375000 0.06406260 0.00000000
0.59375000 0.03281229 0.00000000
0.59375000 0.00156241 0.00000000
0.59375000 0.00000000 0.02968747
0.62500000 0.00000000 0.06249994
0.65625000 0.00000000 0.09531246
0.68750000 0.00000000 0.12812488
0.71875000 0.00000000 0.16093743
0.75000000 0.00000000 0.19374990
0.78125000 0.00000000 0.22656256
0.81250000 0.00000000 0.25937504
0.84375000 0.00000000 0.29218760
0.87500000 0.00000000 0.32500014
0.90625000 0.00000000 0.35781252
0.93750000 0.00000000 0.39062518
0.96875000 0.00000000 0.42343745
1.00000000 0.00000000 0.45625019
0.62500000 0.59374988 0.00000000
0.62500000 0.56249988 0.00000000
0.62500000 0.53124994 0.00000000
0.62500000 0.49999997 0.00000000
0.62500000 0.46875000 0.00000000
0.62500000 0.43750003 0.00000000
0.62500000 0.40625006 0.00000000
0.62500000 0.37500009 0.00000000
0.62500000 0.34375012 0.00000000
0.62500000 0.31249970 0.00000000
0.62500000 0.28125018 0.00000000
0.62500000 0.24999976 0.00000000
0.62500000 0.21874979 0.00000000
0.62500000 0.18749982 0.00000000
0.62500000 0.15624985 0.00000000
0.62500000 0.12499988 0.00000000
0.62500000 0.09374991 0.00000000
0.62500000 0.06249994 0.00000000
0.62500000 0.03124997 0.00000000
0.62500000 0.00000000 0.00000000
0.62500000 0.00000000 0.03124997
0.65625000 0.00000000 0.06406258
0.68750000 0.00000000 0.09687491
0.71875000 0.00000000 0.12968744
0.75000000 0.00000000 0.16250002
0.78125000 0.00000000 0.19531259
0.81250000 0.00000000 0.22812510
0.84375000 0.00000000 0.26093763
0.87500000 0.00000000 0.29374993
0.90625000 0.00000000 0.32656243
0.93750000 0.00000000 0.35937512
0.96875000 0.00000000 0.39218748
1.00000000 0.00000000 0.42499995
0.65625000 0.62343740 0.00000000
0.65625000 0.59218752 0.00000000
0.65625000 0.56093764 0.00000000
0.65625000 0.52968776 0.00000000
0.65625000 0.49843737 0.00000000
0.65625000 0.46718749 0.00000000
0.65625000 0.43593761 0.00000000
0.65625000 0.40468729 0.00000000
0.65625000 0.37343740 0.00000000
0.65625000 0.34218752 0.00000000
0.65625000 0.31093764 0.00000000
0.65625000 0.27968729 0.00000000
0.65625000 0.24843740 0.00000000
0.65625000 0.21718752 0.00000000
0.65625000 0.18593764 0.00000000
0.65625000 0.15468729 0.00000000
0.65625000 0.12343740 0.00000000
0.65625000 0.09218752 0.00000000
0.65625000 0.06093764 0.00000000
0.65625000 0.02968729 0.00000000
0.65625000 0.00000000 0.00156259
0.65625000 0.00000000 0.03281247
0.68750000 0.00000000 0.06562494
0.71875000 0.00000000 0.09843745
0.75000000 0.00000000 0.13125014
0.78125000 0.00000000 0.16406235
0.81250000 0.00000000 0.19687517
0.84375000 0.00000000 0.22968735
0.87500000 0.00000000 0.26250005
0.90625000 0.00000000 0.29531270
0.93750000 0.00000000 0.32812503
0.96875000 0.00000000 0.36093751
