Luig Group/Luig Group.cube
# VEGAS Pro LUT
TITLE "Luig Group"
LUT_3D_SIZE 5
0.00000050 0.00000050 0.00000050
0.23750007 0.00000000 0.25000000
0.47500014 0.00000000 0.50000000
0.71250021 0.00000000 0.75000000
0.95000029 0.00000000 1.00000000
0.25000000 0.23749995 0.00000000
0.25000000 0.00000000 0.01249999
0.50000000 0.00000000 0.27500010
0.75000000 0.00000000 0.53750020
1.00000000 0.00000000 0.79999995
0.50000000 0.47499990 0.00000000
0.50000000 0.22500014 0.00000000
0.50000000 0.00000000 0.02499998
0.75000000 0.00000000 0.28750008
1.00000000 0.00000000 0.55000019
0.75000000 0.71249986 0.00000000
0.75000000 0.46249974 0.00000000
0.75000000 0.21250015 0.00000000
0.75000000 0.00000000 0.03749996
1.00000000 0.00000000 0.30000007
1.00000000 0.94999981 0.00000000
1.00000000 0.70000005 0.00000000
1.00000000 0.45000029 0.00000000
1.00000000 0.19999981 0.00000000
1.00000000 0.00000000 0.04999995
0.00000000 0.25000000 0.23750001
0.00000000 0.01250005 0.25000000
0.22500002 0.00000000 0.50000000
0.46250010 0.00000000 0.75000000
0.69999981 0.00000000 1.00000000
0.01249993 0.25000000 0.00000000
0.25000000 0.25000000 0.25000000
0.48750007 0.25000000 0.50000000
0.72500014 0.25000000 0.75000000
0.96250021 0.25000000 1.00000000
0.27499998 0.50000000 0.00000000
0.50000000 0.48749995 0.25000000
0.50000000 0.25000000 0.26249999
0.75000000 0.25000000 0.52500010
1.00000000 0.25000000 0.78750020
0.53750002 0.75000000 0.00000000
0.75000000 0.72499990 0.25000000
0.75000000 0.47500014 0.25000000
0.75000000 0.25000000 0.27499998
1.00000000 0.25000000 0.53750008
0.79999971 1.00000000 0.00000000
1.00000000 0.96249986 0.25000000
1.00000000 0.71249974 0.25000000
1.00000000 0.46250015 0.25000000
1.00000000 0.25000000 0.28749996
0.00000000 0.50000000 0.47500002
0.00000000 0.27499986 0.50000000
0.00000000 0.02500010 0.50000000
0.21249998 0.00000000 0.75000000
0.45000005 0.00000000 1.00000000
0.00000000 0.50000000 0.22499990
0.25000000 0.50000000 0.48750001
0.25000000 0.26250005 0.50000000
0.47500002 0.25000000 0.75000000
0.71250010 0.25000000 1.00000000
0.02499986 0.50000000 0.00000000
0.26249993 0.50000000 0.25000000
0.50000000 0.50000000 0.50000000
0.73750013 0.49999994 0.75000006
0.97500014 0.50000000 1.00000000
0.28749990 0.75000000 0.00000000
0.52499998 0.75000000 0.25000000
0.75000006 0.73750001 0.49999994
0.75000006 0.49999994 0.51249993
1.00000000 0.50000000 0.77500010
0.54999995 1.00000000 0.00000000
0.78750002 1.00000000 0.25000000
1.00000000 0.97499990 0.50000000
1.00000000 0.72500014 0.50000000
1.00000000 0.50000000 0.52499998
0.00000000 0.75000000 0.71250004
0.00000000 0.53749985 0.75000000
0.00000000 0.28750026 0.75000000
0.00000000 0.03750014 0.75000000
0.20000029 0.00000000 1.00000000
0.00000000 0.75000000 0.46250045
0.25000000 0.75000000 0.72500002
0.25000000 0.52499986 0.75000000
0.25000000 0.27500010 0.75000000
0.46249998 0.25000000 1.00000000
0.00000000 0.75000000 0.21250033
0.25000000 0.75000000 0.47499990
0.49999994 0.75000006 0.73750007
0.49999994 0.51249999 0.75000006
0.72500002 0.50000000 1.00000000
0.03749979 0.75000000 0.00000000
0.27499986 0.75000000 0.25000000
0.51249987 0.75000006 0.49999994
0.75000000 0.75000000 0.75000000
0.98750007 0.75000000 1.00000000
0.30000019 1.00000000 0.00000000
0.53749990 1.00000000 0.25000000
0.77499998 1.00000000 0.50000000
1.00000000 0.98749995 0.75000000
1.00000000 0.75000000 0.76249999
0.00000000 1.00000000 0.95000005
0.00000000 0.80000019 1.00000000
0.00000000 0.54999971 1.00000000
0.00000000 0.29999995 1.00000000
0.00000000 0.05000019 1.00000000
0.00000000 1.00000000 0.70000029
0.25000000 1.00000000 0.96250004
0.25000000 0.78749985 1.00000000
0.25000000 0.53750026 1.00000000
0.25000000 0.28750014 1.00000000
0.00000000 1.00000000 0.44999981
0.25000000 1.00000000 0.71250045
0.50000000 1.00000000 0.97500002
0.50000000 0.77499986 1.00000000
0.50000000 0.52500010 1.00000000
0.00000000 1.00000000 0.20000005
0.25000000 1.00000000 0.46250033
0.50000000 1.00000000 0.72499990
0.75000000 1.00000000 0.98750001
0.75000000 0.76250005 1.00000000
0.04999971 1.00000000 0.00000000
0.28749979 1.00000000 0.25000000
0.52499986 1.00000000 0.50000000
0.76249993 1.00000000 0.75000000
1.00000048 1.00000048 1.00000048
