My Melody Gradient Major/My Melody Gradient Major.cube
# VEGAS Pro LUT
TITLE "My Melody Gradient Major"
LUT_3D_SIZE 5
0.94117647 0.47058824 0.68627453
0.94561440 0.50815904 0.71168083
0.95426631 0.58058167 0.76243162
0.96541595 0.67490947 0.82635522
0.97734702 0.77819598 0.89127994
0.95389324 0.57744992 0.76025665
0.96498144 0.67120123 0.82391125
0.97691417 0.77438748 0.88901478
0.98797512 0.87406212 0.94339561
0.99644804 0.95727855 0.97488201
0.97648007 0.77057427 0.88673514
0.98760355 0.87060750 0.94172609
0.99620205 0.95465881 0.97427040
0.99996561 1.00000000 0.96710253
0.99762571 1.00000000 0.90847868
0.99595040 0.95199990 0.97361201
0.99998552 1.00000000 0.96868354
0.99776626 1.00000000 0.91109943
0.99283373 1.00000000 0.83102322
0.98636484 0.99118078 0.74043524
0.99790323 1.00000000 0.91368979
0.99304962 1.00000000 0.83422875
0.98661637 0.99200130 0.74381524
0.97978044 0.96804190 0.65442985
0.97371864 0.94484878 0.57805306
0.94226223 0.47997811 0.69219714
0.94850928 0.53236395 0.72870225
0.95831597 0.61466545 0.78591108
0.96996599 0.71393603 0.85165209
0.98174304 0.81722909 0.91375345
0.95791203 0.61125773 0.78358072
0.96952462 0.71013337 0.84922343
0.98132741 0.81350785 0.91167438
0.99160409 0.90843451 0.95876193
0.99863833 0.98196685 0.97831434
0.98090971 0.80977517 0.90957457
0.99127293 0.90524203 0.95744294
0.99845690 0.97979081 0.97822398
0.99946332 1.00000000 0.94811445
0.99596655 1.00000000 0.87966990
0.99826878 0.97756898 0.97808051
0.99953437 1.00000000 0.95014387
0.99614179 1.00000000 0.88257104
0.99048465 1.00000000 0.79707390
0.98373985 0.98230380 0.70563287
0.99631393 1.00000000 0.88544798
0.99071926 1.00000000 0.80039793
0.98399365 0.98318487 0.70896333
0.97731400 0.95875973 0.62312460
0.97185737 0.93755066 0.55486226
0.94411498 0.49559873 0.70289880
0.95192164 0.56091762 0.74873328
0.96263355 0.65121603 0.81063086
0.97453445 0.75354731 0.87641984
0.98590797 0.85496491 0.93392855
0.96220791 0.64760154 0.80821019
0.97409546 0.74971950 0.87407166
0.98551881 0.85140014 0.93210065
0.99476165 0.93969685 0.97012550
1.00000000 1.00000000 0.97515130
0.98512667 0.84781724 0.93024570
0.99448019 0.93683571 0.96922219
1.00000000 1.00000000 0.97647059
0.99846703 1.00000000 0.92484325
0.99398452 1.00000000 0.84831959
0.99988472 0.99828440 0.97690719
0.99858284 1.00000000 0.92725700
0.99418807 1.00000000 0.85143703
0.98797745 0.99633372 0.76226056
0.98112786 0.97299463 0.67170799
0.99438912 1.00000000 0.85453641
0.98822445 0.99709916 0.76563901
0.98137754 0.97390187 0.67492485
0.97502542 0.94994503 0.59437436
0.97034490 0.93165410 0.53596807
0.94663954 0.51673257 0.71770483
0.95575631 0.59310251 0.77109939
0.96712399 0.68951577 0.83591628
0.97902626 0.79302573 0.89998388
0.98974681 0.89068598 0.95113057
0.96668583 0.68576378 0.83347046
0.97859883 0.78924209 0.89778131
0.98939323 0.88734686 0.94961900
0.99735284 0.96713161 0.97681177
0.99979341 1.00000000 0.95868415
0.98903584 0.88398296 0.94807404
0.99713010 0.96467108 0.97638917
0.99983829 1.00000000 0.96048564
0.99704194 1.00000000 0.89795291
0.99174488 1.00000000 0.81509179
0.99987823 1.00000000 0.96224332
0.99719632 1.00000000 0.90068698
0.99197036 1.00000000 0.81836146
0.98537731 0.98790586 0.72724718
0.97859412 0.96360940 0.63932467
0.99219406 1.00000000 0.82161921
0.98563045 0.98875326 0.73061597
0.97883338 0.96450847 0.64236385
0.97297972 0.94195396 0.56884313
0.96924651 0.92751521 0.52203447
0.94974077 0.54266208 0.73594069
0.95991820 0.62820101 0.79512590
0.97169214 0.72884715 0.86109281
0.98334628 0.83165383 0.92166972
0.99316436 0.92367458 0.96468490
0.97125059 0.72502685 0.85868692
0.98293954 0.82798350 0.91967773
0.99285561 0.92063046 0.96355474
0.99928236 0.99002117 0.97814614
0.99904895 1.00000000 0.93758446
0.99254209 0.91755480 0.96238488
0.99912763 0.98803049 0.97826934
0.99914199 1.00000000 0.93980396
0.99525338 1.00000000 0.86810750
0.98931271 1.00000000 0.78065038
0.99923068 1.00000000 0.94198596
0.99544001 1.00000000 0.87109780
0.98955399 1.00000000 0.78400820
0.98274958 0.97882402 0.69269776
0.97620380 0.95450425 0.60914689
0.98979402 1.00000000 0.78736031
0.98300254 0.97971898 0.69599289
0.97642636 0.95536077 0.61194426
0.97124237 0.93514270 0.54719502
0.96862745 0.92549020 0.51372552
