My Melody Gradient Major/My Melody Gradient Major.cube
# VEGAS Pro LUT
TITLE "My Melody Gradient Major"
LUT_3D_SIZE 33
0.94117647 0.47058824 0.68627453
0.94144207 0.47293612 0.68764830
0.94179702 0.47600558 0.68958443
0.94223791 0.47977129 0.69205922
0.94276142 0.48420802 0.69504893
0.94336414 0.48929045 0.69852966
0.94404280 0.49499327 0.70247775
0.94479400 0.50129128 0.70686942
0.94561440 0.50815904 0.71168083
0.94650066 0.51557142 0.71688831
0.94744939 0.52350307 0.72246796
0.94845724 0.53192872 0.72839606
0.94952089 0.54082304 0.73464888
0.95063698 0.55016083 0.74120265
0.95180213 0.55991668 0.74803352
0.95301306 0.57006538 0.75511777
0.95426631 0.58058167 0.76243162
0.95555866 0.59144020 0.76995128
0.95688665 0.60261571 0.77765304
0.95824695 0.61408293 0.78551304
0.95963621 0.62581658 0.79350758
0.96105111 0.63779134 0.80161279
0.96248829 0.64998192 0.80980504
0.96394432 0.66236305 0.81806040
0.96541595 0.67490947 0.82635522
0.96689981 0.68759590 0.83466566
0.96839255 0.70039696 0.84296799
0.96989071 0.71328741 0.85123843
0.97139108 0.72624207 0.85945314
0.97289026 0.73923546 0.86758846
0.97438484 0.75224251 0.87562054
0.97587156 0.76523775 0.88352561
0.97734702 0.77819598 0.89127994
0.94178241 0.47588015 0.68950349
0.94222021 0.47962072 0.69195890
0.94274074 0.48403320 0.69493008
0.94334060 0.48909232 0.69839317
0.94401652 0.49477276 0.70232451
0.94476515 0.50104928 0.70670027
0.94558305 0.50789660 0.71149665
0.94646692 0.51528937 0.71668994
0.94741338 0.52320236 0.72225636
0.94841915 0.53161031 0.72817212
0.94948083 0.54048783 0.73441339
0.95059502 0.54980969 0.74095649
0.95175844 0.55955064 0.74777758
0.95296776 0.56968534 0.75485295
0.95421952 0.58018857 0.76215875
0.95551044 0.59103495 0.76967126
0.95683718 0.60219926 0.77736676
0.95819634 0.61365622 0.78522134
0.95958465 0.62538052 0.79321134
0.96099865 0.63734680 0.80131292
0.96243507 0.64952993 0.80950236
0.96389049 0.66190451 0.81775588
0.96536160 0.67444527 0.82604963
0.96684504 0.68712693 0.83435994
0.96833748 0.69992429 0.84266299
0.96983558 0.71281195 0.85093498
0.97133589 0.72576463 0.85915220
0.97283518 0.73875707 0.86729085
0.97433001 0.75176400 0.87532717
0.97581708 0.76476014 0.88323730
0.97729301 0.77772015 0.89099759
0.97875440 0.79061884 0.89858425
0.98019803 0.80343080 0.90597343
0.94272017 0.48385924 0.69481188
0.94331717 0.48889503 0.69825733
0.94399035 0.49455309 0.70217186
0.94473636 0.50080812 0.70653170
0.94555175 0.50763488 0.71131307
0.94643325 0.51500803 0.71649218
0.94737750 0.52290237 0.72204524
0.94838113 0.53129250 0.72794855
0.94944078 0.54015321 0.73417830
0.95055312 0.54945916 0.74071068
0.95171481 0.55918515 0.74752200
0.95292246 0.56930584 0.75458843
0.95417273 0.57979590 0.76188618
0.95546228 0.59063011 0.76939154
0.95678777 0.60178322 0.77708066
0.95814580 0.61322981 0.78492981
0.95953310 0.62494469 0.79291528
0.96094620 0.63690257 0.80101317
0.96238184 0.64907819 0.80919981
0.96383661 0.66144615 0.81745136
0.96530724 0.67398125 0.82574409
0.96679032 0.68665820 0.83405417
0.96828246 0.69945168 0.84235793
0.96978039 0.71233648 0.85063148
0.97128069 0.72528726 0.85885113
0.97278005 0.73827869 0.86699313
0.97427511 0.75128555 0.87503362
0.97576255 0.76428252 0.88294882
0.97723895 0.77724433 0.89071506
0.97870094 0.79014570 0.89830846
0.98014528 0.80296129 0.90570533
0.98156852 0.81566590 0.91288185
0.98296738 0.82823420 0.91981429
0.94396430 0.49433419 0.70201981
0.94470763 0.50056773 0.70636368
0.94552058 0.50737387 0.71112996
0.94639969 0.51472741 0.71629483
0.94734168 0.52260298 0.72183460
0.94834322 0.53097534 0.72772545
0.94940084 0.53981918 0.73394358
0.95051134 0.54910922 0.74046528
0.95167124 0.55882019 0.74726677
0.95287728 0.56892681 0.75432420
0.95412606 0.57940376 0.76161391
0.95541418 0.59022576 0.76911199
0.95673841 0.60136753 0.77679479
0.95809531 0.61280382 0.78463852
0.95948154 0.62450927 0.79261935
0.96089381 0.63645864 0.80071354
0.96232867 0.64862669 0.80889732
0.96378279 0.66098803 0.81714690
0.96525288 0.67351741 0.82543856
0.96673554 0.68618959 0.83374846
0.96822745 0.69897926 0.84205282
0.96972519 0.71186113 0.85032791
0.97122550 0.72480989 0.85855001
0.97272497 0.73780030 0.86669523
0.97422022 0.75080705 0.87473989
0.97570801 0.76380485 0.88266015
0.97718483 0.77676839 0.89043224
0.97864747 0.78967243 0.89803249
0.98009253 0.80249161 0.90543699
0.98151660 0.81520075 0.91262203
0.98291636 0.82777452 0.91956389
0.98428851 0.84018761 0.92623866
0.98562968 0.85241473 0.93262273
0.94548947 0.50711364 0.71094739
0.94636619 0.51444745 0.71609807
0.94730598 0.52230430 0.72162443
0.94830531 0.53065878 0.72750276
0.94936097 0.53948575 0.73370934
0.95046955 0.54875982 0.74022025
0.95162773 0.55845577 0.74701184
0.95283210 0.56854826 0.75406033
0.95407939 0.57901204 0.76134187
0.95536613 0.58982182 0.76883274
0.95668912 0.60095227 0.77650917
0.95804489 0.61237812 0.78434736
0.95943010 0.62407416 0.79232359
0.96084142 0.63601500 0.80041403
0.96227551 0.64817542 0.80859494
0.96372902 0.66053015 0.81684250
0.96519858 0.67305380 0.82513303
0.96668082 0.68572116 0.83344269
0.96817243 0.69850695 0.84174770
0.96967006 0.71138591 0.85002428
0.97117031 0.72433263 0.85824871
0.97266984 0.73732197 0.86639720
0.97416532 0.75032854 0.87444597
0.97565341 0.76332712 0.88237125
0.97713077 0.77629238 0.89014924
0.97859395 0.78919905 0.89775616
0.98003972 0.80202180 0.90516829
0.98146462 0.81473547 0.91236186
0.98286533 0.82731462 0.91931307
0.98423856 0.83973408 0.92599815
0.98558092 0.85196853 0.93239331
0.98688906 0.86399263 0.93847477
0.98815960 0.87578112 0.94421881
0.94727033 0.52200627 0.72141474
0.94826758 0.53034294 0.72728056
0.94932121 0.53915292 0.73347545
0.95042789 0.54841101 0.73997563
0.95158428 0.55809188 0.74675727
0.95278704 0.56817025 0.75379670
0.95403278 0.57862079 0.76107013
0.95531815 0.58941829 0.76855373
0.95663983 0.60053742 0.77622372
0.95799446 0.61195284 0.78405643
0.95937866 0.62363940 0.79202795
0.96078908 0.63557166 0.80011463
0.96222240 0.64772445 0.80829263
0.96367526 0.66007245 0.81653821
0.96514428 0.67259037 0.82482755
0.96662611 0.68525290 0.83313692
0.96811742 0.69803476 0.84144253
0.96961486 0.71091074 0.84972060
0.97111511 0.72385544 0.85794735
0.97261477 0.73684365 0.86609906
0.97411042 0.74985003 0.87415189
0.97559887 0.76284933 0.88208210
0.97707665 0.77581626 0.88986593
0.97854042 0.78872555 0.89747965
0.97998685 0.80155188 0.90489936
0.98141259 0.81426996 0.91210139
0.98281431 0.82685453 0.91906190
0.98418862 0.83928031 0.92575717
0.98553210 0.85152197 0.93216342
0.98684156 0.86355430 0.93825686
0.98811358 0.87535191 0.94401371
0.98934472 0.88688958 0.94941026
0.99053174 0.89814204 0.95442265
0.94928145 0.53882074 0.73324198
0.95038629 0.54806280 0.73973131
0.95154089 0.55772853 0.74650306
0.95274198 0.56779271 0.75353348
0.95398623 0.57823002 0.76079869
0.95527017 0.58901519 0.76827496
0.95659059 0.60012293 0.77593851
0.95794404 0.61152792 0.78376567
0.95932722 0.62320495 0.79173255
0.96073675 0.63512862 0.79981536
0.96216929 0.64727378 0.80799043
0.96362150 0.65961504 0.81623393
0.96508998 0.67212713 0.82452208
0.96657139 0.68478477 0.83283114
0.96806246 0.69756269 0.84113729
0.96955973 0.71043563 0.84941679
0.97105992 0.72337830 0.85764587
0.97255963 0.73636532 0.86580074
0.97405553 0.74937147 0.87385768
0.97554427 0.76237148 0.88179284
0.97702247 0.77534008 0.88958246
0.97848684 0.78825194 0.89720279
0.97993398 0.80108178 0.90463012
0.98136055 0.81380427 0.91184056
0.98276317 0.82639420 0.91881037
0.98413855 0.83882624 0.92551583
0.98548329 0.85107517 0.93193316
0.98679405 0.86311561 0.93803853
0.98806745 0.87492234 0.94380820
0.98930019 0.88647002 0.94921839
0.99048889 0.89773345 0.95424533
0.99163020 0.90868723 0.95886523
0.99272078 0.91930616 0.96305436
0.95149755 0.55736572 0.74624926
0.95269704 0.56741571 0.75327051
0.95393974 0.57783973 0.76052749
0.95522231 0.58861256 0.76799643
0.95654142 0.59970886 0.77565354
0.95789373 0.61110336 0.78347510
0.95927584 0.62277085 0.79143721
0.96068448 0.63468587 0.79951620
0.96211624 0.64682335 0.80768830
0.96356773 0.65915781 0.81592971
0.96503568 0.67166406 0.82421666
0.96651673 0.68431681 0.83252537
0.96800745 0.69709080 0.84083205
0.96950459 0.70996070 0.84911293
0.97100472 0.72290117 0.85734433
0.97250450 0.73588705 0.86550236
0.97400057 0.74889296 0.87356329
0.97548968 0.76189363 0.88150334
0.97696835 0.77486384 0.88929874
0.97843325 0.78777820 0.89692575
0.97988111 0.80061150 0.90436053
0.98130846 0.81333840 0.91157943
0.98271203 0.82593369 0.91855854
0.98408848 0.83837199 0.92527413
0.98543441 0.85062808 0.93170244
0.98674649 0.86267662 0.93781972
0.98802131 0.87449241 0.94360214
0.98925561 0.88605011 0.94902599
0.99044597 0.89732438 0.95406747
0.99158913 0.90829003 0.95870274
0.99268162 0.91892171 0.96290815
0.99372011 0.92919415 0.96665990
0.99470133 0.93908209 0.96993411
0.95389324 0.57744992 0.76025665
0.95517445 0.58821034 0.76771820
0.95649230 0.59929520 0.77536881
0.95784342 0.61067921 0.78318471
0.95922452 0.62233704 0.79114211
0.96063221 0.63424343 0.79921722
0.96206319 0.64637315 0.80738628
0.96351403 0.65870082 0.81562555
0.96498144 0.67120123 0.82391125
0.96646202 0.68384904 0.83221954
0.96795249 0.69661897 0.84052676
0.96944940 0.70948577 0.84880900
0.97094947 0.72242415 0.85704261
0.97244936 0.73540878 0.86520380
0.97394568 0.74841440 0.87326872
0.97543502 0.76141572 0.88121367
0.97691417 0.77438748 0.88901478
0.97837967 0.78730440 0.89664841
0.97982818 0.80014110 0.90409070
0.98125637 0.81287235 0.91131794
0.98266089 0.82547295 0.91830629
0.98403835 0.83791745 0.92503202
0.98538548 0.85018069 0.93147129
0.98669881 0.86223733 0.93760043
0.98797512 0.87406212 0.94339561
0.98921096 0.88562977 0.94883305
0.99040300 0.89691490 0.95388901
0.99154794 0.90789235 0.95853972
0.99264234 0.91853678 0.96276134
0.99368292 0.92882293 0.96653020
0.99466628 0.93872541 0.96982241
0.99558914 0.94821906 0.97261429
0.99644804 0.95727855 0.97488201
0.95644319 0.59888196 0.77508426
0.95779318 0.61025536 0.78289449
0.95917320 0.62190360 0.79084712
0.96057999 0.63380134 0.79891831
0.96201015 0.64592326 0.80708438
0.96346033 0.65824407 0.81532151
0.96492720 0.67073858 0.82360590
0.96640736 0.68338144 0.83191377
0.96789753 0.69614732 0.84022141
0.96939427 0.70901102 0.84850508
0.97089428 0.72194719 0.85674089
0.97239423 0.73493057 0.86490512
0.97389072 0.74793589 0.87297398
0.97538042 0.76093781 0.88092375
0.97685993 0.77391112 0.88873065
0.97832602 0.78683043 0.89637083
0.97977519 0.79967058 0.90382057
0.98120421 0.81240618 0.91105610
0.98260963 0.82501197 0.91805369
0.98398823 0.83746272 0.92478949
0.98533648 0.84973305 0.93123978
0.98665112 0.86179775 0.93738073
0.98792887 0.87363154 0.94318861
0.98916626 0.88520902 0.94863963
0.99035996 0.89650506 0.95371008
0.99150670 0.90749425 0.95837605
0.99260300 0.91815138 0.96261394
0.99364561 0.92845112 0.96639985
0.99463117 0.93836820 0.96970999
0.99555629 0.94787735 0.97252071
0.99641758 0.95695329 0.97480816
0.99721181 0.96557069 0.97654855
0.99793553 0.97370422 0.97771817
0.95912194 0.62147051 0.79055232
0.96052784 0.63335949 0.79861957
0.96195716 0.64547360 0.80678254
0.96340668 0.65778756 0.81501746
0.96487296 0.67027611 0.82330054
0.96635270 0.68291396 0.83160800
0.96784258 0.69567579 0.83991611
0.96933913 0.70853633 0.84820098
0.97083908 0.72147030 0.85643899
0.97233909 0.73445237 0.86460626
0.97383577 0.74745733 0.87267911
0.97532576 0.76045984 0.88063365
0.97680575 0.77343464 0.88844621
0.97827238 0.78635639 0.89609295
0.97972226 0.79919988 0.90355015
0.98115206 0.81193978 0.91079402
0.98255843 0.82455081 0.91780072
0.98393798 0.83700770 0.92454660
0.98528743 0.84928513 0.93100780
0.98660344 0.86135787 0.93716055
0.98788255 0.87320054 0.94298112
0.98912150 0.88478792 0.94844568
0.99031687 0.89609474 0.95353055
0.99146539 0.90709573 0.95821184
0.99256361 0.91776550 0.96246588
0.99360830 0.92807883 0.96626884
0.99459594 0.93801045 0.96959692
0.99552333 0.94753504 0.97242641
0.99638706 0.95662737 0.97473353
0.99718380 0.96526206 0.97649449
0.99791020 0.97341388 0.97768551
0.99856281 0.98105752 0.97828287
0.99913841 0.98816776 0.97826272
0.96190423 0.64502424 0.80648082
0.96335304 0.65733129 0.81471348
0.96481878 0.66981387 0.82299525
0.96629810 0.68244666 0.83130223
0.96778762 0.69520438 0.83961070
0.96928400 0.70806175 0.84789687
0.97078389 0.72099346 0.85613704
0.97228396 0.73397422 0.86430734
0.97378081 0.74697876 0.87238407
0.97527111 0.75998181 0.88034338
0.97675151 0.77295804 0.88816160
0.97821867 0.78588223 0.89581490
0.97966921 0.79872906 0.90327942
0.98109984 0.81147319 0.91053158
0.98250711 0.82408941 0.91754746
0.98388773 0.83655244 0.92430329
0.98523837 0.84883690 0.93077540
0.98655564 0.86091763 0.93693995
0.98783618 0.87276924 0.94277316
0.98907667 0.88436645 0.94825125
0.99027371 0.89568406 0.95335048
0.99142396 0.90669668 0.95804703
0.99252415 0.91737914 0.96231723
0.99357080 0.92770600 0.96613717
0.99456066 0.93765211 0.96948320
0.99549037 0.94719213 0.97233146
0.99635649 0.95630080 0.97465819
0.99715573 0.96495277 0.97643965
0.99788475 0.97312284 0.97765207
0.99854016 0.98078567 0.97827166
0.99911863 0.98791593 0.97827464
0.99961686 0.99448842 0.97763729
1.00000000 1.00000000 0.97610086
0.96476460 0.66935188 0.82268995
0.96624345 0.68197954 0.83099645
0.96773267 0.69473314 0.83930528
0.96922886 0.70758724 0.84759271
0.97072870 0.72051668 0.85583496
0.97222877 0.73349607 0.86400831
0.97372580 0.74650019 0.87208885
0.97521645 0.75950378 0.88005292
0.97669727 0.77248144 0.88787675
0.97816497 0.78540796 0.89553648
0.97961622 0.79825807 0.90300846
0.98104757 0.81100649 0.91026878
0.98245579 0.82362783 0.91729379
0.98383749 0.83609694 0.92405963
0.98518926 0.84838843 0.93054259
0.98650783 0.86047709 0.93671888
0.98778975 0.87233758 0.94256467
0.98903179 0.88394463 0.94805628
0.99023050 0.89527291 0.95316988
0.99138254 0.90629727 0.95788169
0.99248457 0.91699225 0.96216798
0.99353331 0.92733270 0.96600491
0.99452531 0.93729323 0.96936876
0.99545723 0.94684869 0.97223574
0.99632579 0.95597363 0.97458214
0.99712753 0.96464288 0.97638410
0.99785918 0.97283107 0.97761786
0.99851739 0.98051304 0.97825968
0.99909878 0.98766333 0.97828573
0.99959999 0.99425679 0.97767234
1.00000000 1.00000000 0.97626400
1.00000000 1.00000000 0.97155517
0.99995369 1.00000000 0.96629465
0.96767771 0.69426197 0.83899987
0.96917373 0.70711285 0.84728849
0.97067350 0.72003996 0.85553282
0.97217363 0.73301798 0.86370909
0.97367084 0.74602163 0.87179351
0.97516173 0.75902569 0.87976229
0.97664303 0.77200478 0.88759166
0.97811127 0.78493363 0.89525789
0.97956312 0.79778701 0.90273714
0.98099530 0.81053954 0.91000575
0.98240447 0.82316607 0.91703981
0.98378718 0.83564121 0.92381561
0.98514009 0.84793967 0.93030941
0.98645991 0.86003625 0.93649739
0.98774326 0.87190557 0.94235575
0.98898685 0.88352239 0.94786078
0.99018717 0.89486140 0.95298868
0.99134099 0.90589738 0.95771575
0.99244499 0.91660494 0.96201807
0.99349570 0.92695886 0.96587199
0.99448985 0.93693382 0.96925366
0.99542409 0.94650459 0.97213936
0.99629498 0.95564586 0.97450531
0.99709928 0.96433228 0.97632772
0.99783355 0.97253865 0.97758281
0.99849451 0.98023969 0.97824681
0.99907875 0.98741001 0.97829598
0.99958301 0.99402440 0.97770649
1.00000000 1.00000000 0.97642642
1.00000000 1.00000000 0.97173834
0.99995679 1.00000000 0.96649772
0.99984407 1.00000000 0.96072787
0.99967372 1.00000000 0.95445234
0.97061825 0.71956331 0.85523057
0.97211850 0.73253995 0.86340976
0.97361583 0.74554312 0.87149799
0.97510707 0.75854754 0.87947142
0.97658873 0.77152801 0.88730639
0.97805750 0.78445917 0.89497900
0.97951007 0.79731578 0.90246558
0.98094302 0.81007248 0.90974236
0.98235303 0.82270408 0.91678548
0.98373681 0.83518523 0.92357117
0.98509091 0.84749067 0.93007576
0.98641199 0.85959506 0.93627542
0.98769677 0.87147319 0.94214636
0.98894179 0.88309979 0.94766480
0.99014384 0.89444947 0.95280701
0.99129945 0.90549701 0.95754921
0.99240530 0.91621709 0.96186757
0.99345803 0.92658448 0.96573842
0.99445432 0.93657386 0.96913791
0.99539077 0.94615996 0.97204226
0.99626410 0.95531744 0.97442776
0.99707091 0.96402109 0.97627056
0.99780786 0.97224557 0.97754693
0.99847156 0.97996557 0.97823316
0.99905866 0.98715591 0.97830534
0.99956590 0.99379122 0.97773981
0.99998981 0.99984622 0.97651273
1.00000000 1.00000000 0.97192073
0.99995983 1.00000000 0.96670002
0.99984926 1.00000000 0.96094924
0.99968100 1.00000000 0.95469189
0.99945748 1.00000000 0.94795126
0.99918085 1.00000000 0.94075084
0.97356087 0.74506456 0.87120229
0.97505236 0.75806940 0.87918043
0.97653443 0.77105117 0.88702089
0.97800374 0.78398460 0.89469993
0.97945696 0.79684436 0.90219373
0.98089069 0.80960524 0.90947860
0.98230165 0.82224190 0.91653073
0.98368639 0.83472902 0.92332637
0.98504162 0.84704137 0.92984170
0.98636401 0.85915363 0.93605298
0.98765016 0.87104052 0.94193643
0.98889673 0.88267678 0.94746828
0.99010038 0.89403713 0.95262480
0.99125779 0.90509623 0.95738208
0.99236554 0.91582882 0.96171653
0.99342030 0.92620963 0.96560425
0.99441868 0.93621337 0.96902144
0.99535745 0.94581473 0.97194445
0.99623317 0.95498842 0.97434944
0.99704242 0.96370924 0.97621268
0.99778199 0.97195178 0.97751033
0.99844849 0.97969079 0.97821862
0.99903846 0.98690104 0.97831386
0.99954867 0.99355721 0.97777218
0.99997574 0.99963403 0.97656989
1.00000000 1.00000000 0.97210240
0.99996275 1.00000000 0.96690160
0.99985433 1.00000000 0.96116996
0.99968821 1.00000000 0.95493078
0.99946666 1.00000000 0.94820756
0.99919194 1.00000000 0.94102359
0.99886644 1.00000000 0.93340236
0.99849236 1.00000000 0.92536724
0.97648007 0.77057427 0.88673514
0.97794992 0.78350997 0.89442050
0.97940379 0.79637289 0.90192163
0.98083830 0.80913782 0.90921462
0.98225015 0.82177949 0.91627574
0.98363596 0.83427256 0.92308122
0.98499233 0.84659177 0.92960727
0.98631597 0.85871184 0.93583018
0.98760355 0.87060750 0.94172609
0.98885161 0.88225341 0.94727129
0.99005693 0.89362437 0.95244199
0.99121606 0.90469497 0.95721442
0.99232566 0.91544008 0.96156484
0.99338245 0.92583424 0.96546936
0.99438304 0.93585229 0.96890438
0.99532402 0.94546890 0.97184598
0.99620205 0.95465881 0.97427040
0.99701387 0.96339673 0.97615397
0.99775606 0.97165728 0.97747284
0.99842530 0.97941530 0.97820330
0.99901819 0.98664546 0.97832149
0.99953139 0.99332243 0.97780365
0.99996156 0.99942100 0.97662610
1.00000000 1.00000000 0.97228330
0.99996561 1.00000000 0.96710253
0.99985933 1.00000000 0.96138996
0.99969530 1.00000000 0.95516902
0.99947572 1.00000000 0.94846320
0.99920297 1.00000000 0.94129580
0.99887925 1.00000000 0.93369025
0.99850696 1.00000000 0.92566991
0.99808830 1.00000000 0.91725826
0.99762571 1.00000000 0.90847868
0.97935063 0.79590124 0.90164918
0.98078591 0.80867022 0.90895027
0.98219866 0.82131690 0.91602033
0.98358548 0.83381587 0.92283565
0.98494297 0.84614193 0.92937243
0.98626792 0.85826981 0.93560690
0.98755687 0.87017417 0.94151527
0.98880643 0.88182968 0.94707376
0.99001336 0.89321119 0.95225871
0.99117428 0.90429336 0.95704621
0.99228579 0.91505080 0.96141255
0.99334455 0.92545837 0.96533394
0.99434721 0.93549073 0.96878660
0.99529046 0.94512254 0.97174674
0.99617094 0.95432860 0.97419065
0.99698526 0.96308357 0.97609454
0.99773002 0.97136217 0.97743464
0.99840200 0.97913909 0.97818714
0.99899775 0.98638910 0.97832823
0.99951392 0.99308693 0.97783428
0.99994725 0.99920720 0.97668135
1.00000000 1.00000000 0.97246349
0.99996841 1.00000000 0.96730268
0.99986428 1.00000000 0.96160924
0.99970233 1.00000000 0.95540667
0.99948478 1.00000000 0.94871819
0.99921393 1.00000000 0.94156736
0.99889207 1.00000000 0.93397754
0.99852151 1.00000000 0.92597204
0.99810451 1.00000000 0.91757441
0.99764347 1.00000000 0.90880787
0.99714059 1.00000000 0.89969599
0.99659824 1.00000000 0.89026207
0.98214710 0.82085407 0.91576457
0.98353493 0.83335894 0.92258972
0.98489362 0.84569180 0.92913711
0.98621976 0.85782743 0.93538314
0.98751009 0.86974043 0.94130397
0.98876125 0.88140559 0.94687575
0.98996979 0.89279765 0.95207483
0.99113244 0.90389121 0.95687735
0.99224579 0.91466111 0.96125960
0.99330658 0.92508197 0.96519780
0.99431139 0.93512857 0.96866816
0.99525684 0.94477558 0.97164685
0.99613971 0.95399773 0.97411019
0.99695647 0.96276975 0.97603434
0.99770391 0.97106630 0.97739559
0.99837857 0.97886217 0.97817010
0.99897724 0.98613203 0.97833419
0.99949640 0.99285060 0.97786397
0.99993283 0.99899256 0.97673571
1.00000000 1.00000000 0.97264290
0.99997109 1.00000000 0.96750212
0.99986917 1.00000000 0.96182787
0.99970931 1.00000000 0.95564359
0.99949372 1.00000000 0.94897264
0.99922478 1.00000000 0.94183838
0.99890476 1.00000000 0.93426424
0.99853593 1.00000000 0.92627364
0.99812067 1.00000000 0.91789001
0.99766117 1.00000000 0.90913665
0.99715978 1.00000000 0.90003705
0.99661887 1.00000000 0.89061457
0.99604058 1.00000000 0.88089263
0.99542737 1.00000000 0.87089461
0.98484421 0.84524143 0.92890143
0.98617160 0.85738474 0.93515897
0.98746330 0.86930639 0.94109213
0.98871595 0.88098115 0.94667727
0.98992610 0.89238364 0.95189047
0.99109048 0.90348870 0.95670801
0.99220574 0.91427094 0.96110612
0.99326855 0.92470509 0.96506107
0.99427545 0.93476588 0.96854901
0.99522316 0.94442803 0.97154623
0.99610835 0.95366627 0.97402894
0.99692762 0.96245527 0.97597343
0.99767768 0.97076982 0.97735578
0.99835509 0.97858453 0.97815228
0.99895656 0.98587418 0.97833920
0.99947876 0.99261349 0.97789276
0.99991828 0.99877709 0.97678918
1.00000000 1.00000000 0.97282153
0.99997371 1.00000000 0.96770084
0.99987400 1.00000000 0.96204579
0.99971616 1.00000000 0.95587987
0.99950260 1.00000000 0.94922638
0.99923563 1.00000000 0.94210875
0.99891740 1.00000000 0.93455040
0.99855036 1.00000000 0.92657477
0.99813676 1.00000000 0.91820514
0.99767882 1.00000000 0.90946496
0.99717897 1.00000000 0.90037769
0.99663943 1.00000000 0.89096665
0.99606252 1.00000000 0.88125533
0.99545050 1.00000000 0.87126702
0.99480575 1.00000000 0.86102521
0.99413049 1.00000000 0.85055321
0.98741645 0.86887205 0.94087988
0.98867059 0.88055629 0.94647819
0.98988235 0.89196926 0.95170552
0.99104851 0.90308571 0.95653802
0.99216563 0.91388023 0.96095204
0.99323040 0.92432767 0.96492368
0.99423945 0.93440264 0.96842927
0.99518937 0.94407994 0.97144496
0.99607694 0.95333421 0.97394705
0.99689871 0.96214020 0.97591168
0.99765134 0.97047263 0.97731513
0.99833149 0.97830617 0.97813362
0.99893582 0.98561561 0.97834343
0.99946100 0.99237555 0.97792071
0.99990356 0.99856085 0.97684169
1.00000000 1.00000000 0.97299939
0.99997622 1.00000000 0.96789885
0.99987870 1.00000000 0.96226305
0.99972296 1.00000000 0.95611548
0.99951142 1.00000000 0.94947952
0.99924636 1.00000000 0.94237858
0.99892998 1.00000000 0.93483603
0.99856472 1.00000000 0.92687529
0.99815273 1.00000000 0.91851974
0.99769646 1.00000000 0.90979284
0.99719805 1.00000000 0.90071791
0.99665993 1.00000000 0.89131838
0.99608439 1.00000000 0.88161767
0.99547362 1.00000000 0.87163913
0.99483001 1.00000000 0.86140621
0.99415582 1.00000000 0.85094225
0.99345338 1.00000000 0.84027076
0.99272501 1.00000000 0.82941502
0.98983860 0.89155453 0.95152009
0.99100643 0.90268230 0.95636755
0.99212545 0.91348910 0.96079731
0.99319220 0.92394978 0.96478570
0.99420333 0.93403888 0.96830881
0.99515551 0.94373125 0.97134298
0.99604541 0.95300156 0.97386438
0.99686968 0.96182448 0.97584921
0.99762493 0.97017479 0.97727370
0.99830782 0.97802711 0.97811419
0.99891496 0.98535627 0.97834677
0.99944311 0.99213690 0.97794771
0.99988878 0.99834377 0.97689331
1.00000000 1.00000000 0.97317654
0.99997866 1.00000000 0.96809608
0.99988329 1.00000000 0.96247959
0.99972969 1.00000000 0.95635045
0.99952018 1.00000000 0.94973207
0.99925703 1.00000000 0.94264781
0.99894249 1.00000000 0.93512106
0.99857897 1.00000000 0.92717528
0.99816871 1.00000000 0.91883385
0.99771398 1.00000000 0.91012019
0.99721712 1.00000000 0.90105766
0.99668044 1.00000000 0.89166963
0.99610615 1.00000000 0.88197958
0.99549669 1.00000000 0.87201089
0.99485427 1.00000000 0.86178690
0.99418116 1.00000000 0.85133106
0.99347973 1.00000000 0.84066677
0.99275225 1.00000000 0.82981741
0.99200100 1.00000000 0.81880641
