My Melody Gradient Major/My Melody Gradient Major.cube
# VEGAS Pro LUT
TITLE "My Melody Gradient Major"
LUT_3D_SIZE 9
0.94117647 0.47058824 0.68627453
0.94276142 0.48420802 0.69504893
0.94561440 0.50815904 0.71168083
0.94952089 0.54082304 0.73464888
0.95426631 0.58058167 0.76243162
0.95963621 0.62581658 0.79350758
0.96541595 0.67490947 0.82635522
0.97139108 0.72624207 0.85945314
0.97734702 0.77819598 0.89127994
0.94548947 0.50711364 0.71094739
0.94936097 0.53948575 0.73370934
0.95407939 0.57901204 0.76134187
0.95943010 0.62407416 0.79232359
0.96519858 0.67305380 0.82513303
0.97117031 0.72433263 0.85824871
0.97713077 0.77629238 0.89014924
0.98286533 0.82731462 0.91931307
0.98815960 0.87578112 0.94421881
0.95389324 0.57744992 0.76025665
0.95922452 0.62233704 0.79114211
0.96498144 0.67120123 0.82391125
0.97094947 0.72242415 0.85704261
0.97691417 0.77438748 0.88901478
0.98266089 0.82547295 0.91830629
0.98797512 0.87406212 0.94339561
0.99264234 0.91853678 0.96276134
0.99644804 0.95727855 0.97488201
0.96476460 0.66935188 0.82268995
0.97072870 0.72051668 0.85583496
0.97669727 0.77248144 0.88787675
0.98245579 0.82362783 0.91729379
0.98778975 0.87233758 0.94256467
0.99248457 0.91699225 0.96216798
0.99632579 0.95597363 0.97458214
0.99909878 0.98766333 0.97828573
0.99995369 1.00000000 0.96629465
0.97648007 0.77057427 0.88673514
0.98225015 0.82177949 0.91627574
0.98760355 0.87060750 0.94172609
0.99232566 0.91544008 0.96156484
0.99620205 0.95465881 0.97427040
0.99901819 0.98664546 0.97832149
0.99996561 1.00000000 0.96710253
0.99920297 1.00000000 0.94129580
0.99762571 1.00000000 0.90847868
0.98741645 0.86887205 0.94087988
0.99216563 0.91388023 0.96095204
0.99607694 0.95333421 0.97394705
0.99893582 0.98561561 0.97834343
0.99997622 1.00000000 0.96789885
0.99924636 1.00000000 0.94237858
0.99769646 1.00000000 0.90979284
0.99547362 1.00000000 0.87163913
0.99272501 1.00000000 0.82941502
0.99595040 0.95199990 0.97361201
0.99885178 0.98457384 0.97835165
0.99998552 1.00000000 0.96868354
0.99928862 1.00000000 0.94345182
0.99776626 1.00000000 0.91109943
0.99556559 1.00000000 0.87312406
0.99283373 1.00000000 0.83102322
0.98971778 1.00000000 0.78629440
0.98636484 0.99118078 0.74043524
0.99999350 1.00000000 0.96945661
0.99932981 1.00000000 0.94451541
0.99783522 1.00000000 0.91239846
0.99565691 1.00000000 0.87460339
0.99294198 1.00000000 0.83262777
0.98983753 1.00000000 0.78796917
0.98649067 0.99159199 0.74212503
0.98304856 0.97988135 0.69659311
0.97965831 0.96758866 0.65287077
0.99790323 1.00000000 0.91368979
0.99574745 1.00000000 0.87607712
0.99304962 1.00000000 0.83422875
0.98995692 1.00000000 0.78964227
0.98661637 0.99200130 0.74381524
0.98317522 0.98032743 0.69824529
0.97978044 0.96804190 0.65442985
0.97657919 0.95594800 0.61386663
0.97371864 0.94484878 0.57805306
0.94161755 0.47445947 0.68859631
0.94371128 0.49220914 0.70054597
0.94699121 0.51967305 0.71977317
0.95124286 0.55523294 0.74475640
0.95625174 0.59727037 0.77397418
0.96180320 0.64416713 0.80590504
0.96768272 0.69430482 0.83902758
0.97367585 0.74606514 0.87182033
0.97956795 0.79782981 0.90276182
0.94685203 0.51850933 0.71895450
0.95107174 0.55380005 0.74375290
0.95605654 0.59562784 0.77284187
0.96159184 0.64237446 0.80469990
0.96746308 0.69242162 0.83780557
0.97345585 0.74415094 0.87063742
0.97935545 0.79594415 0.90167397
0.98494750 0.84618282 0.92939377
0.99001735 0.89324880 0.95227540
0.95586205 0.59399194 0.77171332
0.96138090 0.64058632 0.80349648
0.96724361 0.69054073 0.83658320
0.97323567 0.74223679 0.86945206
0.97914255 0.79405630 0.90058160
0.98474967 0.84438092 0.92845041
0.98984259 0.89159220 0.95153695
0.99420661 0.93407202 0.96831983
0.99762732 0.97020185 0.97727752
0.96702433 0.68866217 0.83536047
0.97301543 0.74032289 0.86826432
0.97892928 0.79216647 0.89948481
0.98455119 0.84257478 0.92750055
0.98966682 0.88992929 0.95078999
0.99406147 0.93261176 0.96783173
0.99752069 0.96900398 0.97710425
0.99982989 0.99748743 0.97708619
0.99975532 1.00000000 0.95726258
0.97871554 0.79027474 0.89838374
0.98435205 0.84076446 0.92654425
0.98949003 0.88826001 0.95003456
0.99391508 0.93114311 0.96733308
0.99741250 0.96779531 0.97691840
0.99976784 0.99659842 0.97726911
0.99978030 1.00000000 0.95818537
0.99868971 1.00000000 0.92952913
0.99684054 1.00000000 0.89443350
0.98931235 0.88658452 0.94927073
0.99376738 0.92966592 0.96682405
0.99730271 0.96657610 0.97672009
0.99970388 0.99569660 0.97743744
0.99980402 1.00000000 0.95909739
0.99874413 1.00000000 0.93070662
0.99692035 1.00000000 0.89582133
0.99447966 1.00000000 0.85593909
0.99156934 1.00000000 0.81255740
0.99719143 0.96534628 0.97650933
0.99963814 0.99478209 0.97759134
0.99982655 1.00000000 0.95999861
0.99879760 1.00000000 0.93187535
0.99699926 1.00000000 0.89720243
0.99457872 1.00000000 0.85747749
0.99168301 1.00000000 0.81419802
0.98845935 0.99782073 0.76886165
0.98505479 0.98681855 0.72296590
0.99984783 1.00000000 0.96088898
0.99884999 1.00000000 0.93303519
0.99707735 1.00000000 0.89857674
0.99467707 1.00000000 0.85901111
0.99179626 1.00000000 0.81583589
0.98858207 0.99819511 0.77054864
0.98518157 0.98724687 0.72464693
0.98174185 0.97521955 0.67962825
0.97841012 0.96291643 0.63699025
0.99715459 1.00000000 0.89994407
0.99477476 1.00000000 0.86053979
0.99190909 1.00000000 0.81747085
0.98870450 0.99856687 0.77223480
0.98530823 0.98767364 0.72632909
0.98186743 0.97567183 0.68125147
0.97852910 0.96336466 0.63849938
0.97544038 0.95155519 0.59957039
0.97274846 0.94104677 0.56596208
0.94226223 0.47997811 0.69219714
0.94483352 0.50162244 0.70710099
0.94850928 0.53236395 0.72870225
0.95307493 0.57058442 0.75547940
0.95831597 0.61466545 0.78591108
0.96401781 0.66298878 0.81847578
0.96996599 0.71393603 0.85165209
0.97594589 0.76588887 0.88391840
0.98174304 0.81722909 0.91375345
0.94835699 0.53109056 0.72780651
0.95289367 0.56906456 0.75442022
0.95811367 0.61295867 0.78474444
0.96380240 0.66115457 0.81725758
0.96974528 0.71203399 0.85043836
0.97572780 0.76397854 0.88276511
0.98153549 0.81536990 0.91271657
0.98695374 0.86458981 0.93877119
0.99176800 0.91001993 0.95940745
0.95791203 0.61125773 0.78358072
0.96358728 0.65932405 0.81604034
0.96952462 0.71013337 0.84922343
0.97550952 0.76206744 0.88160861
0.98132741 0.81350785 0.91167438
0.98676378 0.86283630 0.93789929
0.99160409 0.90843451 0.95876193
0.99563378 0.94868416 0.97274077
0.99863833 0.98196685 0.97831434
0.96930403 0.70823431 0.84800750
0.97529095 0.76015562 0.88044900
0.98111880 0.81164289 0.91062707
0.98657304 0.86107773 0.93702024
0.99143904 0.90684187 0.95810705
0.99550235 0.94731688 0.97236609
0.99854845 0.98088461 0.97827584
1.00000000 1.00000000 0.97130424
0.99942607 1.00000000 0.94708472
0.98090971 0.80977517 0.90957457
0.98638147 0.85931420 0.93613392
0.99127293 0.90524203 0.95744294
0.99536955 0.94594032 0.97198009
0.99845690 0.97979081 0.97822398
1.00000000 1.00000000 0.97203642
0.99946332 1.00000000 0.94811445
0.99806613 1.00000000 0.91682637
0.99596655 1.00000000 0.87966990
0.99110574 0.90363508 0.95676965
0.99523544 0.94455451 0.97158295
0.99836367 0.97868556 0.97815889
1.00000000 1.00000000 0.97275662
0.99949938 1.00000000 0.94913417
0.99813092 1.00000000 0.91809058
0.99605453 1.00000000 0.88112348
0.99341744 1.00000000 0.83973038
0.99036676 1.00000000 0.79540879
0.99826878 0.97756898 0.97808051
1.00000000 1.00000000 0.97346479
0.99953437 1.00000000 0.95014387
0.99819469 1.00000000 0.91934681
0.99614179 1.00000000 0.88257104
0.99352270 1.00000000 0.84131426
0.99048465 1.00000000 0.79707390
0.98717463 0.99380082 0.75134760
0.98373985 0.98230380 0.70563287
0.99956810 1.00000000 0.95114350
0.99825752 1.00000000 0.92059487
0.99622822 1.00000000 0.88401258
0.99362737 1.00000000 0.84289408
0.99060214 1.00000000 0.79873693
0.98729956 0.99419922 0.75303876
0.98386675 0.98274487 0.70729709
0.98045087 0.97051764 0.66300952
0.97719902 0.95832086 0.62167352
0.99631393 1.00000000 0.88544798
0.99373150 1.00000000 0.84446979
0.99071926 1.00000000 0.80039793
0.98742425 0.99459547 0.75472993
0.98399365 0.98318487 0.70896333
0.98057455 0.97097188 0.66459566
0.97731400 0.95875973 0.62312460
0.97435927 0.94735157 0.58604759
0.97185737 0.93755066 0.55486226
0.94309866 0.48705441 0.69699275
0.94611639 0.51235813 0.71462959
0.95015675 0.54614204 0.73838371
0.95500517 0.58678788 0.76673371
0.96044719 0.63267726 0.79815811
0.96626830 0.68219185 0.83113545
0.97225386 0.73371339 0.86414427
0.97818941 0.78562355 0.89566308
0.98386031 0.83630401 0.92417043
0.94999248 0.54476768 0.73741907
0.95481497 0.58518970 0.76562697
0.96023899 0.63091487 0.79696518
0.96604991 0.68032479 0.82991236
0.97203320 0.73180115 0.86294693
0.97797441 0.78372574 0.89454752
0.98365891 0.83448005 0.92319268
0.98887217 0.88244593 0.94736093
0.99339968 0.92600495 0.96553075
0.96003127 0.62915748 0.79577446
0.96583176 0.67846048 0.82868940
0.97181255 0.72988957 0.86174774
0.97775906 0.78182626 0.89342803
0.98345679 0.83265233 0.92220885
0.98869121 0.88074946 0.94656873
0.99324775 0.92449927 0.96498621
0.99691188 0.96228349 0.97593981
0.99946904 0.99248379 0.97790813
0.97159177 0.72797859 0.86054665
0.97754335 0.77992535 0.89230460
0.98325408 0.83082092 0.92121905
0.98850930 0.87904710 0.94576854
0.99309462 0.92298555 0.96443158
0.99679536 0.96101791 0.97568673
0.99939710 0.99152589 0.97801256
0.99989474 1.00000000 0.96302766
0.99897408 1.00000000 0.93584406
0.98305070 0.82898593 0.92022336
0.98832655 0.87733895 0.94496036
0.99294025 0.92146385 0.96386689
0.99667740 0.95974213 0.97542155
0.99932331 0.99055558 0.97810280
0.99991167 1.00000000 0.96387982
0.99902284 1.00000000 0.93697274
0.99734050 1.00000000 0.90327054
0.99501187 1.00000000 0.86427093
0.99278474 0.91993415 0.96329230
0.99655789 0.95845628 0.97514439
0.99924779 0.98957300 0.97817904
0.99992734 1.00000000 0.96472073
0.99907047 1.00000000 0.93809217
0.99741477 1.00000000 0.90461349
0.99510723 1.00000000 0.86578220
0.99229515 1.00000000 0.82309592
0.98912549 0.99983114 0.77805221
0.99917054 0.98857826 0.97824126
0.99994171 1.00000000 0.96555036
0.99911708 1.00000000 0.93920237
0.99748808 1.00000000 0.90594912
0.99520200 1.00000000 0.86728823
0.99240583 1.00000000 0.82471728
0.98924673 1.00000000 0.77973372
0.98587179 0.98955613 0.73383522
0.98242819 0.97768098 0.68851924
0.99916255 1.00000000 0.94030321
0.99756056 1.00000000 0.90727746
0.99529600 1.00000000 0.86878902
0.99251604 1.00000000 0.82633531
0.98936766 1.00000000 0.78141403
0.98599809 0.98997426 0.73552263
0.98255438 0.97813052 0.69015872
0.97918367 0.96582019 0.64681983
0.97603309 0.95384645 0.60700357
0.99538940 1.00000000 0.87028438
0.99262571 1.00000000 0.82795006
0.98948830 1.00000000 0.78309298
0.98612428 0.99039072 0.73721075
0.98268068 0.97857940 0.69180089
0.97930467 0.96627200 0.64836097
0.97614342 0.95427167 0.60838860
0.97334397 0.94338155 0.57338125
0.97105342 0.93440491 0.54483658
0.94411498 0.49559873 0.70289880
0.94754785 0.52432656 0.72304744
0.95192164 0.56091762 0.74873328
0.95702171 0.60375357 0.77843493
0.96263355 0.65121603 0.81063086
0.96854264 0.70168668 0.84379965
0.97453445 0.75354731 0.87641984
0.98039442 0.80517948 0.90696996
0.98590797 0.85496491 0.93392855
0.95174652 0.55945092 0.74770784
0.95682371 0.60208577 0.77728868
0.96242052 0.64940667 0.80941981
0.96832252 0.69979537 0.84257978
0.97431505 0.75163352 0.87524712
0.98018366 0.80330276 0.90590036
0.98571378 0.85318482 0.93301803
0.99069089 0.89966136 0.95507866
0.99490047 0.94111407 0.97056091
0.96220791 0.64760154 0.80821019
0.96810246 0.69790602 0.84135926
0.97409546 0.74971950 0.87407166
0.97997242 0.80142367 0.90482593
0.98551881 0.85140014 0.93210065
0.99052006 0.89803064 0.95437431
0.99476165 0.93969685 0.97012550
0.99802905 0.97478044 0.97783273
1.00000000 1.00000000 0.97515130
0.97387570 0.74780536 0.87289357
0.97976077 0.79954219 0.90374684
0.98532313 0.84961092 0.93117654
0.99034822 0.89639318 0.95366114
0.99462157 0.93827069 0.96967924
0.99792862 0.97362512 0.97770935
1.00000000 1.00000000 0.97581714
0.99964607 1.00000000 0.95355368
0.99840754 1.00000000 0.92362362
0.98512667 0.84781724 0.93024570
0.99017537 0.89474910 0.95293921
0.99448019 0.93683571 0.96922219
0.99782658 0.97245878 0.97757310
1.00000000 1.00000000 0.97647059
0.99967575 1.00000000 0.95451772
0.99846703 1.00000000 0.92484325
0.99652088 1.00000000 0.88894469
0.99398452 1.00000000 0.84831959
0.99433744 0.93539202 0.96875435
0.99772292 0.97128153 0.97742409
0.99994332 0.99914873 0.97669631
0.99970424 1.00000000 0.95547134
0.99852544 1.00000000 0.92605436
0.99660385 1.00000000 0.89035827
0.99408662 1.00000000 0.84988052
0.99112082 1.00000000 0.80611879
0.98785359 0.99594742 0.76057059
0.99988472 0.99828440 0.97690719
0.99973154 1.00000000 0.95641440
0.99858284 1.00000000 0.92725700
0.99668598 1.00000000 0.89176536
0.99418807 1.00000000 0.85143703
0.99123615 1.00000000 0.80776960
0.98797745 0.99633372 0.76226056
0.98455894 0.98513114 0.71640748
0.98112786 0.97299463 0.67170799
0.99863929 1.00000000 0.92845112
0.99676734 1.00000000 0.89316595
0.99428892 1.00000000 0.85298902
0.99135113 1.00000000 0.80941790
0.98810107 0.99671763 0.76395005
0.98468584 0.98556477 0.71808314
0.98125261 0.97344834 0.67331469
0.97794849 0.96117163 0.63114220
0.97492057 0.94953769 0.59306335
0.99438912 1.00000000 0.85453641
0.99146563 1.00000000 0.81106359
0.98822445 0.99709916 0.76563901
0.98481274 0.98599702 0.71976024
0.98137754 0.97390187 0.67492485
0.97806609 0.96161681 0.63263035
0.97502542 0.94994503 0.59437436
0.97240263 0.93968970 0.56165439
0.97034490 0.93165410 0.53596807
0.94529921 0.50552136 0.70983088
0.94911611 0.53743809 0.73227018
0.95379215 0.57660103 0.75966662
0.95911264 0.62139177 0.79049873
0.96486312 0.67019206 0.82324505
0.97082907 0.72138357 0.85638410
0.97679591 0.77334797 0.88839447
0.98254907 0.82446694 0.91775471
0.98787415 0.87312216 0.94294333
0.95360738 0.57505059 0.75858855
0.95890796 0.61966300 0.78932118
0.96464646 0.66834450 0.82202405
0.97060823 0.71947670 0.85517561
0.97657883 0.77144134 0.88725448
0.98234373 0.82262003 0.91673917
0.98768830 0.87139457 0.94210821
0.99239808 0.91614658 0.96184015
0.99625850 0.95525765 0.97441357
0.96443003 0.66650015 0.82080364
0.97038746 0.71757090 0.85396570
0.97636151 0.76953357 0.88611096
0.98213774 0.82076991 0.91571808
0.98750162 0.86966157 0.94126546
0.99223852 0.91459018 0.96123177
0.99613398 0.95393753 0.97409546
0.99897349 0.98608518 0.97833514
0.99997157 1.00000000 0.96753830
0.97614396 0.76762486 0.88496405
0.98193127 0.81891662 0.91469145
0.98731405 0.86792314 0.94041514
0.99207783 0.91302627 0.96061373
0.99600810 0.95260763 0.97376573
0.99889022 0.98504883 0.97834963
0.99998146 1.00000000 0.96832830
0.99926955 1.00000000 0.94296515
0.99773467 1.00000000 0.91050649
0.98712569 0.86617953 0.93955737
0.99191606 0.91145492 0.95998621
0.99588072 0.95126802 0.97342438
0.99880522 0.98400062 0.97835040
0.99999005 1.00000000 0.96910667
0.99931121 1.00000000 0.94403315
0.99780399 1.00000000 0.91180897
0.99561548 1.00000000 0.87393171
0.99289280 1.00000000 0.83189887
0.99575204 0.94991887 0.97307146
0.99871856 0.98294061 0.97833765
0.99999732 1.00000000 0.96987337
0.99935180 1.00000000 0.94509143
0.99787241 1.00000000 0.91310382
0.99570638 1.00000000 0.87540793
0.99300075 1.00000000 0.83350152
0.98990268 1.00000000 0.78888196
0.98655927 0.99181551 0.74304694
1.00000000 1.00000000 0.97062826
0.99939120 1.00000000 0.94613999
0.99793988 1.00000000 0.91439092
0.99579650 1.00000000 0.87687850
0.99310815 1.00000000 0.83510041
0.99002188 1.00000000 0.79055417
0.98668492 0.99222380 0.74473733
0.98324430 0.98057038 0.69914746
0.97984713 0.96828926 0.65528214
0.99800646 1.00000000 0.91567022
0.99588591 1.00000000 0.87834334
0.99321502 1.00000000 0.83669567
0.99014080 1.00000000 0.79222471
0.98681045 0.99263012 0.74642807
0.98337102 0.98101515 0.70080334
0.97996962 0.96874291 0.65684801
0.97675347 0.95661652 0.61605966
0.97386962 0.94543922 0.57993591
0.99332130 1.00000000 0.83828700
0.99025935 1.00000000 0.79389340
0.98693579 0.99303448 0.74811900
0.98349774 0.98145902 0.70246142
0.98009241 0.96919668 0.65841812
0.97686684 0.95705074 0.61748677
0.97396809 0.94582427 0.58116484
0.97154343 0.93632054 0.55094999
0.96973985 0.92934269 0.52833968
0.94663954 0.51673257 0.71770483
0.95080930 0.55160296 0.74221355
0.95575631 0.59310251 0.77109939
0.96126604 0.63961285 0.80284077
0.96712399 0.68951577 0.83591628
0.97311556 0.74119282 0.86880451
0.97902626 0.79302573 0.89998388
0.98464149 0.84339625 0.92793310
0.98974681 0.89068598 0.95113057
0.95556301 0.59147710 0.76997679
0.96105587 0.63783175 0.80164009
0.96690482 0.68763852 0.83469349
0.97289526 0.73927897 0.86761552
0.97881275 0.79113483 0.89888477
0.98444265 0.84158784 0.92697972
0.98957050 0.88901955 0.95037895
0.99398178 0.93181175 0.96756101
0.99746186 0.96834600 0.97700447
0.96668583 0.68576378 0.83347046
0.97267485 0.73736542 0.86642432
0.97859883 0.78924209 0.89778131
0.98424309 0.83977532 0.92602003
0.98939323 0.88734686 0.94961900
0.99383467 0.93033838 0.96705669
0.99735284 0.96713161 0.97681177
0.99973315 0.99610811 0.97736275
0.99979341 1.00000000 0.95868415
0.97838449 0.78734744 0.89667362
0.98404294 0.83795881 0.92505401
0.98921502 0.88566798 0.94885063
0.99368632 0.92885667 0.96654201
0.99724221 0.96590656 0.97660667
0.99966824 0.99519932 0.97752321
0.99981648 1.00000000 0.95959032
0.99877340 1.00000000 0.93134522
0.99696350 1.00000000 0.89657551
0.98903584 0.88398296 0.94807404
0.99353671 0.92736667 0.96601695
0.99713010 0.96467108 0.97638917
0.99960148 0.99427789 0.97766918
0.99983829 1.00000000 0.96048564
0.99882627 1.00000000 0.93250912
0.99704194 1.00000000 0.89795291
0.99463242 1.00000000 0.85831463
0.99174488 1.00000000 0.81509179
0.99701649 0.96342516 0.97615933
0.99953294 0.99334383 0.97780085
0.99985892 1.00000000 0.96136999
0.99887812 1.00000000 0.93366408
0.99711955 1.00000000 0.89932340
0.99473047 1.00000000 0.85984558
0.99185783 1.00000000 0.81672806
0.98864889 0.99839818 0.77146846
0.98525065 0.98747987 0.72556430
0.99987823 1.00000000 0.96224332
0.99892884 1.00000000 0.93481010
0.99719632 1.00000000 0.90068698
0.99482781 1.00000000 0.86137158
0.99197036 1.00000000 0.81836146
0.98877120 0.99876863 0.77315408
0.98537731 0.98790586 0.72724718
0.98193592 0.97591835 0.68213814
0.97859412 0.96360940 0.63932467
0.99727225 1.00000000 0.90204352
0.99492449 1.00000000 0.86289257
0.99208248 1.00000000 0.81999183
0.98889321 0.99913639 0.77483881
0.98550391 0.98833030 0.72893107
0.98206168 0.97636998 0.68376619
0.97871357 0.96405864 0.64084172
0.97560674 0.95219934 0.60165519
0.97288835 0.94159538 0.56770426
0.99219406 1.00000000 0.82161921
0.98901504 0.99950153 0.77652252
0.98563045 0.98875326 0.73061597
0.98218757 0.97682112 0.68539727
0.97883338 0.96450847 0.64236385
0.97571510 0.95261830 0.60301328
0.97297972 0.94195396 0.56884313
0.97077453 0.93331856 0.54135102
0.96924651 0.92751521 0.52203447
0.94812399 0.52914274 0.72643620
0.95261544 0.56673151 0.75279325
0.95780230 0.61033243 0.78294724
0.96347010 0.65832710 0.81537676
0.96940428 0.70909733 0.84856033
0.97539032 0.76102471 0.88097650
0.98121369 0.81249094 0.91110373
0.98665982 0.86187768 0.93742073
0.99151421 0.90756667 0.95840585
0.95760167 0.60864061 0.78178829
0.96325558 0.65650237 0.81416100
0.96918374 0.70719910 0.84734380
0.97517169 0.75911260 0.87981516
0.98100483 0.81062448 0.91005361
0.98646861 0.86011642 0.93653768
0.99134856 0.90597010 0.95774597
0.99543011 0.94656718 0.97215694
0.99849868 0.98028940 0.97824919
0.96896327 0.70530254 0.84612632
0.97495282 0.75719994 0.87865078
0.98079544 0.80875528 0.90899831
0.98627669 0.85835022 0.93564749
0.99118185 0.90436637 0.95707685
0.99529660 0.94518554 0.97176486
0.99840623 0.97918940 0.97819012
1.00000000 1.00000000 0.97243077
0.99948311 1.00000000 0.94867188
0.98058558 0.80688339 0.90793806
0.98608392 0.85657912 0.93475026
0.99101412 0.90275568 0.95639861
0.99516171 0.94379473 0.97136158
0.99831212 0.97807789 0.97811776
1.00000000 1.00000000 0.97314441
0.99951857 1.00000000 0.94968617
0.99816579 1.00000000 0.91877681
0.99610221 1.00000000 0.88191384
0.99084526 0.90113795 0.95571131
0.99502546 0.94239467 0.97094721
0.99821639 0.97695512 0.97803229
1.00000000 1.00000000 0.97384590
0.99955291 1.00000000 0.95069039
0.99822909 1.00000000 0.92002857
0.99618900 1.00000000 0.88335812
0.99357986 1.00000000 0.84217650
0.99054879 1.00000000 0.79798126
0.99811900 0.97582108 0.97793365
1.00000000 1.00000000 0.97453523
0.99958605 1.00000000 0.95168442
0.99829137 1.00000000 0.92127222
0.99627507 1.00000000 0.88479626
0.99368423 1.00000000 0.84375405
0.99066603 1.00000000 0.79964322
0.98736757 0.99441564 0.75396127
0.98393595 0.98298496 0.70820570
0.99961799 1.00000000 0.95266825
0.99835271 1.00000000 0.92250770
0.99636030 1.00000000 0.88622826
0.99378806 1.00000000 0.84532756
0.99078298 1.00000000 0.80130303
0.98749220 0.99481070 0.75565231
0.98406285 0.98342443 0.70987296
0.98064208 0.97121960 0.66546255
0.97737694 0.95899957 0.62391859
0.99644476 1.00000000 0.88765401
0.99389124 1.00000000 0.84689677
0.99089944 1.00000000 0.80296063
0.98761660 0.99520361 0.75734323
0.98418975 0.98386270 0.71154207
0.98076606 0.97167379 0.66705477
0.97749257 0.95944005 0.62537879
0.97451651 0.94796467 0.58801180
0.97198492 0.93805087 0.55645132
0.99101561 1.00000000 0.80461597
0.98774081 0.99559426 0.75903386
0.98431671 0.98429990 0.71321297
0.98089027 0.97212797 0.66865075
0.97760868 0.95988160 0.62684488
0.97461903 0.94836414 0.58929282
0.97206843 0.93837857 0.55749220
0.97010404 0.93072826 0.53294051
0.96887296 0.92621624 0.51713544
0.94974077 0.54266208 0.73594069
0.95452267 0.58273399 0.76392484
0.95991820 0.62820101 0.79512590
0.96571285 0.67744482 0.82802236
0.97169214 0.72884715 0.86109281
0.97764146 0.78078955 0.89281571
0.98334628 0.83165383 0.92166972
0.98859209 0.87982166 0.94613326
0.99316436 0.92367458 0.96468490
0.95971131 0.62645149 0.79393870
0.96549511 0.67558503 0.82679975
0.97147137 0.72693658 0.85989070
0.97742558 0.77888781 0.89169019
0.98314321 0.82982045 0.92067665
0.98840976 0.87811613 0.94532871
0.99301058 0.92215651 0.96412480
0.99673122 0.96032327 0.97554356
0.99935710 0.99099815 0.97806352
0.97125059 0.72502685 0.85868692
0.97720945 0.77698475 0.89056081
0.98293954 0.82798350 0.91967773
0.98822647 0.87640482 0.94451618
0.99285561 0.92063046 0.96355474
0.99661237 0.95904201 0.97527182
0.99928236 0.99002117 0.97814614
0.99992037 1.00000000 0.96433991
0.99904895 1.00000000 0.93758446
0.98273528 0.82614303 0.91867304
0.98804229 0.87468785 0.94369584
0.99269944 0.91909653 0.96297473
0.99649215 0.95775062 0.97498816
0.99920589 0.98903191 0.97821474
0.99993533 1.00000000 0.96517467
0.99909604 1.00000000 0.93869889
0.99745488 1.00000000 0.90534294
0.99515903 1.00000000 0.86660433
0.99254209 0.91755480 0.96238488
0.99637038 0.95644933 0.97469252
0.99912763 0.98803049 0.97826934
0.99994904 1.00000000 0.96599805
0.99914199 1.00000000 0.93980396
0.99752772 1.00000000 0.90667462
0.99525338 1.00000000 0.86810750
0.99246597 1.00000000 0.82560027
0.98931271 1.00000000 0.78065038
0.99904770 0.98701698 0.97831011
0.99996144 1.00000000 0.96681011
0.99918687 1.00000000 0.94089967
0.99759972 1.00000000 0.90799892
0.99534702 1.00000000 0.86960536
0.99257594 1.00000000 0.82721651
0.98943353 1.00000000 0.78232998
0.98606694 0.99020165 0.73644334
0.98262328 0.97837543 0.69105411
0.99923068 1.00000000 0.94198596
0.99767083 1.00000000 0.90931582
0.99544001 1.00000000 0.87109780
0.99268532 1.00000000 0.82882941
0.98955399 1.00000000 0.78400820
0.98619306 0.99061710 0.73813182
0.98274958 0.97882402 0.69269776
0.97937083 0.96651864 0.64920360
0.97620380 0.95450425 0.60914689
0.99553221 1.00000000 0.87258470
0.99279428 1.00000000 0.83043879
0.98967415 1.00000000 0.78568500
0.98631907 0.99103081 0.73982090
0.98287606 0.97927183 0.69434404
0.97949225 0.96697110 0.65075201
0.97631484 0.95493180 0.61054230
0.97349083 0.94395703 0.57521254
0.97116745 0.93485004 0.54626024
0.98979402 1.00000000 0.78736031
0.98644495 0.99144268 0.74151051
0.98300254 0.97971898 0.69599289
0.97961402 0.96742392 0.65230495
0.97642636 0.95536077 0.61194426
0.97358680 0.94433260 0.57640845
0.97124237 0.93514270 0.54719502
0.96954018 0.92859417 0.52580148
0.96862745 0.92549020 0.51372552
