NT2025 Map/NT2025 Map.cube
# VEGAS Pro LUT
TITLE "NT2025 Map"
LUT_3D_SIZE 9
0.00000000 0.00000000 0.00000000
0.02826109 0.02515916 0.02826109
0.08028734 0.06888200 0.08028734
0.15179318 0.12838660 0.15179318
0.23849307 0.20089100 0.23849307
0.33610144 0.28361329 0.33610144
0.44033277 0.37377149 0.44033277
0.54690146 0.46858367 0.54690146
0.65152204 0.56526792 0.65152204
0.07800195 0.06697682 0.07800195
0.14886709 0.12595010 0.14886709
0.23508392 0.19802555 0.23508392
0.33236691 0.28042120 0.33236691
0.43643051 0.37035513 0.43643051
0.54298913 0.46504539 0.54298913
0.64775729 0.56171006 0.64775729
0.74644941 0.65756720 0.74644941
0.83477986 0.74983484 0.83477986
0.23168975 0.19517405 0.23168975
0.32864156 0.27723932 0.32864156
0.43253165 0.36694524 0.43253165
0.53907442 0.46150979 0.53907442
0.64398438 0.55815113 0.64398438
0.74297589 0.65408725 0.74297589
0.83176351 0.74653620 0.83176351
0.90606165 0.83271611 0.90606165
0.96158469 0.90984499 0.96158469
0.42863634 0.36354190 0.42863634
0.53515750 0.45797700 0.53515750
0.64020342 0.55459124 0.64020342
0.73948866 0.65060258 0.73948866
0.82872754 0.74322915 0.82872754
0.90363467 0.82968897 0.90363467
0.95992434 0.90720010 0.95992434
0.99331111 0.97298062 0.99331111
0.98503280 1.00000000 0.98503280
0.63641471 0.55103052 0.63641471
0.73598778 0.64711332 0.73598778
0.82567221 0.73991370 0.82567221
0.90118247 0.82664967 0.90118247
0.95823306 0.90453935 0.95823306
0.99253833 0.97080070 0.99253833
0.98631096 1.00000000 0.98631096
0.94131231 1.00000000 0.94131231
0.87746108 1.00000000 0.87746108
0.82259768 0.73659003 0.82259768
0.89870536 0.82359844 0.89870536
0.95651096 0.90186280 0.95651096
0.99172896 0.96860129 0.99172896
0.98755854 1.00000000 0.98755854
0.94332469 1.00000000 0.94332469
0.88010085 1.00000000 0.88010085
0.80162084 1.00000000 0.80162084
0.71161830 1.00000000 0.71161830
0.95475829 0.89917070 0.95475829
0.99088317 0.96638250 0.99088317
0.98877537 1.00000000 0.98877537
0.94531131 1.00000000 0.94531131
0.88271999 1.00000000 0.88271999
0.80473506 1.00000000 0.80473506
0.71509033 1.00000000 0.71509033
0.61751944 1.00000000 0.61751944
0.51575607 1.00000000 0.51575607
0.98996121 1.00000000 0.98996121
0.94727206 1.00000000 0.94727206
0.88531828 1.00000000 0.88531828
0.80783355 1.00000000 0.80783355
0.71855158 1.00000000 0.71855158
0.62120610 1.00000000 0.62120610
0.51953089 1.00000000 0.51953089
0.41725954 1.00000000 0.41725954
0.31812587 1.00000000 0.31812587
0.88789558 1.00000000 0.88789558
0.81091607 1.00000000 0.81091607
0.72200197 1.00000000 0.72200197
0.62488699 1.00000000 0.62488699
0.52330488 1.00000000 0.52330488
0.42098930 1.00000000 0.42098930
0.32167405 1.00000000 0.32167405
0.22909279 1.00000000 0.22909279
0.14697926 1.00000000 0.14697926
0.00769924 0.00722578 0.00769924
0.04552678 0.03979087 0.04552678
0.10548552 0.08985897 0.10548552
0.18328990 0.15464815 0.18328990
0.27465436 0.23137647 0.27465436
0.37529337 0.31726199 0.37529337
0.48092136 0.40952274 0.48092136
0.58725280 0.50537682 0.58725280
0.69000208 0.60204232 0.69000208
0.10293725 0.08773914 0.10293725
0.18016103 0.15203604 0.18016103
0.27110258 0.22837441 0.27110258
0.37147629 0.31397232 0.37147629
0.47699666 0.40604785 0.47699666
0.58337814 0.50181901 0.58337814
0.68633515 0.59850395 0.68633515
0.78158212 0.69332063 0.78158212
0.86483353 0.78348714 0.86483353
0.26756352 0.22538488 0.26756352
0.36766618 0.31069145 0.36766618
0.47307315 0.40257794 0.47307315
0.57949889 0.49826244 0.57949889
0.68265778 0.59496301 0.68265778
0.77826434 0.68989772 0.77826434
0.86203301 0.78028464 0.86203301
0.92967826 0.86334175 0.92967826
0.97691441 0.93628722 0.97691441
0.46915102 0.39911318 0.46915102
0.57561517 0.49470726 0.57561517
0.67897022 0.59141976 0.67897022
0.77493054 0.68646872 0.77493054
0.85921067 0.77707219 0.85921067
0.92752498 0.86044830 0.92752498
0.97558796 0.93381500 0.97558796
0.99911398 0.99439049 0.99911398
0.97003156 1.00000000 0.97003156
0.67527264 0.58787417 0.67527264
0.77158093 0.68303365 0.77158093
0.85636669 0.77384996 0.85636669
0.92534429 0.85754126 0.92534429
0.97422826 0.93132550 0.97422826
0.99873292 0.99242085 0.99873292
0.97161561 1.00000000 0.97161561
0.91898859 1.00000000 0.91898859
0.84893262 1.00000000 0.84893262
0.85350132 0.77061814 0.85350132
0.92313647 0.85462081 0.92313647
0.97283554 0.92881882 0.97283554
0.99831307 0.99043030 0.99831307
0.97317094 1.00000000 0.97317094
0.92125636 1.00000000 0.92125636
0.85177547 1.00000000 0.85177547
0.76846182 1.00000000 0.76846182
0.67504930 1.00000000 0.67504930
0.97141004 0.92629510 0.97141004
0.99785459 0.98841888 0.99785459
0.97469753 1.00000000 0.97469753
0.92350042 1.00000000 0.92350042
0.85459954 1.00000000 0.85459954
0.77172869 1.00000000 0.77172869
0.67862153 1.00000000 0.67862153
0.57901174 1.00000000 0.57901174
0.47663313 1.00000000 0.47663313
0.97619504 1.00000000 0.97619504
0.92572045 1.00000000 0.92572045
0.85740477 1.00000000 0.85740477
0.77498168 1.00000000 0.77498168
0.68218493 1.00000000 0.68218493
0.58274823 1.00000000 0.58274823
0.48040533 1.00000000 0.48040533
0.37888992 1.00000000 0.37888992
0.28193569 1.00000000 0.28193569
0.86019087 1.00000000 0.86019087
0.77822059 1.00000000 0.77822059
0.68573934 1.00000000 0.68573934
0.58648080 1.00000000 0.58648080
0.48417866 1.00000000 0.48417866
0.38256663 1.00000000 0.38256663
0.28537846 1.00000000 0.28537846
0.19634785 1.00000000 0.19634785
0.11920850 1.00000000 0.11920850
0.01923862 0.01740034 0.01923862
0.06600963 0.05696695 0.06600963
0.13327788 0.11297591 0.13327788
0.21675782 0.18264526 0.21675782
0.31216389 0.26319310 0.31216389
0.41521052 0.35183743 0.41521052
0.52161217 0.44579637 0.52161217
0.62708336 0.54228795 0.62708336
0.72733843 0.63853025 0.72733843
0.13048965 0.11065631 0.13048965
0.21344911 0.17987241 0.21344911
0.30849233 0.26006931 0.30849233
0.41133383 0.34846509 0.41133383
0.51768798 0.44227779 0.51768798
0.62326932 0.53872550 0.62326932
0.72379220 0.63502622 0.72379220
0.81497109 0.72839808 0.81497109
0.89252049 0.81605911 0.89252049
0.30483136 0.25695661 0.30483136
0.40746188 0.34510005 0.40746188
0.51376277 0.43876275 0.51376277
0.61944842 0.53516281 0.61944842
0.72023332 0.63151824 0.72023332
0.81183195 0.72504711 0.81183195
0.88995868 0.81296754 0.88995868
0.95032805 0.89249754 0.95032805
0.98865438 0.96085513 0.98865438
0.50983667 0.43525144 0.50983667
0.61562091 0.53160006 0.61562091
0.71666205 0.62800646 0.71666205
0.80867457 0.72168863 0.80867457
0.88737285 0.80986464 0.88737285
0.94847143 0.88975257 0.94847143
0.98768467 0.95857054 0.98768467
0.99273968 1.00000000 0.99273968
0.95197397 1.00000000 0.95197397
0.71307856 0.62449092 0.71307856
0.80549914 0.71832263 0.80549914
0.88476318 0.80675054 0.88476318
0.94658518 0.88699269 0.94658518
0.98667949 0.95626718 0.98667949
0.99381727 1.00000000 0.99381727
0.95384389 1.00000000 0.95384389
0.89413130 1.00000000 0.89413130
0.81841332 1.00000000 0.81841332
0.88212991 0.80362535 0.88212991
0.94466949 0.88421792 0.94466949
0.98563910 0.95394516 0.98563910
0.99486303 1.00000000 0.99486303
0.95568705 1.00000000 0.95568705
0.89663452 1.00000000 0.89663452
0.82143921 1.00000000 0.82143921
0.73383474 1.00000000 0.73383474
0.63755494 1.00000000 0.63755494
0.98456371 0.95160472 0.98456371
0.99587691 1.00000000 0.99587691
0.95750338 1.00000000 0.95750338
0.89911592 1.00000000 0.89911592
0.82444829 1.00000000 0.82444829
0.73723423 1.00000000 0.73723423
0.64120746 1.00000000 0.64120746
0.54010159 1.00000000 0.54010159
0.43765044 1.00000000 0.43765044
0.95929253 1.00000000 0.95929253
0.90157527 1.00000000 0.90157527
0.82744044 1.00000000 0.82744044
0.74062181 1.00000000 0.74062181
0.64485306 1.00000000 0.64485306
0.54386789 1.00000000 0.54386789
0.44140008 1.00000000 0.44140008
0.34118330 1.00000000 0.34118330
0.24695131 1.00000000 0.24695131
0.83041543 1.00000000 0.83041543
0.74399722 1.00000000 0.74399722
0.64849162 1.00000000 0.64849162
0.54763222 1.00000000 0.54763222
0.44515279 1.00000000 0.44515279
0.34478703 1.00000000 0.34478703
0.25026870 1.00000000 0.25026870
0.16533148 1.00000000 0.16533148
0.09370910 1.00000000 0.09370910
0.03438061 0.03036948 0.03438061
0.08947212 0.07653321 0.08947212
0.16342689 0.13807862 0.16342689
0.25195941 0.21222375 0.25195941
0.35078409 0.29618669 0.35078409
0.45561540 0.38718545 0.45561540
0.56216776 0.48243815 0.56216776
0.66615564 0.57916284 0.66615564
0.76329350 0.67457753 0.76329350
0.16042162 0.13557413 0.16042162
0.24849376 0.20930502 0.24849376
0.34701574 0.29295605 0.34701574
0.45170200 0.38374528 0.45170200
0.55826700 0.47889075 0.55826700
0.66242516 0.57561058 0.66242516
0.75989091 0.67112273 0.75989091
0.84637880 0.76264536 0.84637880
0.91760319 0.84739643 0.91760319
0.34325573 0.28973508 0.34325573
0.44779113 0.38031098 0.44779113
0.55436295 0.47534549 0.55436295
0.65868556 0.57205665 0.65868556
0.75647348 0.66766256 0.75647348
0.84344119 0.75938123 0.84344119
0.91530305 0.84443074 0.91530305
0.96777350 0.92002916 0.96777350
0.99656707 0.98339456 0.99656707
0.55045581 0.47180250 0.55045581
0.65493715 0.56850129 0.65493715
0.75304145 0.66419715 0.75304145
0.84048313 0.75610811 0.84048313
0.91297662 0.84145224 0.91297662
0.96623641 0.91744769 0.96623641
0.99597698 0.98131239 0.99597698
0.97974658 1.00000000 0.97974658
0.93106687 1.00000000 0.93106687
0.74959493 0.66072655 0.74959493
0.83750480 0.75282609 0.83750480
0.91062415 0.83846110 0.91062415
0.96466750 0.91484976 0.96466750
0.99534923 0.97921002 0.99534923
0.98114246 1.00000000 0.98114246
0.93320268 1.00000000 0.93320268
0.86694735 1.00000000 0.86694735
0.78611004 1.00000000 0.78611004
0.90824592 0.83545744 0.90824592
0.96306694 0.91223556 0.96306694
0.99468410 0.97708768 0.99468410
0.98250848 1.00000000 0.98250848
0.93531376 1.00000000 0.93531376
0.86966604 1.00000000 0.86966604
0.78929907 1.00000000 0.78929907
0.69794655 1.00000000 0.69794655
0.59934223 1.00000000 0.59934223
0.99398172 0.97494537 0.99398172
0.98384446 1.00000000 0.98384446
0.93739980 1.00000000 0.93739980
0.87236482 1.00000000 0.87236482
0.79247326 1.00000000 0.79247326
0.70145869 1.00000000 0.70145869
0.60305500 1.00000000 0.60305500
0.50099587 1.00000000 0.50099587
0.39901492 1.00000000 0.39901492
0.93946075 1.00000000 0.93946075
0.87504351 1.00000000 0.87504351
0.79563230 1.00000000 0.79563230
0.70496088 1.00000000 0.70496088
0.60676283 1.00000000 0.60676283
0.50477201 1.00000000 0.50477201
0.40272206 1.00000000 0.40272206
0.30434671 1.00000000 0.30434671
0.21337968 1.00000000 0.21337968
0.79877615 1.00000000 0.79877615
0.70845282 1.00000000 0.70845282
0.61046553 1.00000000 0.61046553
0.50854808 1.00000000 0.50854808
0.40643418 1.00000000 0.40643418
0.30785748 1.00000000 0.30785748
0.21655174 1.00000000 0.21655174
0.13625067 1.00000000 0.13625067
0.07068801 1.00000000 0.07068801
0.05288769 0.04597902 0.05288769
0.11567670 0.09833547 0.11567670
0.19569504 0.16501293 0.19569504
0.28865713 0.24322943 0.28865713
0.39027748 0.33020306 0.39027748
0.49627045 0.42315188 0.49627045
0.60235053 0.51929390 0.60235053
0.70423222 0.61584723 0.70423222
0.79762989 0.71002996 0.79762989
0.19249564 0.16233842 0.19249564
0.28505749 0.24017972 0.28505749
0.38643521 0.32688046 0.38643521
0.49234325 0.41965872 0.49234325
0.59849608 0.51573259 0.59849608
0.70060813 0.61232007 0.70060813
0.79439384 0.70663929 0.79439384
0.87556767 0.79590827 0.87556767
0.93984407 0.87734509 0.93984407
0.38259909 0.32356608 0.38259909
0.48841640 0.41617006 0.48841640
0.59463614 0.51217198 0.59463614
0.69697279 0.60878986 0.69697279
0.79114074 0.70324183 0.79114074
0.87285453 0.79274589 0.87285453
0.93782848 0.87452006 0.93782848
0.98177713 0.94578254 0.98177713
0.99822873 1.00000000 0.99822873
0.59077096 0.50861216 0.59077096
0.69332641 0.60525668 0.69332641
0.78787082 0.69983763 0.78787082
0.87011868 0.78957301 0.87011868
0.93578440 0.87168092 0.93578440
0.98058248 0.94337934 0.98058248
0.99913079 1.00000000 0.99913079
0.96356821 1.00000000 0.96356821
0.90751725 1.00000000 0.90751725
0.78458422 0.69642687 0.78458422
0.86736041 0.78638983 0.86736041
0.93371212 0.86882758 0.93371212
0.97935385 0.94095832 0.97935385
1.00000000 1.00000000 1.00000000
0.96526241 1.00000000 0.96526241
0.90989906 1.00000000 0.90989906
0.83764362 1.00000000 0.83764362
0.75222987 1.00000000 0.75222987
0.93161178 0.86596036 0.93161178
0.97809136 0.93851954 0.97809136
0.99973297 0.99809206 0.99973297
0.96692872 1.00000000 0.96692872
0.91225797 1.00000000 0.91225797
0.84055787 1.00000000 0.84055787
0.75556201 1.00000000 0.75556201
0.66100419 1.00000000 0.66100419
0.56061810 1.00000000 0.56061810
0.99942660 0.99616277 0.99942660
0.96856689 1.00000000 0.96856689
0.91459388 1.00000000 0.91459388
0.84345406 1.00000000 0.84345406
0.75888127 1.00000000 0.75888127
0.66460907 1.00000000 0.66460907
0.56437123 1.00000000 0.56437123
0.46190149 1.00000000 0.46190149
0.36093357 1.00000000 0.36093357
0.91690654 1.00000000 0.91690654
0.84633213 1.00000000 0.84633213
0.76218736 1.00000000 0.76218736
0.66820580 1.00000000 0.66820580
0.56812131 1.00000000 0.56812131
0.46566755 1.00000000 0.46566755
0.36457822 1.00000000 0.36457822
0.26858702 1.00000000 0.26858702
0.18142773 1.00000000 0.18142773
0.76548010 1.00000000 0.76548010
0.67179435 1.00000000 0.67179435
0.57186818 1.00000000 0.57186818
0.46943542 1.00000000 0.46943542
0.36822975 1.00000000 0.36822975
0.27198488 1.00000000 0.27198488
0.18443449 1.00000000 0.18443449
0.10931236 1.00000000 0.10931236
0.05035216 1.00000000 0.05035216
0.07452234 0.06407478 0.07452234
0.14438587 0.12221954 0.14438587
0.22984478 0.19362463 0.22984478
0.32661349 0.27550811 0.32661349
0.43040648 0.36508805 0.43040648
0.53693819 0.45958248 0.53693819
0.64192301 0.55620944 0.64192301
0.74107546 0.65218711 0.74107546
0.83010995 0.74473339 0.83010995
0.22647418 0.19079500 0.22647418
0.32290274 0.27234226 0.32290274
0.42651325 0.36168835 0.42651325
0.53302014 0.45605126 0.53302014
0.63813782 0.55264908 0.63813782
0.73758072 0.64869988 0.73758072
0.82706338 0.74142170 0.82706338
0.90230024 0.82803267 0.90230024
0.95900565 0.90575075 0.95900565
0.42262393 0.35829544 0.42262393
0.52910018 0.45252308 0.52910018
0.63434488 0.54908800 0.63434488
0.73407257 0.64520818 0.73407257
0.82399756 0.73810178 0.82399756
0.89983439 0.82498682 0.89983439
0.95729750 0.90308136 0.95729750
0.99210137 0.96960342 0.99210137
0.98699522 1.00000000 0.98699522
0.63054454 0.54552627 0.63054454
0.73055106 0.64171213 0.73055106
0.82091266 0.73477376 0.82091266
0.89734375 0.82192910 0.89734375
0.95555872 0.90039629 0.95555872
0.99127209 0.96739346 0.99127209
0.98822606 1.00000000 0.98822606
0.94441152 1.00000000 0.94441152
0.88153207 1.00000000 0.88153207
0.81780893 0.73143768 0.81780893
0.89482838 0.81885964 0.89482838
0.95378947 0.89769578 0.95378947
0.99040663 0.96516412 0.99040663
0.98942602 1.00000000 0.98942602
0.94638407 1.00000000 0.94638407
0.88413984 1.00000000 0.88413984
0.80642712 1.00000000 0.80642712
0.71697962 1.00000000 0.71697962
0.95199001 0.89497983 0.95199001
0.98950505 0.96291572 0.98950505
0.99059498 1.00000000 0.99059498
0.94833064 1.00000000 0.94833064
0.88672668 1.00000000 0.88672668
0.80951691 1.00000000 0.80951691
0.72043496 1.00000000 0.72043496
0.62321460 1.00000000 0.62321460
0.52158952 1.00000000 0.52158952
0.99173266 1.00000000 0.99173266
0.95025104 1.00000000 0.95025104
0.88929242 1.00000000 0.88929242
0.81259060 1.00000000 0.81259060
0.72387928 1.00000000 0.72387928
0.62689215 1.00000000 0.62689215
0.52536297 1.00000000 0.52536297
0.42302546 1.00000000 0.42302546
0.32361329 1.00000000 0.32361329
0.89183682 1.00000000 0.89183682
0.81564808 1.00000000 0.81564808
0.72731239 1.00000000 0.72731239
0.63056362 1.00000000 0.63056362
0.52913535 1.00000000 0.52913535
0.42676142 1.00000000 0.42676142
0.32717547 1.00000000 0.32717547
0.23411122 1.00000000 0.23411122
0.15130243 1.00000000 0.15130243
0.73073411 1.00000000 0.73073411
0.63422871 1.00000000 0.63422871
0.53290647 1.00000000 0.53290647
0.43050113 1.00000000 0.43050113
0.33074647 1.00000000 0.33074647
0.23737615 1.00000000 0.23737615
0.15412390 1.00000000 0.15412390
0.08472345 1.00000000 0.08472345
0.03290850 1.00000000 0.03290850
0.09904702 0.08450255 0.09904702
0.17536211 0.14803123 0.17536211
0.26563859 0.22375956 0.26563859
0.36559096 0.30890560 0.36559096
0.47093362 0.40068743 0.47093362
0.57738101 0.49632308 0.57738101
0.68064761 0.59303063 0.68064761
0.77644789 0.68802810 0.77644789
0.86049622 0.77853364 0.86049622
0.26211971 0.22078967 0.26211971
0.36179203 0.30563852 0.36179203
0.46701232 0.39722550 0.46701232
0.57349503 0.49276868 0.57349503
0.67695457 0.58948606 0.67695457
0.77310544 0.68459576 0.77310544
0.85766208 0.77531582 0.85766208
0.92633891 0.85886431 0.92633891
0.97485042 0.93245924 0.97485042
0.46309274 0.39376897 0.46309274
0.56960493 0.48921588 0.56960493
0.67325163 0.58593935 0.67325163
0.76974732 0.68115747 0.76974732
0.85480642 0.77208835 0.85480642
0.92414337 0.85594994 0.92414337
0.97347265 0.92996037 0.97347265
0.99850869 0.99133766 0.99850869
0.97246754 1.00000000 0.97246754
0.66953897 0.58239061 0.66953897
0.76637369 0.67771339 0.76637369
0.85192949 0.76885128 0.85192949
0.92192078 0.85302222 0.92192078
0.97206205 0.92744434 0.97206205
0.99806774 0.98933572 0.99806774
0.97400719 1.00000000 0.97400719
0.92248333 1.00000000 0.92248333
0.85331821 1.00000000 0.85331821
0.84903145 0.76560479 0.84903145
0.91967130 0.85008132 0.91967130
0.97061878 0.92491144 0.97061878
0.99758834 0.98731309 0.99758834
0.97551793 1.00000000 0.97551793
0.92471433 1.00000000 0.92471433
0.85613203 1.00000000 0.85613203
0.77350479 1.00000000 0.77350479
0.68056631 1.00000000 0.68056631
0.96914303 0.92236161 0.96914303
0.99707067 0.98526984 0.99707067
0.97699958 1.00000000 0.97699958
0.92692119 1.00000000 0.92692119
0.85892683 1.00000000 0.85892683
0.77675015 1.00000000 0.77675015
0.68412483 1.00000000 0.68412483
0.58478469 1.00000000 0.58478469
0.48246339 1.00000000 0.48246339
0.97845191 1.00000000 0.97845191
0.92910385 1.00000000 0.92910385
0.86170244 1.00000000 0.86170244
0.77998132 1.00000000 0.77998132
0.68767428 1.00000000 0.68767428
0.58851504 1.00000000 0.58851504
0.48623726 1.00000000 0.48623726
0.38457465 1.00000000 0.38457465
0.28726101 1.00000000 0.28726101
0.86445862 1.00000000 0.86445862
0.78319824 1.00000000 0.78319824
0.69121450 1.00000000 0.69121450
0.59224117 1.00000000 0.59224117
0.49001193 1.00000000 0.49001193
0.38826057 1.00000000 0.38826057
0.29072076 1.00000000 0.29072076
0.20112622 1.00000000 0.20112622
0.12321068 1.00000000 0.12321068
0.69474518 1.00000000 0.69474518
0.59596282 1.00000000 0.59596282
0.49378726 1.00000000 0.49378726
0.39195216 1.00000000 0.39195216
0.29419127 1.00000000 0.29419127
0.20423828 1.00000000 0.20423828
0.12582693 1.00000000 0.12582693
0.06269091 1.00000000 0.06269091
0.01856396 1.00000000 0.01856396
0.12622422 0.10710816 0.12622422
0.20836787 0.17561635 0.20836787
0.30283898 0.25526351 0.30283898
0.40535200 0.34326771 0.40535200
0.51162136 0.43684703 0.51162136
0.61736149 0.53321952 0.61736149
0.71828687 0.62960315 0.71828687
0.81011200 0.72321612 0.81011200
0.88855124 0.81127644 0.88855124
0.29919472 0.25216824 0.29919472
0.40148783 0.33991429 0.40148783
0.50769490 0.43333778 0.50769490
0.61353046 0.52965677 0.61353046
0.71470892 0.62608933 0.71470892
0.80694473 0.71985352 0.80694473
0.88595235 0.80816740 0.88595235
0.94744623 0.88824904 0.94744623
0.98714077 0.95731646 0.98714077
0.50376797 0.42983246 0.50376797
0.60969311 0.52609420 0.60969311
0.71111882 0.62257189 0.71111882
0.80375957 0.71648353 0.80375957
0.88332975 0.80504721 0.88332975
0.94554389 0.88548100 0.94554389
0.98611635 0.95500290 0.98611635
0.99439162 1.00000000 0.99439162
0.95485258 1.00000000 0.95485258
0.70751685 0.61905098 0.70751685
0.80055672 0.71310633 0.80055672
0.88068372 0.80191606 0.88068372
0.94361228 0.88269818 0.94361228
0.98505682 0.95267087 0.98505682
0.99542004 1.00000000 0.99542004
0.95668113 1.00000000 0.95668113
0.89799076 1.00000000 0.89799076
0.82308263 1.00000000 0.82308263
0.87801439 0.79877400 0.87801439
0.94165158 0.87990075 0.94165158
0.98396248 0.95032036 0.98396248
0.99641633 1.00000000 0.99641633
0.95848262 1.00000000 0.95848262
0.90046012 1.00000000 0.90046012
0.82608253 1.00000000 0.82608253
0.73908347 1.00000000 0.73908347
0.64319682 1.00000000 0.64319682
0.98283345 0.94795167 0.98283345
0.99738044 1.00000000 0.99738044
0.96025699 1.00000000 0.96025699
0.90290737 1.00000000 0.90290737
0.82906526 1.00000000 0.82906526
0.74246448 1.00000000 0.74246448
0.64683861 1.00000000 0.64683861
0.54592144 1.00000000 0.54592144
0.44344664 1.00000000 0.44344664
0.96200395 1.00000000 0.96200395
0.90533233 1.00000000 0.90533233
0.83203083 1.00000000 0.83203083
0.74583322 1.00000000 0.74583322
0.65047324 1.00000000 0.65047324
0.54968452 1.00000000 0.54968452
0.44720092 1.00000000 0.44720092
0.34675607 1.00000000 0.34675607
0.25208369 1.00000000 0.25208369
0.83497888 1.00000000 0.83497888
0.74918956 1.00000000 0.74918956
0.65410048 1.00000000 0.65410048
0.55344540 1.00000000 0.55344540
0.45095795 1.00000000 0.45095795
0.35037196 1.00000000 0.35037196
0.25542104 1.00000000 0.25542104
0.16983896 1.00000000 0.16983896
0.09735944 1.00000000 0.09735944
0.65772021 1.00000000 0.65772021
0.55720377 1.00000000 0.55720377
0.45471758 1.00000000 0.45471758
0.35399544 1.00000000 0.35399544
0.25877109 1.00000000 0.25877109
0.17277819 1.00000000 0.17277819
0.09975047 1.00000000 0.09975047
0.04342166 1.00000000 0.04342166
0.00752548 1.00000000 0.00752548
0.15581642 0.13173743 0.15581642
0.24316566 0.20482071 0.24316566
0.34120840 0.28798231 0.34120840
0.44565907 0.37844026 0.44565907
0.55223215 0.47341266 0.55223215
0.65664208 0.57011753 0.65664208
0.75460327 0.66577297 0.75460327
0.84183019 0.75759703 0.84183019
0.91403729 0.84280771 0.91403729
0.33746168 0.28477654 0.33746168
0.44175255 0.37501538 0.44175255
0.54832351 0.46987095 0.54832351
0.65288889 0.56656140 0.65288889
0.75116330 0.66230470 0.75116330
0.83886105 0.75431901 0.83886105
0.91169667 0.83982229 0.91169667
0.96538460 0.91603267 0.96538460
0.99563920 0.98016816 0.99563920
0.54441214 0.46633175 0.54441214
0.64912724 0.56300396 0.64912724
0.74770898 0.65883142 0.74770898
0.83587182 0.75103217 0.83587182
0.90933013 0.83682430 0.90933013
0.96379840 0.91342586 0.96379840
0.99499106 0.97805482 0.99499106
0.98189127 1.00000000 0.98189127
0.93435729 1.00000000 0.93435729
0.74424058 0.65535325 0.74424058
0.83286268 0.74773669 0.83286268
0.90693784 0.83381385 0.90693784
0.96218067 0.91080284 0.96218067
0.99430555 0.97592157 0.99430555
0.98324096 1.00000000 0.98324096
0.93645471 1.00000000 0.93645471
0.87114060 1.00000000 0.87114060
0.79103231 1.00000000 0.79103231
0.90452009 0.83079112 0.90452009
0.96053171 0.90816373 0.96053171
0.99358302 0.97376847 0.99358302
0.98456049 1.00000000 0.98456049
0.93852711 1.00000000 0.93852711
0.87382847 1.00000000 0.87382847
0.79419827 1.00000000 0.79419827
0.70337021 1.00000000 0.70337021
0.60507810 1.00000000 0.60507810
0.99282360 0.97159570 0.99282360
0.98584968 1.00000000 0.98584968
0.94057417 1.00000000 0.94057417
0.87649608 1.00000000 0.87649608
0.79734904 1.00000000 0.79734904
0.70686686 1.00000000 0.70686686
0.60878319 1.00000000 0.60878319
0.50683171 1.00000000 0.50683171
0.40474623 1.00000000 0.40474623
0.94259584 1.00000000 0.94259584
0.87914330 1.00000000 0.87914330
0.80048454 1.00000000 0.80048454
0.71035314 1.00000000 0.71035314
0.61248296 1.00000000 0.61248296
0.51060766 1.00000000 0.51060766
0.40846097 1.00000000 0.40846097
0.30977660 1.00000000 0.30977660
0.21828824 1.00000000 0.21828824
0.80360442 1.00000000 0.80360442
0.71382904 1.00000000 0.71382904
0.61617738 1.00000000 0.61617738
0.51438326 1.00000000 0.51438326
0.41218039 1.00000000 0.41218039
0.31330249 1.00000000 0.31330249
0.22148325 1.00000000 0.22148325
0.14045639 1.00000000 0.14045639
0.07395565 1.00000000 0.07395565
0.61986619 1.00000000 0.61986619
0.51815832 1.00000000 0.51815832
0.41590431 1.00000000 0.41590431
0.31683794 1.00000000 0.31683794
0.22469285 1.00000000 0.22469285
0.14320281 1.00000000 0.14320281
0.07610150 1.00000000 0.07610150
0.02712266 1.00000000 0.02712266
0.00000000 1.00000000 0.00000000
