NT2025 Map/NT2025 Map.cube
# VEGAS Pro LUT
TITLE "NT2025 Map"
LUT_3D_SIZE 5
0.00000000 0.00000000 0.00000000
0.08028734 0.06888200 0.08028734
0.23849307 0.20089100 0.23849307
0.44033277 0.37377149 0.44033277
0.65152204 0.56526792 0.65152204
0.23168975 0.19517405 0.23168975
0.43253165 0.36694524 0.43253165
0.64398438 0.55815113 0.64398438
0.83176351 0.74653620 0.83176351
0.96158469 0.90984499 0.96158469
0.63641471 0.55103052 0.63641471
0.82567221 0.73991370 0.82567221
0.95823306 0.90453935 0.95823306
0.98631096 1.00000000 0.98631096
0.87746108 1.00000000 0.87746108
0.95475829 0.89917070 0.95475829
0.98877537 1.00000000 0.98877537
0.88271999 1.00000000 0.88271999
0.71509033 1.00000000 0.71509033
0.51575607 1.00000000 0.51575607
0.88789558 1.00000000 0.88789558
0.72200197 1.00000000 0.72200197
0.52330488 1.00000000 0.52330488
0.32167405 1.00000000 0.32167405
0.14697926 1.00000000 0.14697926
0.01923862 0.01740034 0.01923862
0.13327788 0.11297591 0.13327788
0.31216389 0.26319310 0.31216389
0.52161217 0.44579637 0.52161217
0.72733843 0.63853025 0.72733843
0.30483136 0.25695661 0.30483136
0.51376277 0.43876275 0.51376277
0.72023332 0.63151824 0.72023332
0.88995868 0.81296754 0.88995868
0.98865438 0.96085513 0.98865438
0.71307856 0.62449092 0.71307856
0.88476318 0.80675054 0.88476318
0.98667949 0.95626718 0.98667949
0.95384389 1.00000000 0.95384389
0.81841332 1.00000000 0.81841332
0.98456371 0.95160472 0.98456371
0.95750338 1.00000000 0.95750338
0.82444829 1.00000000 0.82444829
0.64120746 1.00000000 0.64120746
0.43765044 1.00000000 0.43765044
0.83041543 1.00000000 0.83041543
0.64849162 1.00000000 0.64849162
0.44515279 1.00000000 0.44515279
0.25026870 1.00000000 0.25026870
0.09370910 1.00000000 0.09370910
0.05288769 0.04597902 0.05288769
0.19569504 0.16501293 0.19569504
0.39027748 0.33020306 0.39027748
0.60235053 0.51929390 0.60235053
0.79762989 0.71002996 0.79762989
0.38259909 0.32356608 0.38259909
0.59463614 0.51217198 0.59463614
0.79114074 0.70324183 0.79114074
0.93782848 0.87452006 0.93782848
0.99822873 1.00000000 0.99822873
0.78458422 0.69642687 0.78458422
0.93371212 0.86882758 0.93371212
1.00000000 1.00000000 1.00000000
0.90989906 1.00000000 0.90989906
0.75222987 1.00000000 0.75222987
0.99942660 0.99616277 0.99942660
0.91459388 1.00000000 0.91459388
0.75888127 1.00000000 0.75888127
0.56437123 1.00000000 0.56437123
0.36093357 1.00000000 0.36093357
0.76548010 1.00000000 0.76548010
0.57186818 1.00000000 0.57186818
0.36822975 1.00000000 0.36822975
0.18443449 1.00000000 0.18443449
0.05035216 1.00000000 0.05035216
0.09904702 0.08450255 0.09904702
0.26563859 0.22375956 0.26563859
0.47093362 0.40068743 0.47093362
0.68064761 0.59303063 0.68064761
0.86049622 0.77853364 0.86049622
0.46309274 0.39376897 0.46309274
0.67325163 0.58593935 0.67325163
0.85480642 0.77208835 0.85480642
0.97347265 0.92996037 0.97347265
0.97246754 1.00000000 0.97246754
0.84903145 0.76560479 0.84903145
0.97061878 0.92491144 0.97061878
0.97551793 1.00000000 0.97551793
0.85613203 1.00000000 0.85613203
0.68056631 1.00000000 0.68056631
0.97845191 1.00000000 0.97845191
0.86170244 1.00000000 0.86170244
0.68767428 1.00000000 0.68767428
0.48623726 1.00000000 0.48623726
0.28726101 1.00000000 0.28726101
0.69474518 1.00000000 0.69474518
0.49378726 1.00000000 0.49378726
0.29419127 1.00000000 0.29419127
0.12582693 1.00000000 0.12582693
0.01856396 1.00000000 0.01856396
0.15581642 0.13173743 0.15581642
0.34120840 0.28798231 0.34120840
0.55223215 0.47341266 0.55223215
0.75460327 0.66577297 0.75460327
0.91403729 0.84280771 0.91403729
0.54441214 0.46633175 0.54441214
0.74770898 0.65883142 0.74770898
0.90933013 0.83682430 0.90933013
0.99499106 0.97805482 0.99499106
0.93435729 1.00000000 0.93435729
0.90452009 0.83079112 0.90452009
0.99358302 0.97376847 0.99358302
0.93852711 1.00000000 0.93852711
0.79419827 1.00000000 0.79419827
0.60507810 1.00000000 0.60507810
0.94259584 1.00000000 0.94259584
0.80048454 1.00000000 0.80048454
0.61248296 1.00000000 0.61248296
0.40846097 1.00000000 0.40846097
0.21828824 1.00000000 0.21828824
0.61986619 1.00000000 0.61986619
0.41590431 1.00000000 0.41590431
0.22469285 1.00000000 0.22469285
0.07610150 1.00000000 0.07610150
0.00000000 1.00000000 0.00000000
