NT2025 Map/NT2025 Map.cube
# VEGAS Pro LUT
TITLE "NT2025 Map"
LUT_3D_SIZE 33
0.00000000 0.00000000 0.00000000
0.00460292 0.00439731 0.00460292
0.01089206 0.01008525 0.01089206
0.01880043 0.01702035 0.01880043
0.02826109 0.02515916 0.02826109
0.03920707 0.03445819 0.03920707
0.05157142 0.04487399 0.05157142
0.06528716 0.05636308 0.06528716
0.08028734 0.06888200 0.08028734
0.09650499 0.08238728 0.09650499
0.11387315 0.09683546 0.11387315
0.13232487 0.11218305 0.13232487
0.15179318 0.12838660 0.15179318
0.17221111 0.14540264 0.17221111
0.19351171 0.16318770 0.19351171
0.21562803 0.18169831 0.21562803
0.23849307 0.20089100 0.23849307
0.26203990 0.22072232 0.26203990
0.28620154 0.24114878 0.28620154
0.31091106 0.26212692 0.31091106
0.33610144 0.28361329 0.33610144
0.36170578 0.30556437 0.36170578
0.38765708 0.32793677 0.38765708
0.41388839 0.35068697 0.41388839
0.44033277 0.37377149 0.44033277
0.46692321 0.39714688 0.46692321
0.49359280 0.42076972 0.49359280
0.52027452 0.44459647 0.52027452
0.54690146 0.46858367 0.54690146
0.57340664 0.49268791 0.57340664
0.59972310 0.51686567 0.59972310
0.62578386 0.54107350 0.62578386
0.65152204 0.56526792 0.65152204
0.01063158 0.00985363 0.01063158
0.01848157 0.01674362 0.01848157
0.02788632 0.02483891 0.02788632
0.03877884 0.03409604 0.03877884
0.05109219 0.04447152 0.05109219
0.06475940 0.05592190 0.06475940
0.07971351 0.06840370 0.07971351
0.09588756 0.08187346 0.09588756
0.11321458 0.09628771 0.11321458
0.13162762 0.11160299 0.13162762
0.15105972 0.12777582 0.15105972
0.17144391 0.14476274 0.17144391
0.19271322 0.16252027 0.19271322
0.21480070 0.18100497 0.21480070
0.23763938 0.20017335 0.23763938
0.26116231 0.21998192 0.26116231
0.28530255 0.24038726 0.28530255
0.30999306 0.26134589 0.30999306
0.33516696 0.28281432 0.33516696
0.36075726 0.30474910 0.36075726
0.38669699 0.32710674 0.38669699
0.41291919 0.34984380 0.41291919
0.43935689 0.37291682 0.43935689
0.46594316 0.39628229 0.46594316
0.49261102 0.41989675 0.49261102
0.51929349 0.44371679 0.51929349
0.54592365 0.46769887 0.54592365
0.57243448 0.49179956 0.57243448
0.59875906 0.51597542 0.59875906
0.62483042 0.54018289 0.62483042
0.65058160 0.56437856 0.65058160
0.67594564 0.58851898 0.67594564
0.70085561 0.61256069 0.70085561
0.02751355 0.02452024 0.02751355
0.03835253 0.03373539 0.03835253
0.05061479 0.04407050 0.05061479
0.06423339 0.05548210 0.06423339
0.07914133 0.06792673 0.07914133
0.09527169 0.08136092 0.09527169
0.11255749 0.09574120 0.11255749
0.13093176 0.11102410 0.13093176
0.15032755 0.12716615 0.15032755
0.17067789 0.14412388 0.17067789
0.19191583 0.16185383 0.19191583
0.21397440 0.18031254 0.21397440
0.23678663 0.19945654 0.23678663
0.26028559 0.21924235 0.26028559
0.28440428 0.23962650 0.28440428
0.30907574 0.26056552 0.30907574
0.33423305 0.28201598 0.33423305
0.35980922 0.30393437 0.35980922
0.38573727 0.32627723 0.38573727
0.41195026 0.34900111 0.41195026
0.43838122 0.37206250 0.43838122
0.46496323 0.39541799 0.46496323
0.49162924 0.41902408 0.49162924
0.51831239 0.44283733 0.51831239
0.54494566 0.46681422 0.54494566
0.57146204 0.49091130 0.57146204
0.59779465 0.51508516 0.59779465
0.62387657 0.53929228 0.62387657
0.64964068 0.56348914 0.64964068
0.67502016 0.58763236 0.67502016
0.69994801 0.61167848 0.69994801
0.72435725 0.63558394 0.72435725
0.74818087 0.65930533 0.74818087
0.05013923 0.04367094 0.05013923
0.06370911 0.05504371 0.06370911
0.07857081 0.06745110 0.07857081
0.09465738 0.08084965 0.09465738
0.11190186 0.09519590 0.11190186
0.13023727 0.11044636 0.13023727
0.14959666 0.12655757 0.14959666
0.16991308 0.14348607 0.16991308
0.19111955 0.16118839 0.19111955
0.21314912 0.17962106 0.21314912
0.23593481 0.19874060 0.23593481
0.25940970 0.21850358 0.25940970
0.28350675 0.23886648 0.28350675
0.30815908 0.25978586 0.30815908
0.33329970 0.28121826 0.33329970
0.35886163 0.30312023 0.35886163
0.38477793 0.32544824 0.38477793
0.41098163 0.34815887 0.41098163
0.43740577 0.37120864 0.43740577
0.46398339 0.39455408 0.46398339
0.49064752 0.41815171 0.49064752
0.51733118 0.44195807 0.51733118
0.54396749 0.46592972 0.54396749
0.57048941 0.49002317 0.57048941
0.59682995 0.51419497 0.59682995
0.62292224 0.53840160 0.62292224
0.64869928 0.56259966 0.64869928
0.67409408 0.58674562 0.67409408
0.69903970 0.61079603 0.69903970
0.72346920 0.63470745 0.72346920
0.74731559 0.65843642 0.74731559
0.77051187 0.68193942 0.77051187
0.79299116 0.70517302 0.79299116
0.07800195 0.06697682 0.07800195
0.09404464 0.08033968 0.09404464
0.11124770 0.09465182 0.11124770
0.12954417 0.10986979 0.12954417
0.14886709 0.12595010 0.14886709
0.16914947 0.14284931 0.16914947
0.19032438 0.16052392 0.19032438
0.21232486 0.17893049 0.21232486
0.23508392 0.19802555 0.23508392
0.25853461 0.21776561 0.25853461
0.28261000 0.23810722 0.28261000
0.30724308 0.25900692 0.30724308
0.33236691 0.28042120 0.33236691
0.35791454 0.30230665 0.35791454
0.38381898 0.32461977 0.38381898
0.41001329 0.34731707 0.41001329
0.43643051 0.37035513 0.43643051
0.46300367 0.39369047 0.46300367
0.48966581 0.41727960 0.48966581
0.51634997 0.44107908 0.51634997
0.54298913 0.46504539 0.54298913
0.56951648 0.48913515 0.56951648
0.59586489 0.51330483 0.59586489
0.62196749 0.53751093 0.62196749
0.64775729 0.56171006 0.64775729
0.67316735 0.58585870 0.67316735
0.69813073 0.60991347 0.69813073
0.72258037 0.63383073 0.72258037
0.74644941 0.65756720 0.74644941
0.76967078 0.68107927 0.76967078
0.79217768 0.70432359 0.79217768
0.81390303 0.72725654 0.81390303
0.83477986 0.74983484 0.83477986
0.11059503 0.09410897 0.11059503
0.12885246 0.10929438 0.12885246
0.14813879 0.12534374 0.14813879
0.16838707 0.14221360 0.16838707
0.18953034 0.15986046 0.18953034
0.21150163 0.17824087 0.21150163
0.23423398 0.19731136 0.23423398
0.25766042 0.21702847 0.25766042
0.28171399 0.23734872 0.28171399
0.30632773 0.25822863 0.30632773
0.33143470 0.27962476 0.33143470
0.35696793 0.30149364 0.35696793
0.38286042 0.32379180 0.38286042
0.40904528 0.34647575 0.40904528
0.43545547 0.36950204 0.43545547
0.46202406 0.39282721 0.46202406
0.48868412 0.41640779 0.48868412
0.51536864 0.44020027 0.51536864
0.54201072 0.46416125 0.54201072
0.56854331 0.48824722 0.56854331
0.59489948 0.51241469 0.59489948
0.62101233 0.53662026 0.62101233
0.64681482 0.56082040 0.64681482
0.67224002 0.58497173 0.67224002
0.69722098 0.60903066 0.69722098
0.72169077 0.63295376 0.72169077
0.74558234 0.65669763 0.74558234
0.76882875 0.68021876 0.76882875
0.79136312 0.70347369 0.79136312
0.81311840 0.72641891 0.81311840
0.83402765 0.74901098 0.83402765
0.85402387 0.77120644 0.85402387
0.87304020 0.79296184 0.87304020
0.14741181 0.12473850 0.14741181
0.16762589 0.14157893 0.16762589
0.18873741 0.15919797 0.18873741
0.21067943 0.17755218 0.21067943
0.23338495 0.19659805 0.23338495
0.25678706 0.21629213 0.25678706
0.28081873 0.23659097 0.28081873
0.30541307 0.25745106 0.30541307
0.33050308 0.27882898 0.33050308
0.35602179 0.30068123 0.35602179
0.38190228 0.32296437 0.38190228
0.40807754 0.34563491 0.40807754
0.43448064 0.36864936 0.43448064
0.46104461 0.39196432 0.46104461
0.48770249 0.41553625 0.48770249
0.51438731 0.43932173 0.51438731
0.54103208 0.46327725 0.54103208
0.56756991 0.48735940 0.56756991
0.59393376 0.51152468 0.59393376
0.62005675 0.53572959 0.62005675
0.64587188 0.55993074 0.64587188
0.67131215 0.58408457 0.67131215
0.69631064 0.60814768 0.69631064
0.72080034 0.63207656 0.72080034
0.74471438 0.65582782 0.74471438
0.76798576 0.67935789 0.76798576
0.79054749 0.70262337 0.79054749
0.81233257 0.72558075 0.81233257
0.83327419 0.74818659 0.83327419
0.85330522 0.77039742 0.85330522
0.87235874 0.79216975 0.87235874
0.89036787 0.81346017 0.89036787
0.90726560 0.83422512 0.90726560
0.18794560 0.15853649 0.18794560
0.20985825 0.17686442 0.20985825
0.23253688 0.19588561 0.23253688
0.25591454 0.21555662 0.25591454
0.27992424 0.23583397 0.27992424
0.30449906 0.25667420 0.30449906
0.32957202 0.27803382 0.32957202
0.35507616 0.29986942 0.35507616
0.38094452 0.32213745 0.38094452
0.40711012 0.34479451 0.40711012
0.43350604 0.36779711 0.43350604
0.46006528 0.39110175 0.46006528
0.48672086 0.41466501 0.48672086
0.51340586 0.43844339 0.51340586
0.54005331 0.46239343 0.54005331
0.56659627 0.48647168 0.56659627
0.59296775 0.51063466 0.59296775
0.61910075 0.53483891 0.61910075
0.64492834 0.55904096 0.64492834
0.67038363 0.58319730 0.67038363
0.69539952 0.60726452 0.69539952
0.71990919 0.63119912 0.71990919
0.74384558 0.65495765 0.74384558
0.76714176 0.67849666 0.76714176
0.78973079 0.70177263 0.78973079
0.81154567 0.72474211 0.81154567
0.83251947 0.74736166 0.83251947
0.85258520 0.76958781 0.85258520
0.87167591 0.79137701 0.87167591
0.88972461 0.81268591 0.88972461
0.90666437 0.83347100 0.90666437
0.92242831 0.85368878 0.92242831
0.93694931 0.87329578 0.93694931
0.23168975 0.19517405 0.23168975
0.25504288 0.21482193 0.25504288
0.27903053 0.23507774 0.27903053
0.30358574 0.25589803 0.30358574
0.32864156 0.27723932 0.32864156
0.35413101 0.29905817 0.35413101
0.37998718 0.32131106 0.37998718
0.40614304 0.34395459 0.40614304
0.43253165 0.36694524 0.43253165
0.45908606 0.39023954 0.45908606
0.48573929 0.41379404 0.48573929
0.51242441 0.43756530 0.51242441
0.53907442 0.46150979 0.53907442
0.56562239 0.48558411 0.56562239
0.59200138 0.50974476 0.59200138
0.61814433 0.53394824 0.61814433
0.64398438 0.55815113 0.64398438
0.66945451 0.58230990 0.66945451
0.69448781 0.60638118 0.69448781
0.71901727 0.63032144 0.71901727
0.74297589 0.65408725 0.74297589
0.76629686 0.67763507 0.76629686
0.78891307 0.70092148 0.78891307
0.81075764 0.72390300 0.81075764
0.83176351 0.74653620 0.83176351
0.85186386 0.76877761 0.85186386
0.87099159 0.79058367 0.87099159
0.88907987 0.81191099 0.88907987
0.90606165 0.83271611 0.90606165
0.92186993 0.85295552 0.92186993
0.93643785 0.87258583 0.93643785
0.94969845 0.89156348 0.94969845
0.96158469 0.90984499 0.96158469
0.27813756 0.23432228 0.27813756
0.30267310 0.25512257 0.30267310
0.32771167 0.27644548 0.32771167
0.35318637 0.29824752 0.35318637
0.37903023 0.32048520 0.37903023
0.40517622 0.34311512 0.40517622
0.43155748 0.36609375 0.43155748
0.45810696 0.38937768 0.45810696
0.48475775 0.41292340 0.48475775
0.51144290 0.43668744 0.51144290
0.53809541 0.46062633 0.53809541
0.56464827 0.48469663 0.56464827
0.59103465 0.50885487 0.59103465
0.61718750 0.53305757 0.61718750
0.64303988 0.55726123 0.64303988
0.66852480 0.58142245 0.66852480
0.69357532 0.60549766 0.69357532
0.71812451 0.62944353 0.71812451
0.74210536 0.65321648 0.74210536
0.76545095 0.67677313 0.76545095
0.78809428 0.70006990 0.78809428
0.80996841 0.72306347 0.80996841
0.83100635 0.74571025 0.83100635
0.85114121 0.76796681 0.85114121
0.87030590 0.78978968 0.87030590
0.88843358 0.81113535 0.88843358
0.90545726 0.83196044 0.90545726
0.92130995 0.85222149 0.92130995
0.93592471 0.87187493 0.93592471
0.94923455 0.89087737 0.94923455
0.96117252 0.90918529 0.96117252
0.97167164 0.92675525 0.97167164
0.98066503 0.94354379 0.98066503
0.32678241 0.27565226 0.32678241
0.35224223 0.29743743 0.35224223
0.37807366 0.31965989 0.37807366
0.40420976 0.34227613 0.40420976
0.43058354 0.36524272 0.43058354
0.45712802 0.38851619 0.45712802
0.48377627 0.41205302 0.48377627
0.51046133 0.43580979 0.51046133
0.53711623 0.45974305 0.53711623
0.56367397 0.48380929 0.56367397
0.59006763 0.50796503 0.59006763
0.61623025 0.53216684 0.61623025
0.64209491 0.55637127 0.64209491
0.66759455 0.58053482 0.66759455
0.69266224 0.60461402 0.69266224
0.71723104 0.62856537 0.71723104
0.74123400 0.65234548 0.74123400
0.76460415 0.67591083 0.76460415
0.78727448 0.69921798 0.78727448
0.80917805 0.72222340 0.80917805
0.83024800 0.74488372 0.83024800
0.85041720 0.76715541 0.85041720
0.86961883 0.78899497 0.86961883
0.88778585 0.81035906 0.88778585
0.90485132 0.83120406 0.90485132
0.92074823 0.85148656 0.92074823
0.93540972 0.87116313 0.93540972
0.94876879 0.89019030 0.94876879
0.96075839 0.90852451 0.96075839
0.97131169 0.92612243 0.97131169
0.98036164 0.94294047 0.98036164
0.98784131 0.95893526 0.98784131
0.99368376 0.97406322 0.99368376
0.37711754 0.31883511 0.37711754
0.40324360 0.34143764 0.40324360
0.42960984 0.36439210 0.42960984
0.45614922 0.38765502 0.45614922
0.48279485 0.41118297 0.48279485
0.50947970 0.43493241 0.50947970
0.53613693 0.45885992 0.53613693
0.56269944 0.48292205 0.56269944
0.58910030 0.50707531 0.58910030
0.61527264 0.53127617 0.61527264
0.64114940 0.55548126 0.64114940
0.66666365 0.57964706 0.66666365
0.69174844 0.60373014 0.69174844
0.71633679 0.62768698 0.71633679
0.74036175 0.65147418 0.74036175
0.76375633 0.67504817 0.76375633
0.78645360 0.69836557 0.78645360
0.80838662 0.72138292 0.80838662
0.82948840 0.74405670 0.82948840
0.84969193 0.76634341 0.84969193
0.86893034 0.78819966 0.86893034
0.88713658 0.80958200 0.88713658
0.90424377 0.83044690 0.90424377
0.92018491 0.85075086 0.92018491
0.93489301 0.87045050 0.93489301
0.94830114 0.88950229 0.94830114
0.96034235 0.90786284 0.96034235
0.97094965 0.92548859 0.97094965
0.98005611 0.94233608 0.98005611
0.98759472 0.95836192 0.98759472
0.99349856 0.97352254 0.99349856
0.99770069 0.98777455 0.99770069
0.99951017 1.00000000 0.99951017
0.42863634 0.36354190 0.42863634
0.45517057 0.38679424 0.45517057
0.48181346 0.41031319 0.48181346
0.50849807 0.43405527 0.50849807
0.53515750 0.45797700 0.53515750
0.56172466 0.48203495 0.56172466
0.58813268 0.50618559 0.58813268
0.61431462 0.53038549 0.61431462
0.64020342 0.55459124 0.64020342
0.66573220 0.57875925 0.66573220
0.69083399 0.60284609 0.69083399
0.71544176 0.62680840 0.71544176
0.73948866 0.65060258 0.73948866
0.76290762 0.67418522 0.76290762
0.78563172 0.69751281 0.78563172
0.80759406 0.72054195 0.80759406
0.82872754 0.74322915 0.82872754
0.84896535 0.76553088 0.84896535
0.86824042 0.78740376 0.86824042
0.88648587 0.80880427 0.88648587
0.90363467 0.82968897 0.90363467
0.91961986 0.85001433 0.91961986
0.93437451 0.86973697 0.93437451
0.94783169 0.88881338 0.94783169
0.95992434 0.90720010 0.95992434
0.97058558 0.92485362 0.97058558
0.97974843 0.94173056 0.97974843
0.98734593 0.95778739 0.98734593
0.99331111 0.97298062 0.99331111
0.99757701 0.98726684 0.99757701
0.99972701 1.00000000 0.99972701
0.99311060 1.00000000 0.99311060
0.98503280 1.00000000 0.98503280
0.48083216 0.40944374 0.48083216
0.50751644 0.43317837 0.50751644
0.53417790 0.45709425 0.53417790
0.56074971 0.48114794 0.56074971
0.58716476 0.50529599 0.58716476
0.61335617 0.52949482 0.61335617
0.63925695 0.55370110 0.63925695
0.66480017 0.57787126 0.66480017
0.68991882 0.60196191 0.68991882
0.71454602 0.62592953 0.71454602
0.73861468 0.64973068 0.73861468
0.76205796 0.67332184 0.76205796
0.78480881 0.69665962 0.78480881
0.80680037 0.71970052 0.80680037
0.82796556 0.74240106 0.82796556
0.84823745 0.76471776 0.84823745
0.86754918 0.78660715 0.86754918
0.88583362 0.80802584 0.88583362
0.90302396 0.82893026 0.90302396
0.91905320 0.84927702 0.91905320
0.93385428 0.86902261 0.93385428
0.94736040 0.88812351 0.94736040
0.95950443 0.90653640 0.95950443
0.97021955 0.92421770 0.97021955
0.97943866 0.94112396 0.97943866
0.98709494 0.95721167 0.98709494
0.99312139 0.97243750 0.99312139
0.99745095 0.98675787 0.99745095
0.99994177 1.00000000 0.99994177
0.99338025 1.00000000 0.99338025
0.98535520 1.00000000 0.98535520
0.97592491 1.00000000 0.97592491
0.96514779 1.00000000 0.96514779
0.53319824 0.45621172 0.53319824
0.55977452 0.48026109 0.55977452
0.58619654 0.50440639 0.58619654
0.61239737 0.52860421 0.61239737
0.63831002 0.55281097 0.63831002
0.66386759 0.57698321 0.66386759
0.68900305 0.60107756 0.68900305
0.71364945 0.62505049 0.71364945
0.73773986 0.64885849 0.73773986
0.76120734 0.67245817 0.76120734
0.78398490 0.69580603 0.78398490
0.80600554 0.71885860 0.80600554
0.82720232 0.74157244 0.82720232
0.84750831 0.76390404 0.84750831
0.86685646 0.78580993 0.86685646
0.88517994 0.80724669 0.88517994
0.90241170 0.82817084 0.90241170
0.91848481 0.84853882 0.91848481
0.93333232 0.86830729 0.93333232
0.94688720 0.88743275 0.94688720
0.95908254 0.90587169 0.95908254
0.96985143 0.92358065 0.96985143
0.97912681 0.94051623 0.97912681
0.98684174 0.95663488 0.98684174
0.99292928 0.97189313 0.99292928
0.99732250 0.98624754 0.99732250
0.99995440 0.99965471 0.99995440
0.99364793 1.00000000 0.99364793
0.98567569 1.00000000 0.98567569
0.97629607 1.00000000 0.97629607
0.96556747 1.00000000 0.96556747
0.95354813 1.00000000 0.95354813
0.94029653 1.00000000 0.94029653
0.58522797 0.50351691 0.58522797
0.61143816 0.52771354 0.61143816
0.63736260 0.55192071 0.63736260
0.66293442 0.57609504 0.66293442
0.68808657 0.60019302 0.68808657
0.71275216 0.62417120 0.71275216
0.73686427 0.64798605 0.73686427
0.76035583 0.67159414 0.76035583
0.78315991 0.69495207 0.78315991
0.80520958 0.71801627 0.80520958
0.82643789 0.74074334 0.82643789
0.84677780 0.76308978 0.84677780
0.86616242 0.78501207 0.86616242
0.88452476 0.80646688 0.88452476
0.90179789 0.82741064 0.90179789
0.91791481 0.84779990 0.91791481
0.93280858 0.86759114 0.93280858
0.94641221 0.88674104 0.94641221
0.95865875 0.90520602 0.95865875
0.96948129 0.92294258 0.96948129
0.97881281 0.93990737 0.97881281
0.98658633 0.95605683 0.98658633
0.99273497 0.97134751 0.99273497
0.99719167 0.98573601 0.99719167
0.99988955 0.99917877 0.99988955
0.99391365 1.00000000 0.99391365
0.98599428 1.00000000 0.98599428
0.97666538 1.00000000 0.97666538
0.96598536 1.00000000 0.96598536
0.95401251 1.00000000 0.95401251
0.94080520 1.00000000 0.94080520
0.92642176 1.00000000 0.92642176
0.91092050 1.00000000 0.91092050
0.63641471 0.55103052 0.63641471
0.66200066 0.57520682 0.66200066
0.68716943 0.59930831 0.68716943
0.71185416 0.62329167 0.71185416
0.73598778 0.64711332 0.73598778
0.75950336 0.67072982 0.75950336
0.78233391 0.69409770 0.78233391
0.80441254 0.71717346 0.80441254
0.82567221 0.73991370 0.82567221
0.84604603 0.76227486 0.84604603
0.86546695 0.78421360 0.86546695
0.88386810 0.80568635 0.88386810
0.90118247 0.82664967 0.90118247
0.91734314 0.84706008 0.91734314
0.93228310 0.86687416 0.93228310
0.94593537 0.88604838 0.94593537
0.95823306 0.90453935 0.95823306
0.96910912 0.92230350 0.96910912
0.97849667 0.93929744 0.97849667
0.98632872 0.95547765 0.98632872
0.99253833 0.97080070 0.99253833
0.99705845 0.98522311 0.99705845
0.99982226 0.99870145 0.99982226
0.99417734 1.00000000 0.99417734
0.98631096 1.00000000 0.98631096
0.97703290 1.00000000 0.97703290
0.96640158 1.00000000 0.96640158
0.95447522 1.00000000 0.95447522
0.94131231 1.00000000 0.94131231
0.92697108 1.00000000 0.92697108
0.91150993 1.00000000 0.91150993
0.89498711 1.00000000 0.89498711
0.87746108 1.00000000 0.87746108
0.68625170 0.59842348 0.68625170
0.71095538 0.62241191 0.71095538
0.73511046 0.64624029 0.73511046
0.75864995 0.66986513 0.75864995
0.78150690 0.69324291 0.78150690
0.80361438 0.71633017 0.80361438
0.82490540 0.73908353 0.82490540
0.84531295 0.76145947 0.84531295
0.86477017 0.78341448 0.86477017
0.88321000 0.80490512 0.88321000
0.90056556 0.82588798 0.90056556
0.91676980 0.84631950 0.91676980
0.93175584 0.86615628 0.93175584
0.94545674 0.88535482 0.94545674
0.95780540 0.90387166 0.95780540
0.96873498 0.92166334 0.96873498
0.97817850 0.93868637 0.97817850
0.98606896 0.95489734 0.98606896
0.99233937 0.97025269 0.99233937
0.99692291 0.98470902 0.99692291
0.99975246 0.99822283 0.99975246
0.99443907 1.00000000 0.99443907
0.98662573 1.00000000 0.98662573
0.97739857 1.00000000 0.97739857
0.96681595 1.00000000 0.96681595
0.95493627 1.00000000 0.95493627
0.94181776 1.00000000 0.94181776
0.92751890 1.00000000 0.92751890
0.91209787 1.00000000 0.91209787
0.89561313 1.00000000 0.89561313
0.87812293 1.00000000 0.87812293
0.85968572 1.00000000 0.85968572
0.84035975 1.00000000 0.84035975
0.73423231 0.64536703 0.73423231
0.75779563 0.66900009 0.75779563
0.78067887 0.69238770 0.78067887
0.80281514 0.71548647 0.80281514
0.82413733 0.73825288 0.82413733
0.84457862 0.76064342 0.84457862
0.86407197 0.78261471 0.86407197
0.88255042 0.80412322 0.88255042
0.89994705 0.82512552 0.89994705
0.91619486 0.84557813 0.91619486
0.93122691 0.86543757 0.93122691
0.94497621 0.88466036 0.94497621
0.95737582 0.90320301 0.95737582
0.96835881 0.92102218 0.96835881
0.97785819 0.93807423 0.97785819
0.98580694 0.95431584 0.98580694
0.99213821 0.96970344 0.99213821
0.99678493 0.98419362 0.99678493
0.99968022 0.99774289 0.99968022
0.99469882 1.00000000 0.99469882
0.98693860 1.00000000 0.98693860
0.97776240 1.00000000 0.97776240
0.96722865 1.00000000 0.96722865
0.95539564 1.00000000 0.95539564
0.94232166 1.00000000 0.94232166
0.92806518 1.00000000 0.92806518
0.91268438 1.00000000 0.91268438
0.89623773 1.00000000 0.89623773
0.87878352 1.00000000 0.87878352
0.86038011 1.00000000 0.86038011
0.84108579 1.00000000 0.84108579
0.82095891 1.00000000 0.82095891
0.80005789 1.00000000 0.80005789
0.77984983 0.69153214 0.77984983
0.80201477 0.71464229 0.80201477
0.82336813 0.73742169 0.82336813
0.84384298 0.75982690 0.84384298
0.86337239 0.78181434 0.86337239
0.88188934 0.80334067 0.88188934
0.89932698 0.82436234 0.89932698
0.91561824 0.84483594 0.91561824
0.93069619 0.86471796 0.93069619
0.94449389 0.88396496 0.94449389
0.95694435 0.90253341 0.95694435
0.96798062 0.92037994 0.96798062
0.97753578 0.93746102 0.97753578
0.98554277 0.95373315 0.98554277
0.99193472 0.96915299 0.99193472
0.99664462 0.98367691 0.99664462
0.99960554 0.99726158 0.99960554
0.99495655 1.00000000 0.99495655
0.98724949 1.00000000 0.98724949
0.97812438 1.00000000 0.97812438
0.96763957 1.00000000 0.96763957
0.95585328 1.00000000 0.95585328
0.94282395 1.00000000 0.94282395
0.92860991 1.00000000 0.92860991
0.91326952 1.00000000 0.91326952
0.89686102 1.00000000 0.89686102
0.87944287 1.00000000 0.87944287
0.86107332 1.00000000 0.86107332
0.84181070 1.00000000 0.84181070
0.82171345 1.00000000 0.82171345
0.80083984 1.00000000 0.80083984
0.77924824 1.00000000 0.77924824
0.75699693 1.00000000 0.75699693
0.82259768 0.73659003 0.82259768
0.84310603 0.75900972 0.84310603
0.86267143 0.78101337 0.86267143
0.88122684 0.80255741 0.88122684
0.89870536 0.82359844 0.89870536
0.91503996 0.84409291 0.91503996
0.93016374 0.86399746 0.93016374
0.94400972 0.88326859 0.94400972
0.95651096 0.90186280 0.95651096
0.96760046 0.91973668 0.96760046
0.97721124 0.93684667 0.97721124
0.98527640 0.95314938 0.98527640
0.99172896 0.96860129 0.99172896
0.99650192 0.98315901 0.99650192
0.99952835 0.99677896 0.99952835
0.99521226 1.00000000 0.99521226
0.98755854 1.00000000 0.98755854
0.97848457 1.00000000 0.97848457
0.96804869 1.00000000 0.96804869
0.95630926 1.00000000 0.95630926
0.94332469 1.00000000 0.94332469
0.92915314 1.00000000 0.92915314
0.91385317 1.00000000 0.91385317
0.89748293 1.00000000 0.89748293
0.88010085 1.00000000 0.88010085
0.86176527 1.00000000 0.86176527
0.84253454 1.00000000 0.84253454
0.82246691 1.00000000 0.82246691
0.80162084 1.00000000 0.80162084
0.78005463 1.00000000 0.78005463
0.75782657 1.00000000 0.75782657
0.73499501 1.00000000 0.73499501
0.71161830 1.00000000 0.71161830
0.86196911 0.78021175 0.86196911
0.88056290 0.80177343 0.88056290
0.89808220 0.82283378 0.89808220
0.91446006 0.84334916 0.91446006
0.92962962 0.86327618 0.92962962
0.94352376 0.88257134 0.94352376
0.95607567 0.90119123 0.95607567
0.96721828 0.91909236 0.96721828
0.97688466 0.93623126 0.97688466
0.98500788 0.95256442 0.98500788
0.99152088 0.96804839 0.99152088
0.99635684 0.98263973 0.99635684
0.99944872 0.99629498 0.99944872
0.99546599 1.00000000 0.99546599
0.98786563 1.00000000 0.98786563
0.97884285 1.00000000 0.97884285
0.96845609 1.00000000 0.96845609
0.95676357 1.00000000 0.95676357
0.94382375 1.00000000 0.94382375
0.92969489 1.00000000 0.92969489
0.91443533 1.00000000 0.91443533
0.89810348 1.00000000 0.89810348
0.88075757 1.00000000 0.88075757
0.86245602 1.00000000 0.86245602
0.84325719 1.00000000 0.84325719
0.82321936 1.00000000 0.82321936
0.80240089 1.00000000 0.80240089
0.78086007 1.00000000 0.78086007
0.75865537 1.00000000 0.75865537
0.73584497 1.00000000 0.73584497
0.71248734 1.00000000 0.71248734
0.68864071 1.00000000 0.68864071
