Datsun Map/Datsun Map.cube
# VEGAS Pro LUT
TITLE "Datsun Map"
LUT_3D_SIZE 9
0.21176471 0.23529412 0.26666668
0.26941365 0.29286176 0.32384533
0.38145947 0.40481323 0.43511474
0.52225256 0.54532260 0.57457519
0.66614324 0.68856394 0.71632677
0.78748184 0.80871129 0.83446980
0.85950279 0.87871897 0.90174359
0.89603287 0.91182315 0.92903966
0.93101060 0.94296247 0.95269126
0.37667099 0.40003049 0.43036315
0.51686090 0.53994685 0.56924534
0.66109210 0.68354523 0.71137154
0.78371489 0.80499977 0.83084196
0.85816526 0.87749624 0.90067399
0.89469945 0.91062468 0.92809808
0.92978358 0.94188088 0.95188940
0.96063799 0.96874517 0.97173011
0.98448318 0.98869789 0.98730236
0.65601176 0.67849654 0.70638561
0.77988392 0.80122334 0.82714844
0.85682952 0.87627441 0.89959991
0.89336407 0.90942365 0.92715156
0.92855078 0.94079340 0.95108217
0.95961004 0.96786392 0.97107387
0.98376232 0.98811549 0.98680878
0.99822807 0.99902844 0.99796915
0.98196679 0.97981983 0.99347025
0.85549575 0.87505358 0.89852136
0.89202684 0.90822023 0.92620021
0.92731237 0.93970007 0.95026964
0.95857275 0.96697336 0.97041184
0.98302841 0.98752046 0.98630899
0.99789977 0.99882168 0.99764329
0.98320800 0.98117775 0.99398518
0.93798518 0.93265992 0.97372919
0.87278473 0.86463636 0.94258833
0.92606854 0.93860102 0.94945174
0.95752627 0.96607375 0.96974409
0.98228151 0.98691297 0.98580307
0.99755472 0.99859893 0.99731088
0.98441410 0.98249978 0.99448097
0.94003910 0.93483347 0.97468704
0.87546879 0.86740309 0.94388938
0.79661942 0.78722978 0.90531796
0.70940715 0.70133460 0.86220288
0.98152173 0.98629302 0.98529094
0.99719304 0.99836040 0.99697179
0.98558486 0.98378551 0.99495751
0.94206566 0.93698025 0.97562999
0.87813354 0.87015259 0.94517988
0.79970461 0.79032367 0.90683728
0.71269524 0.70451462 0.86383212
0.62254000 0.61955965 0.81912690
0.53323478 0.54271841 0.77661467
0.98671997 0.98503470 0.99541461
0.94406462 0.93909991 0.97655785
0.88077861 0.87288445 0.94645977
0.80277824 0.79340947 0.90835029
0.71597964 0.70769602 0.86545938
0.62600046 0.62264484 0.82084686
0.53635609 0.54531819 0.77805084
0.45606041 0.48014238 0.74158347
0.38538402 0.42495099 0.70856941
0.88340378 0.87559843 0.94772875
0.80583990 0.79648685 0.90985680
0.71926022 0.71087849 0.86708456
0.62947315 0.62574941 0.82257921
0.53949004 0.54793441 0.77949554
0.45884565 0.48234999 0.74284625
0.38781059 0.42682967 0.70975608
0.32665560 0.37920710 0.67734975
0.27565134 0.33731586 0.64275187
0.72253656 0.71406162 0.86870754
0.63286644 0.62883383 0.82426929
0.54263669 0.55056721 0.78094894
0.46164390 0.48457122 0.74411386
0.39025053 0.42871901 0.71094376
0.32872725 0.38084427 0.67856318
0.27734473 0.33878058 0.64409685
0.24116985 0.30414578 0.60197753
0.21400945 0.27465275 0.55475444
0.22569592 0.24918465 0.28043878
0.30711022 0.33053347 0.36129558
0.43314198 0.45641947 0.48636833
0.57814151 0.60101670 0.62975723
0.71645916 0.73849916 0.76556247
0.82244533 0.84304100 0.86788428
0.87343687 0.89141202 0.91256040
0.90970296 0.92406428 0.93850446
0.94335687 0.95379090 0.96068281
0.42801222 0.45129853 0.48128387
0.57276839 0.59566498 0.62445784
0.71178633 0.73386681 0.76100099
0.81941640 0.84007806 0.86501354
0.87208885 0.89018762 0.91153824
0.90839803 0.92289943 0.93761474
0.94219732 0.95277834 0.95993733
0.97070718 0.97730464 0.97818810
0.99114799 0.99395865 0.99204922
0.70707101 0.72919112 0.75639546
0.81631029 0.83703685 0.86206365
0.87074119 0.88896281 0.91051143
0.90708965 0.92173076 0.93672001
0.94103056 0.95175850 0.95918626
0.96978426 0.97652638 0.97759247
0.99057120 0.99351466 0.99162072
0.99798554 0.99765235 0.99948311
0.96711177 0.96371746 0.98704821
0.86939400 0.88773763 0.90947998
0.90577805 0.92055833 0.93582016
0.93985677 0.95073158 0.95842975
0.96885055 0.97573757 0.97699094
0.98997986 0.99305671 0.99118590
0.99859810 0.99835998 0.99965531
0.96869880 0.96542686 0.98775160
0.91516125 0.90864396 0.96296453
0.84390175 0.83503222 0.92852408
0.93867612 0.94969767 0.95766777
0.96790624 0.97493839 0.97638351
0.98937410 0.99258494 0.99074471
0.99917066 0.99902576 0.99980575
0.97025383 0.96710402 0.98843759
0.91748106 0.91107410 0.96406728
0.84676874 0.83795714 0.92992473
0.76403302 0.75477409 0.88923997
0.67519015 0.66854608 0.84524298
0.98875403 0.99209952 0.99029720
0.99970293 0.99964947 0.99993414
0.97177655 0.96874857 0.98910594
0.91977662 0.91348118 0.96515673
0.84961951 0.84086835 0.93131649
0.76722127 0.75793123 0.89081520
0.67849821 0.67169088 0.84688282
0.58740389 0.58870059 0.80200124
0.50163490 0.51671726 0.76220077
0.97326666 0.97036010 0.98975658
0.92204762 0.91586471 0.96623284
0.85245365 0.84376568 0.93269926
0.77040094 0.76108396 0.89238578
0.68180573 0.67484069 0.84852242
0.59073621 0.59159136 0.80360049
0.50462431 0.51915300 0.76355654
0.42796424 0.45803949 0.72874498
0.36102673 0.40608442 0.69629043
0.85527092 0.84664863 0.93407285
0.77357173 0.76423186 0.89395154
0.68511242 0.67799520 0.85016155
0.59408092 0.59450030 0.80521071
0.50762647 0.52160400 0.76491940
0.43061391 0.46011227 0.72996628
0.36331391 0.40785867 0.69747597
0.30599716 0.36267680 0.66457325
0.26024446 0.32324600 0.62780458
0.68841791 0.68115407 0.85180014
0.59743810 0.59742767 0.80683202
0.51064146 0.52407050 0.76628953
0.43327671 0.46219757 0.73119098
0.36561459 0.40964249 0.69866097
0.30792579 0.36423883 0.66582435
0.26153275 0.32449311 0.62935364
0.22998658 0.29235357 0.58413303
0.20547913 0.26474807 0.53700280
0.24984168 0.27330369 0.30440339
0.35129273 0.37467945 0.40517339
0.48758176 0.51074570 0.54028451
0.63305908 0.65567648 0.68383688
0.76207513 0.78364587 0.80993080
0.84898019 0.86882794 0.89266646
0.88739526 0.90404612 0.92287606
0.92299330 0.93588006 0.94742185
0.95491940 0.96382779 0.96808082
0.48224792 0.50542474 0.53500569
0.62784171 0.65048695 0.67870647
0.75791776 0.77953792 0.80590153
0.84682649 0.86675167 0.89069116
0.88605160 0.90283346 0.92190301
0.92173171 0.93476236 0.94658577
0.95384216 0.96289766 0.96739334
0.97960335 0.98471969 0.98400795
0.99623585 0.99770874 0.99611175
0.75370467 0.77537340 0.80181485
0.84458244 0.86458385 0.88862348
0.88470685 0.90161908 0.92092520
0.92046529 0.93363953 0.94574440
0.95275629 0.96195906 0.96670020
0.97880036 0.98405796 0.98347467
0.99581790 0.99741662 0.99575007
0.98935330 0.98794347 0.99645323
0.94885212 0.94418567 0.97877055
0.88336122 0.90040314 0.91994256
0.91919416 0.93251163 0.94489783
0.95166200 0.96101195 0.96600139
0.97798514 0.98338437 0.98293531
0.99538398 0.99710923 0.99538189
0.99036306 0.98906350 0.99684197
0.95075333 0.94620901 0.97964525
0.88976115 0.88218164 0.95079660
0.81330264 0.80400234 0.91352612
0.95055938 0.96005660 0.96529692
0.97715783 0.98269910 0.98238993
0.99493426 0.99678671 0.99500716
0.99133587 0.99014539 0.99721056
0.95262563 0.94820374 0.98050410
0.89231527 0.88483089 0.95202696
0.81632090 0.80704784 0.91500908
0.73055887 0.72187573 0.87268049
0.64094532 0.63633549 0.82827115
0.99446881 0.99644923 0.99462599
0.99227142 0.99118876 0.99755889
0.95446873 0.95016944 0.98134708
0.89484817 0.88746065 0.95324570
0.81932598 0.81008333 0.91648477
0.73381847 0.72505862 0.87429434
0.64424181 0.63940758 0.82990432
0.55360383 0.55979121 0.78603882
0.47141045 0.49235085 0.74853206
0.95628226 0.95210582 0.98217392
0.89735949 0.89007056 0.95445275
0.82231754 0.81310850 0.91795319
0.73707253 0.72824073 0.87590528
0.64754075 0.64248830 0.83153892
0.55680656 0.56249905 0.78753275
0.47426647 0.49463406 0.74982291
0.40128142 0.43726793 0.71624911
0.33812210 0.38823426 0.68393618
0.82529527 0.81612295 0.91941404
0.74032086 0.73142159 0.87751305
0.65084195 0.64557737 0.83317477
0.56002188 0.56522399 0.78903615
0.47713542 0.49693146 0.75111932
0.40379405 0.43921748 0.71744436
0.34026846 0.38991567 0.68513596
0.28682929 0.34685960 0.65131879
0.24747165 0.31059170 0.61112744
0.65414500 0.64867437 0.83481169
0.56324977 0.56796622 0.79054922
0.48001730 0.49924320 0.75242150
0.40631998 0.44117844 0.71864140
0.34242848 0.39160553 0.68633366
0.28861344 0.34835806 0.65262294
0.24865833 0.31179014 0.61278057
0.21982650 0.28122050 0.56601089
0.19793418 0.25569820 0.51998538
0.28278038 0.30621985 0.33712512
0.40053955 0.42386830 0.45404330
0.54335725 0.56636053 0.59542775
0.68558377 0.70787066 0.73537868
0.80156952 0.82257271 0.84799623
0.86474597 0.88350481 0.90588135
0.90122396 0.91648149 0.93267292
0.93574983 0.94713098 0.95577425
0.96554404 0.97293347 0.97486758
0.53795648 0.56097764 0.59009314
0.68065923 0.70298147 0.73055565
0.79806483 0.81912732 0.84463769
0.86340272 0.88227981 0.90482944
0.89989954 0.91529411 0.93175071
0.93454647 0.94607383 0.95499343
0.96456403 0.97209930 0.97423983
0.98717254 0.99085075 0.98917210
0.99959254 0.99980855 0.99947244
0.79449117 0.81561202 0.84120840
0.86206079 0.88105524 0.90377301
0.89857256 0.91410369 0.93082350
0.93333685 0.94501030 0.95420718
0.96357393 0.97125530 0.97360623
0.98650432 0.99031901 0.98870289
0.99934840 0.99968171 0.99917924
0.97678435 0.97417367 0.99127722
0.92751580 0.92161357 0.96881640
0.89724326 0.91291040 0.92989135
0.93212110 0.94394040 0.95341557
0.96257395 0.97040159 0.97296685
0.98582238 0.98977411 0.98822737
0.99908680 0.99953836 0.99887937
0.97815967 0.97566855 0.99186528
0.92969960 0.92391336 0.96984506
0.86211270 0.85366207 0.93740445
0.78131521 0.77193588 0.89777344
0.96156424 0.96953821 0.97232163
0.98512697 0.98921621 0.98774570
0.99880791 0.99937862 0.99857283
0.97950107 0.97712898 0.99243486
0.93185753 0.92618805 0.97085953
0.86486948 0.85649288 0.93874508
0.78445315 0.77506447 0.89932138
0.69652486 0.68892384 0.85581851
0.60573095 0.60469157 0.81085968
0.99851191 0.99920255 0.99825960
0.98080832 0.97855449 0.99298573
0.93398929 0.92843741 0.97185981
0.86760807 0.85930783 0.94007581
0.78758097 0.77818662 0.90086383
0.69982415 0.69209498 0.85745376
0.60913092 0.60768318 0.81252050
0.52115494 0.53271133 0.77108020
0.44257647 0.46949902 0.73544925
0.93609452 0.93066108 0.97284561
0.87032819 0.86210650 0.94139653
0.79069829 0.78130209 0.90240055
0.70312101 0.69526887 0.85908771
0.61254323 0.61069369 0.81419307
0.52422667 0.53524786 0.77248424
0.44529766 0.47164130 0.73669046
0.37602696 0.41770765 0.70393658
0.31668517 0.37128046 0.67134720
0.79380482 0.78441048 0.90393144
0.70641512 0.69844520 0.86072022
0.61596781 0.61372310 0.81587756
0.52731109 0.53780043 0.77389622
0.44803193 0.47379670 0.73793584
0.37840110 0.41954556 0.70512104
0.31868926 0.37288061 0.67257655
0.26916704 0.33163542 0.63742703
0.23574404 0.29848257 0.59358394
0.61940479 0.61677164 0.81757408
0.53040820 0.54036909 0.77531642
0.45077929 0.47596529 0.73918545
0.38078868 0.42139375 0.70630586
0.32070711 0.37448809 0.67380238
0.27080524 0.33308190 0.63879967
0.23683050 0.29962516 0.59530383
0.21067521 0.27082112 0.54799694
0.19136016 0.24757780 0.50408792
0.32309037 0.34650177 0.37716842
0.45342904 0.47666863 0.50646979
0.59904677 0.62183261 0.65036261
0.73429388 0.75616783 0.78294706
0.83352071 0.85384828 0.87832332
0.87870735 0.89619201 0.91651124
0.91476887 0.92857862 0.94193327
0.94781858 0.95767725 0.96354395
0.97507679 0.98096824 0.98102546
0.59371626 0.61652589 0.64511067
0.72979939 0.75171703 0.77857000
0.83080584 0.85120356 0.87577403
0.87735921 0.89497042 0.91550738
0.91347855 0.92742997 0.94106358
0.94668829 0.95669419 0.96282017
0.97420883 0.98024350 0.98045921
0.99326062 0.99555808 0.99366289
0.99440807 0.99358428 0.99832678
0.82800877 0.84847558 0.87314063
0.87601089 0.89374793 0.91449887
0.91218424 0.92627698 0.94018877
0.94555026 0.95570344 0.96209073
0.97332942 0.97950763 0.97988689
0.99274200 0.99516982 0.99325943
0.99521273 0.99449193 0.99860370
0.96060658 0.95673203 0.98413426
0.90343070 0.89639026 0.95736474
0.91088617 0.92511982 0.93930882
0.94440472 0.95470506 0.96135581
0.97243863 0.97876072 0.97930861
0.99220830 0.99476707 0.99284953
0.99597883 0.99535954 0.99885964
0.96231580 0.95856428 0.98490429
0.90586543 0.89892894 0.95853007
0.83254391 0.82347447 0.92296702
0.74826741 0.73922199 0.88144505
0.97153670 0.97800291 0.97872436
0.99165964 0.99435008 0.99243325
0.99670607 0.99618673 0.99909437
0.96399420 0.96036565 0.98565751
0.90827733 0.90144610 0.95968294
0.83547169 0.82644928 0.92440069
0.75149339 0.74239606 0.88304073
0.66225880 0.65630758 0.83883309
0.57122588 0.57477099 0.79430485
0.99739420 0.99697310 0.99930775
0.96564150 0.96213573 0.98639375
0.91066617 0.90394157 0.96082324
0.83838433 0.82941180 0.92582619
0.75471228 0.74556738 0.88463259
0.66556621 0.65942937 0.84047246
0.57449698 0.57757366 0.79585230
0.49007207 0.50734091 0.75696605
0.41514790 0.44804171 0.72279292
0.91303152 0.90641493 0.96195072
0.84128153 0.83236170 0.92724323
0.75792372 0.74873555 0.88622040
0.66887420 0.66255754 0.84211218
0.57778060 0.58039403 0.79741001
0.49301133 0.50971770 0.75829554
0.41773286 0.45005471 0.72399998
0.35221583 0.39923856 0.69164795
0.29673094 0.35510293 0.65836412
0.76112747 0.75190032 0.88780403
0.67218256 0.66569179 0.84375209
0.58107668 0.58323228 0.79897815
0.49596345 0.51210946 0.75963157
0.42033100 0.45207965 0.72520965
0.35445005 0.40097642 0.69283706
0.29859129 0.35663339 0.65963846
0.25530297 0.31841359 0.62164032
0.22504725 0.28699327 0.57555979
0.58438528 0.58608842 0.80055684
0.49892837 0.51451617 0.76097423
0.42294234 0.45411667 0.72642207
0.35669786 0.40272343 0.69402504
0.30046558 0.35817009 0.66090780
0.25655276 0.31964320 0.62323302
0.22603486 0.28807282 0.57730925
0.20251827 0.26123008 0.53047693
0.18574263 0.24046147 0.48969620
0.36935011 0.39271799 0.42309782
0.50853962 0.53164905 0.56101739
0.65322876 0.67573059 0.70365357
0.77776784 0.79913658 0.82510656
0.85610175 0.87560838 0.89901215
0.89263487 0.90876752 0.92663324
0.92787594 0.94019771 0.95063961
0.95904541 0.96737927 0.97071344
0.98336363 0.98779249 0.98653692
0.64810568 0.67063808 0.69862282
0.77384055 0.79526234 0.82131404
0.85471928 0.87433523 0.89787501
0.89129674 0.90756279 0.92567921
0.92663461 0.93910128 0.94982415
0.95800304 0.96648377 0.97004831
0.98262256 0.98719066 0.98603380
0.99771363 0.99870211 0.99746281
0.98387021 0.98190331 0.99425799
0.85283595 0.87253273 0.89617604
0.88995695 0.90635592 0.92472023
0.92538786 0.93799919 0.94900340
0.95695162 0.96557927 0.96937746
0.98186868 0.98657638 0.98552448
0.99735945 0.99847078 0.99712676
0.98505712 0.98320562 0.99474329
0.94114792 0.93600774 0.97520322
0.87692469 0.86890501 0.94459462
0.92413586 0.93689162 0.94817740
0.95589113 0.96466583 0.96870083
0.98110199 0.98594975 0.98500901
0.99698883 0.99822366 0.99678409
0.98620844 0.98447144 0.99520922
0.94315946 0.93813980 0.97613794
0.87957877 0.87164491 0.94587934
0.80138260 0.79200786 0.90766335
0.71448720 0.70624977 0.86471999
0.98032266 0.98531091 0.98448741
0.99660176 0.99796098 0.99643493
0.98732400 0.98570055 0.99565566
0.94514316 0.94024456 0.97705758
0.88221300 0.87436706 0.94715327
0.80444974 0.79508913 0.90917283
0.71776956 0.70943177 0.86634612
0.62789315 0.62433583 0.82179022
0.53806394 0.54674315 0.77883774
0.98840350 0.98689246 0.99608243
0.94709885 0.94232166 0.97796190
0.88482720 0.87707108 0.94841629
0.80750477 0.79816175 0.91067570
0.72104788 0.71261466 0.86797011
0.63137257 0.62745100 0.82352942
0.54120481 0.54936844 0.78028721
0.46037036 0.48355985 0.74353707
0.38913980 0.42785889 0.71040380
0.88742101 0.87975657 0.94966829
0.81054753 0.80122536 0.91217190
0.72432178 0.71579808 0.86959171
0.63466007 0.63049591 0.82515764
0.54435831 0.55201030 0.78174543
0.46317568 0.48578855 0.74480742
0.39158705 0.42975414 0.71159196
0.32986304 0.38174060 0.67922384
0.27827439 0.33958158 0.64482766
0.72759110 0.71898168 0.87121087
0.63795096 0.63355052 0.82678777
0.54752445 0.55466890 0.78321254
0.46599400 0.48803106 0.74608278
0.39404762 0.43166021 0.71278137
0.33195591 0.38338998 0.68043298
0.27998957 0.34105396 0.64616233
0.24292609 0.30595616 0.60459113
0.21536683 0.27619845 0.55744082
0.55070317 0.55734432 0.78468877
0.46882531 0.49028742 0.74736333
0.39652151 0.43357727 0.71397197
0.33406246 0.38504741 0.68163949
0.28171882 0.34253147 0.64749056
0.24407479 0.30713439 0.60627377
0.21625699 0.27720770 0.55918264
0.19534123 0.25252205 0.51383662
0.18106720 0.23442383 0.47719598
0.42013788 0.44343719 0.47347784
0.56444967 0.58737820 0.61625069
0.70448160 0.72662294 0.75386524
0.81458396 0.83534551 0.86042178
0.87000626 0.88829458 0.90994942
0.90637463 0.92109174 0.93622983
0.94039118 0.95119923 0.95877433
0.96927631 0.97609740 0.97726512
0.99025047 0.99326658 0.99138433
0.69970316 0.72188288 0.74919420
0.81136107 0.83218592 0.85735220
0.86865944 0.88706928 0.90891546
0.90506130 0.91991735 0.93532723
0.93921363 0.95016849 0.95801479
0.96833676 0.97530293 0.97666031
0.98965120 0.99280107 0.99094605
0.99891537 0.99872833 0.99974006
0.96955097 0.96634573 0.98812795
0.86731333 0.88584393 0.90787685
0.90374494 0.91873950 0.93441957
0.93802929 0.94913077 0.95724982
0.96738666 0.97449815 0.97604966
0.98903763 0.99232185 0.99050140
0.99946600 0.99937123 0.99987853
0.97108841 0.96800512 0.98880434
0.91873622 0.91238993 0.96466315
0.84832573 0.83954680 0.93068498
0.93683827 0.94808632 0.95647937
0.96642619 0.97368312 0.97543311
0.98840988 0.99182904 0.99005049
0.99997616 0.99997181 0.99999487
0.97259343 0.96963167 0.98946303
0.92101842 0.91478419 0.96574539
0.85116744 0.84245050 0.93207186
0.76895672 0.75965148 0.89167249
0.68030238 0.67340833 0.84777719
0.98776811 0.99132270 0.98959321
0.99979931 0.99990934 0.99973315
0.97406566 0.97122508 0.99010390
0.92327589 0.91715485 0.96681410
0.85399246 0.84534001 0.93344963
0.77213156 0.76280165 0.89324045
0.68360949 0.67656082 0.84941655
0.59255904 0.59317577 0.80447739
0.50626028 0.52048802 0.76429904
0.97550488 0.97278494 0.99072677
0.92550826 0.91950142 0.96786922
0.85680038 0.84821498 0.93481815
0.77529740 0.76594675 0.89480352
0.68691558 0.67971772 0.85105538
0.59591061 0.59609479 0.80609369
0.50926942 0.52294743 0.76566583
0.43206471 0.46124816 0.73063385
0.36456716 0.40883046 0.69812244
0.85959107 0.85107517 0.93617719
0.77845395 0.76908654 0.89636159
0.69022036 0.68287879 0.85269356
0.59927452 0.59903216 0.80772114
0.51229137 0.52542239 0.76703995
0.43473470 0.46334031 0.73186040
0.36687523 0.41061953 0.69930714
0.30898359 0.36509371 0.66650492
0.26223963 0.32517520 0.63019359
0.69352359 0.68604368 0.85433090
0.60265082 0.60198814 0.80935991
0.51532602 0.52791291 0.76842147
0.43741778 0.46544513 0.73309052
0.36919677 0.41241837 0.70049161
0.31093365 0.36666620 0.66774946
0.26354319 0.32642895 0.63172400
0.23158899 0.29407206 0.58682102
0.20668833 0.26617268 0.53961277
0.51837349 0.53041917 0.76981062
0.44011399 0.46756274 0.73432428
0.37153178 0.41422701 0.70167583
0.31289753 0.36824563 0.66898990
0.26485667 0.32768691 0.63324183
0.23263800 0.29519171 0.58855641
0.20748246 0.26710448 0.54130965
0.18912970 0.24477160 0.49846181
0.17731939 0.22953953 0.46697304
0.47403216 0.49722797 0.52687305
0.61973757 0.64242464 0.67073411
0.75138366 0.77307838 0.79956204
0.84332073 0.86336327 0.88745713
0.88397300 0.90095603 0.92038977
0.91977251 0.93302494 0.94528329
0.95216042 0.96144348 0.96631968
0.97835720 0.98369199 0.98318124
0.99558318 0.99725080 0.99555004
0.74708694 0.76882887 0.79538918
0.84093934 0.86105645 0.88524908
0.88262689 0.89973927 0.91940451
0.91849887 0.93189436 0.94443387
0.95106161 0.96049190 0.96561784
0.97753537 0.98301202 0.98263860
0.99514067 0.99693519 0.99517828
0.99089825 0.98965836 0.99704552
0.95177823 0.94730061 0.98011565
0.88128006 0.89852107 0.91841447
0.91722083 0.93075901 0.94357926
0.94995451 0.95953202 0.96491027
0.97670150 0.98232043 0.98208982
0.99468231 0.99660450 0.99480003
0.99185079 0.99071932 0.99740309
0.95363456 0.94927961 0.98096585
0.89369947 0.88626772 0.95269316
0.81796169 0.80870485 0.91581494
0.94883931 0.95856410 0.96419716
0.97585583 0.98161733 0.98153508
0.99420834 0.99625885 0.99441534
0.99276596 0.99174154 0.99774027
0.95546156 0.95122933 0.98180008
0.89622068 0.88888669 0.95390552
0.82095945 0.81173474 0.91728663
0.73559409 0.72679442 0.87517339
0.64604092 0.64108694 0.83079576
0.99371892 0.99589849 0.99402416
0.99364340 0.99272472 0.99805689
0.95725888 0.95314950 0.98261809
0.89872015 0.89148563 0.95510614
0.82394350 0.81475407 0.91875094
0.73884511 0.72997594 0.87678260
0.64934117 0.64417225 0.83243108
0.55855882 0.56398326 0.78835160
0.47582975 0.49588543 0.75052935
0.95902622 0.95503980 0.98341978
0.90119767 0.89406419 0.95629472
0.82691360 0.81776255 0.92020768
0.74209005 0.73315603 0.87838858
0.65264338 0.64726567 0.83406752
0.56178099 0.56671762 0.78986025
0.47870576 0.49819064 0.75182885
0.40517020 0.44028568 0.71809703
0.34144497 0.39083636 0.68578947
0.82986939 0.82075977 0.92165661
0.74532878 0.73633438 0.87999123
0.65594739 0.65036684 0.83570492
0.56501573 0.56946933 0.79137868
0.48159468 0.50051022 0.75313425
0.40770334 0.44225287 0.71929520
0.34361240 0.39253086 0.68698615
0.28959250 0.34917778 0.65333188
0.24930970 0.31244597 0.61367869
0.65925282 0.65347546 0.83734316
0.56826293 0.57223845 0.79290688
0.48449650 0.50284433 0.75444555
0.41024977 0.44423163 0.72049540
0.34579349 0.39423397 0.68818104
0.29139829 0.35068497 0.65462714
0.25051144 0.31365213 0.61531866
0.22127725 0.28283593 0.56871581
0.19899735 0.25699058 0.52246141
0.48741120 0.50519300 0.75576299
0.41280946 0.44622204 0.72169781
0.34798819 0.39594585 0.68937421
0.29321805 0.35219797 0.65591687
0.25172296 0.31486320 0.61694968
0.22222795 0.28388983 0.57046676
0.19969682 0.25783774 0.52407616
0.18386921 0.23805338 0.48473823
0.17448482 0.22588319 0.45941308
0.52961129 0.55265892 0.58184785
0.67298168 0.69535702 0.72303218
0.79251331 0.81366551 0.83930856
0.86132938 0.88038754 0.90319484
0.89784777 0.91345316 0.93031567
0.93267447 0.94442749 0.95377606
0.96302968 0.97079080 0.97325820
0.98613405 0.99002337 0.98844427
0.99920785 0.99960554 0.99901646
0.78883559 0.81004459 0.83577245
0.85998958 0.87916380 0.90213138
0.89651728 0.91225833 0.92938083
0.93145537 0.94335425 0.95298153
0.96202439 0.96993184 0.97261566
0.98544472 0.98947138 0.98796540
0.99893683 0.99945325 0.99871296
0.97889555 0.97646946 0.99217826
0.93087989 0.92515725 0.97040015
0.89518458 0.91106081 0.92844105
0.93023044 0.94227487 0.95218158
0.96100944 0.96906334 0.97196728
0.98474199 0.98890644 0.98748028
0.99864858 0.99928457 0.99840283
0.98021841 0.97791088 0.99273765
0.93302357 0.92741817 0.97140694
0.86636555 0.85803026 0.93947220
0.78616053 0.77676827 0.90016341
0.95998490 0.96818542 0.97131312
0.98402596 0.98832875 0.98698896
0.99834329 0.99909967 0.99808598
0.98150688 0.97931719 0.99327832
0.93514091 0.92965353 0.97239929
0.86909407 0.86083639 0.94079745
0.78928262 0.77988684 0.90170276
0.70162278 0.69382584 0.85834521
0.61099064 0.60932291 0.81343132
0.99802107 0.99889868 0.99776256
0.98276067 0.98068810 0.99380016
0.93723160 0.93186295 0.97337723
0.87180400 0.86362606 0.94211262
0.79239410 0.78299844 0.90323633
0.70491815 0.69700116 0.85997838
0.61440963 0.61234373 0.81511039
0.52590746 0.53663820 0.77325344
0.44678748 0.47281536 0.73736924
0.93929535 0.93404615 0.97434044
0.87449503 0.86639899 0.94341743
0.79549468 0.78610283 0.90476400
0.70821065 0.70017868 0.86161000
0.61784101 0.61538357 0.81680143
0.52899885 0.53919953 0.77466989
0.44952887 0.47497794 0.73861694
0.37970176 0.42055237 0.70576727
0.31978819 0.37375650 0.67324561
0.79858404 0.78919959 0.90628552
0.71149999 0.70335805 0.86323988
0.62128466 0.61844254 0.81850457
0.53210288 0.54177707 0.77609456
0.45228332 0.47715378 0.73986894
0.38209668 0.42240623 0.70695239
0.32181358 0.37536803 0.67446959
0.27170479 0.33387277 0.63954526
0.23742716 0.30025080 0.59623992
0.62474066 0.62152070 0.82021999
0.53521961 0.54437089 0.77752763
0.45505080 0.47934297 0.74112540
0.38450497 0.42427048 0.70813805
0.32385275 0.37698704 0.67569023
0.27336484 0.33532625 0.64090669
0.23852846 0.30140218 0.59795225
0.21197644 0.27232242 0.55066127
0.19227946 0.24872684 0.50637245
0.45783132 0.48154566 0.74238652
0.38692665 0.42614529 0.70932448
0.32590568 0.37861368 0.67690778
0.27503902 0.33678442 0.64226109
0.23963940 0.30255917 0.59965914
0.21283023 0.27330333 0.55239046
0.19288565 0.24948213 0.50786793
0.17954537 0.23244202 0.47305167
0.17254902 0.22352941 0.45490196
