Datsun Map/Datsun Map.cube
# VEGAS Pro LUT
TITLE "Datsun Map"
LUT_3D_SIZE 5
0.21176471 0.23529412 0.26666668
0.38145947 0.40481323 0.43511474
0.66614324 0.68856394 0.71632677
0.85950279 0.87871897 0.90174359
0.93101060 0.94296247 0.95269126
0.65601176 0.67849654 0.70638561
0.85682952 0.87627441 0.89959991
0.92855078 0.94079340 0.95108217
0.98376232 0.98811549 0.98680878
0.98196679 0.97981983 0.99347025
0.92606854 0.93860102 0.94945174
0.98228151 0.98691297 0.98580307
0.98441410 0.98249978 0.99448097
0.87546879 0.86740309 0.94388938
0.70940715 0.70133460 0.86220288
0.98671997 0.98503470 0.99541461
0.88077861 0.87288445 0.94645977
0.71597964 0.70769602 0.86545938
0.53635609 0.54531819 0.77805084
0.38538402 0.42495099 0.70856941
0.72253656 0.71406162 0.86870754
0.54263669 0.55056721 0.78094894
0.39025053 0.42871901 0.71094376
0.27734473 0.33878058 0.64409685
0.21400945 0.27465275 0.55475444
0.24984168 0.27330369 0.30440339
0.48758176 0.51074570 0.54028451
0.76207513 0.78364587 0.80993080
0.88739526 0.90404612 0.92287606
0.95491940 0.96382779 0.96808082
0.75370467 0.77537340 0.80181485
0.88470685 0.90161908 0.92092520
0.95275629 0.96195906 0.96670020
0.99581790 0.99741662 0.99575007
0.94885212 0.94418567 0.97877055
0.95055938 0.96005660 0.96529692
0.99493426 0.99678671 0.99500716
0.95262563 0.94820374 0.98050410
0.81632090 0.80704784 0.91500908
0.64094532 0.63633549 0.82827115
0.95628226 0.95210582 0.98217392
0.82231754 0.81310850 0.91795319
0.64754075 0.64248830 0.83153892
0.47426647 0.49463406 0.74982291
0.33812210 0.38823426 0.68393618
0.65414500 0.64867437 0.83481169
0.48001730 0.49924320 0.75242150
0.34242848 0.39160553 0.68633366
0.24865833 0.31179014 0.61278057
0.19793418 0.25569820 0.51998538
0.32309037 0.34650177 0.37716842
0.59904677 0.62183261 0.65036261
0.83352071 0.85384828 0.87832332
0.91476887 0.92857862 0.94193327
0.97507679 0.98096824 0.98102546
0.82800877 0.84847558 0.87314063
0.91218424 0.92627698 0.94018877
0.97332942 0.97950763 0.97988689
0.99521273 0.99449193 0.99860370
0.90343070 0.89639026 0.95736474
0.97153670 0.97800291 0.97872436
0.99670607 0.99618673 0.99909437
0.90827733 0.90144610 0.95968294
0.75149339 0.74239606 0.88304073
0.57122588 0.57477099 0.79430485
0.91303152 0.90641493 0.96195072
0.75792372 0.74873555 0.88622040
0.57778060 0.58039403 0.79741001
0.41773286 0.45005471 0.72399998
0.29673094 0.35510293 0.65836412
0.58438528 0.58608842 0.80055684
0.42294234 0.45411667 0.72642207
0.30046558 0.35817009 0.66090780
0.22603486 0.28807282 0.57730925
0.18574263 0.24046147 0.48969620
0.42013788 0.44343719 0.47347784
0.70448160 0.72662294 0.75386524
0.87000626 0.88829458 0.90994942
0.94039118 0.95119923 0.95877433
0.99025047 0.99326658 0.99138433
0.86731333 0.88584393 0.90787685
0.93802929 0.94913077 0.95724982
0.98903763 0.99232185 0.99050140
0.97108841 0.96800512 0.98880434
0.84832573 0.83954680 0.93068498
0.98776811 0.99132270 0.98959321
0.97406566 0.97122508 0.99010390
0.85399246 0.84534001 0.93344963
0.68360949 0.67656082 0.84941655
0.50626028 0.52048802 0.76429904
0.85959107 0.85107517 0.93617719
0.69022036 0.68287879 0.85269356
0.51229137 0.52542239 0.76703995
0.36687523 0.41061953 0.69930714
0.26223963 0.32517520 0.63019359
0.51837349 0.53041917 0.76981062
0.37153178 0.41422701 0.70167583
0.26485667 0.32768691 0.63324183
0.20748246 0.26710448 0.54130965
0.17731939 0.22953953 0.46697304
0.52961129 0.55265892 0.58184785
0.79251331 0.81366551 0.83930856
0.89784777 0.91345316 0.93031567
0.96302968 0.97079080 0.97325820
0.99920785 0.99960554 0.99901646
0.89518458 0.91106081 0.92844105
0.96100944 0.96906334 0.97196728
0.99864858 0.99928457 0.99840283
0.93302357 0.92741817 0.97140694
0.78616053 0.77676827 0.90016341
0.99802107 0.99889868 0.99776256
0.93723160 0.93186295 0.97337723
0.79239410 0.78299844 0.90323633
0.61440963 0.61234373 0.81511039
0.44678748 0.47281536 0.73736924
0.79858404 0.78919959 0.90628552
0.62128466 0.61844254 0.81850457
0.45228332 0.47715378 0.73986894
0.32181358 0.37536803 0.67446959
0.23742716 0.30025080 0.59623992
0.45783132 0.48154566 0.74238652
0.32590568 0.37861368 0.67690778
0.23963940 0.30255917 0.59965914
0.19288565 0.24948213 0.50786793
0.17254902 0.22352941 0.45490196
