Datsun Map/Datsun Map.cube
# VEGAS Pro LUT
TITLE "Datsun Map"
LUT_3D_SIZE 33
0.21176471 0.23529412 0.26666668
0.21967451 0.24317519 0.27447394
0.23218647 0.25566584 0.28687590
0.24889976 0.27236253 0.30346793
0.26941365 0.29286176 0.32384533
0.29332733 0.31675997 0.34760338
0.32024005 0.34365365 0.37433743
0.34975103 0.37313923 0.40364277
0.38145947 0.40481323 0.43511474
0.41496462 0.43827209 0.46834865
0.44986570 0.47311231 0.50293982
0.48576194 0.50893033 0.53848356
0.52225256 0.54532260 0.57457519
0.55893677 0.58188564 0.61080998
0.59541380 0.61821592 0.64678329
0.63128287 0.65390986 0.68209046
0.66614324 0.68856394 0.71632677
0.69959408 0.72177470 0.74908757
0.73123467 0.75313848 0.77996808
0.76066417 0.78225189 0.80856371
0.78748184 0.80871129 0.83446980
0.81128693 0.83211327 0.85728157
0.83167863 0.85205412 0.87659436
0.84825623 0.86813051 0.89200354
0.85950279 0.87871897 0.90174359
0.86862886 0.88704145 0.90889186
0.87778819 0.89535922 0.91582733
0.88693732 0.90363288 0.92254490
0.89603287 0.91182315 0.92903966
0.90503144 0.91989064 0.93530667
0.91388953 0.92779589 0.94134086
0.92256373 0.93549961 0.94713742
0.93101060 0.94296247 0.95269126
0.23164926 0.25512931 0.28634295
0.24821509 0.27167842 0.30278799
0.26859626 0.29204491 0.32303327
0.29239199 0.31582522 0.34667414
0.31920147 0.34261584 0.37330586
0.34862393 0.37201324 0.40252379
0.38025865 0.40361387 0.43392321
0.41370481 0.43701422 0.46709949
0.44856164 0.47181076 0.50164789
0.48442835 0.50759995 0.53716373
0.52090418 0.54397827 0.57324237
0.55758840 0.58054215 0.60947907
0.59408015 0.61688817 0.64546919
0.62997872 0.65261263 0.68080807
0.66488326 0.68731213 0.71509093
0.69839305 0.72058314 0.74791312
0.73010737 0.75202203 0.77887005
0.75962532 0.78122538 0.80755687
0.78654617 0.80778956 0.83356905
0.81046921 0.83131117 0.85650182
0.83099359 0.85138655 0.87595052
0.84771854 0.86761218 0.89151049
0.85916829 0.87841326 0.90147662
0.86829227 0.88673514 0.90863264
0.87745112 0.89505374 0.91557598
0.88660145 0.90332979 0.92230165
0.89569974 0.91152382 0.92880470
0.90470260 0.91959643 0.93508017
0.91356665 0.92750841 0.94112307
0.92224836 0.93522024 0.94692844
0.93070441 0.94269264 0.95249128
0.93889129 0.94988614 0.95780671
0.94676560 0.95676148 0.96286964
0.26778349 0.29123268 0.32222584
0.29146069 0.31489456 0.34574893
0.31816640 0.34158158 0.37227780
0.34749988 0.37089023 0.40140775
0.37906030 0.40241694 0.43273410
0.41244689 0.43575823 0.46585217
0.44725892 0.47051057 0.50035727
0.48309559 0.50627041 0.53584468
0.51955611 0.54263419 0.57190979
0.55623978 0.57919842 0.60814786
0.59274572 0.61555952 0.64415419
0.62867314 0.65131408 0.67952418
0.66362143 0.68605840 0.71385306
0.69718963 0.71938908 0.74673617
0.72897702 0.75090259 0.77776885
0.75858295 0.78019530 0.80654645
0.78560644 0.80686373 0.83266419
0.80964684 0.83050442 0.85571742
0.83030337 0.85071373 0.87530148
0.84717524 0.86708814 0.89101166
0.85883385 0.87810755 0.90120935
0.86795568 0.88642877 0.90837312
0.87711406 0.89474821 0.91532439
0.88626546 0.90302652 0.92205817
0.89536643 0.91122425 0.92856950
0.90437359 0.91930211 0.93485337
0.91324353 0.92722064 0.94090492
0.92193270 0.93494052 0.94671911
0.93039781 0.94242239 0.95229101
0.93859535 0.94962692 0.95761561
0.94648194 0.95651466 0.96268791
0.95401412 0.96304625 0.96750307
0.96114838 0.96918231 0.97205603
0.31713492 0.34055087 0.37125325
0.34637880 0.36977020 0.40029469
0.37786439 0.40122250 0.43154740
0.41119093 0.43450418 0.46460673
0.44595760 0.46921173 0.49906796
0.48176369 0.50494164 0.53452641
0.51820838 0.54129034 0.57057744
0.55489087 0.57785434 0.60681629
0.59141046 0.61423010 0.64283836
0.62736630 0.65001410 0.67823893
0.66235769 0.68480277 0.71261328
0.69598377 0.71819264 0.74555677
0.72784382 0.74978012 0.77666467
0.75753707 0.77916169 0.80553240
0.78466266 0.80593383 0.83175516
0.80881995 0.82969302 0.85492826
0.82960802 0.85003573 0.87464714
0.84662622 0.86655837 0.89050698
0.85849947 0.87780184 0.90094179
0.86761922 0.88612241 0.90811330
0.87677699 0.89444262 0.91507244
0.88592941 0.90272313 0.92181432
0.89503300 0.91092455 0.92833394
0.90404439 0.91900748 0.93462628
0.91292012 0.92693257 0.94068646
0.92161673 0.93466049 0.94650948
0.93009084 0.94215184 0.95209038
0.93829906 0.94936723 0.95742416
0.94619781 0.95626730 0.96250588
0.95374376 0.96281272 0.96733057
0.96089351 0.96896404 0.97189325
0.96760356 0.97468197 0.97618896
0.97383046 0.97992706 0.98021281
0.37667099 0.40003049 0.43036315
0.40993688 0.43325204 0.46336317
0.44465768 0.46791428 0.49778000
0.48043263 0.50361371 0.53320897
0.51686090 0.53994685 0.56924534
0.55354178 0.57651007 0.60548449
0.59007448 0.61289990 0.64152169
0.62605816 0.64871281 0.67695224
0.66109210 0.68354523 0.71137154
0.69477552 0.71699369 0.74437481
0.72670764 0.74865460 0.77555746
0.75648767 0.77812451 0.80451477
0.78371489 0.80499977 0.83084196
0.80798846 0.82887697 0.85413450
0.82890761 0.84935254 0.87398762
0.84607160 0.86602288 0.88999659
0.85816526 0.87749624 0.90067399
0.86728275 0.88581610 0.90785319
0.87643993 0.89413702 0.91482025
0.88559330 0.90241969 0.92157024
0.89469945 0.91062468 0.92809808
0.90371501 0.91871268 0.93439889
0.91259652 0.92664427 0.94046772
0.92130047 0.93438017 0.94629949
0.92978358 0.94188088 0.95188940
0.93800229 0.94910711 0.95723236
0.94591320 0.95601952 0.96232343
0.95347291 0.96257865 0.96715766
0.96063799 0.96874517 0.97173011
0.96736497 0.97447973 0.97603571
0.97361046 0.97974294 0.98006964
0.97933102 0.98449546 0.98382682
0.98448318 0.98869789 0.98730236
0.44335923 0.46661824 0.49649343
0.47910246 0.50228667 0.53189230
0.51551384 0.53860360 0.56791353
0.55219251 0.57516551 0.60415238
0.58873773 0.61156887 0.64020413
0.62474871 0.64741015 0.67566425
0.65982473 0.68228585 0.71012789
0.69356489 0.71579236 0.74319047
0.72556853 0.74752617 0.77444720
0.75543487 0.77708381 0.80349356
0.78276306 0.80406171 0.82992470
0.80715239 0.82805634 0.85333604
0.82820207 0.84866416 0.87332284
0.84551132 0.86548167 0.88948041
0.85783118 0.87719071 0.90040588
0.86694634 0.88550973 0.90759283
0.87610281 0.89383131 0.91456777
0.88525712 0.90211606 0.92132580
0.89436579 0.91032463 0.92786193
0.90338546 0.91841763 0.93417120
0.91227263 0.92635572 0.94024861
0.92098391 0.93409950 0.94608921
0.92947590 0.94160956 0.95168811
0.93770510 0.94884658 0.95704019
0.94562811 0.95577121 0.96214068
0.95320153 0.96234405 0.96698445
0.96038187 0.96852571 0.97156656
0.96712577 0.97427690 0.97588211
0.97338974 0.97955811 0.97992611
0.97913033 0.98433012 0.98369354
0.98430419 0.98855346 0.98717952
0.98886782 0.99218881 0.99037904
0.99277788 0.99519676 0.99328715
0.51416707 0.53726071 0.56658196
0.55084306 0.57382077 0.60281998
0.58740026 0.61023712 0.63888586
0.62343800 0.64610624 0.67437488
0.65855551 0.68102455 0.70888233
0.69235194 0.71458858 0.74200362
0.72442657 0.74639481 0.77333403
0.75437862 0.77603966 0.80246878
0.78180730 0.80311960 0.82900333
0.80631185 0.82723117 0.85253292
0.82749146 0.84797072 0.87265289
0.84494543 0.86493480 0.88895857
0.85749716 0.87688524 0.90013748
0.86661005 0.88520342 0.90733212
0.87576574 0.89352560 0.91431499
0.88492090 0.90181243 0.92108107
0.89403200 0.91002446 0.92762542
0.90305573 0.91812241 0.93394315
0.91194850 0.92606688 0.94002920
0.92066705 0.93381846 0.94587862
0.92916787 0.94133788 0.95148647
0.93740749 0.94858563 0.95684773
0.94534254 0.95552248 0.96195751
0.95292962 0.96210891 0.96681082
0.96012521 0.96830571 0.97140270
0.96688586 0.97407341 0.97572815
0.97316825 0.97937262 0.97978222
0.97892892 0.98416406 0.98355991
0.98412442 0.98840827 0.98705631
0.98871130 0.99206591 0.99026650
0.99264610 0.99509764 0.99318540
0.99588549 0.99746412 0.99580806
0.99838591 0.99912584 0.99812961
0.58606207 0.60890460 0.63756675
0.62212604 0.64480102 0.67308414
0.65728450 0.67976147 0.70763493
0.69113666 0.71338248 0.74081439
0.72328174 0.74526054 0.77221781
0.75331897 0.77499199 0.80144054
0.78084761 0.80217350 0.82807791
0.80546683 0.82640135 0.85172522
0.82677585 0.84727216 0.87197781
0.84437394 0.86438233 0.88843095
0.85716331 0.87657976 0.89986885
0.86627376 0.88489705 0.90707117
0.87542868 0.89321983 0.91406190
0.88458461 0.90150863 0.92083603
0.89369810 0.90972412 0.92738867
0.90272576 0.91782701 0.93371481
0.91162419 0.92577779 0.93980944
0.92034990 0.93353719 0.94566768
0.92885947 0.94106579 0.95128447
0.93710953 0.94832426 0.95665491
0.94505656 0.95527321 0.96177405
0.95265716 0.96187329 0.96663690
0.95986789 0.96808511 0.97123843
0.96664536 0.97386926 0.97557378
0.97294611 0.97918642 0.97963792
0.97872674 0.98399723 0.98342592
0.98394376 0.98826230 0.98693275
0.98855382 0.99194223 0.99015349
0.99251342 0.99499768 0.99308324
0.99577910 0.99738926 0.99571687
0.99830753 0.99907768 0.99804956
0.99986380 0.99983901 0.99997038
0.99554831 0.99487150 0.99871677
0.65601176 0.67849654 0.70638561
0.68991905 0.71217400 0.73962271
0.72213405 0.74412328 0.77109867
0.75225592 0.77394092 0.80040878
0.77988392 0.80122334 0.82714844
0.80461729 0.82556707 0.85091293
0.82605523 0.84656852 0.87129760
0.84379697 0.86382413 0.88789767
0.85682952 0.87627441 0.89959991
0.86593753 0.88459074 0.90680993
0.87509155 0.89291400 0.91380852
0.88424820 0.90120476 0.92059070
0.89336407 0.90942365 0.92715156
0.90239567 0.91753131 0.93348610
0.91129965 0.92548841 0.93958938
0.92003244 0.93325555 0.94545639
0.92855078 0.94079340 0.95108217
0.93681109 0.94806248 0.95646179
0.94477004 0.95502353 0.96159023
0.95238417 0.96163714 0.96646255
0.95961004 0.96786392 0.97107387
0.96640420 0.97366446 0.97541904
0.97272331 0.97899956 0.97949326
0.97852379 0.98382968 0.98329151
0.98376232 0.98811549 0.98680878
0.98839545 0.99181765 0.99004012
0.99237978 0.99489677 0.99298066
0.99567175 0.99731350 0.99562532
0.99822807 0.99902844 0.99796915
0.99998730 0.99998492 0.99999726
0.99573928 0.99508786 0.99878049
0.98970169 0.98832959 0.99658799
0.98196679 0.97981983 0.99347025
0.72098351 0.74298322 0.76997656
0.75118947 0.77288640 0.79937357
0.77891636 0.80026925 0.82621497
0.80376327 0.82472819 0.85009605
0.82532954 0.84585977 0.87061220
0.84321439 0.86326039 0.88735873
0.85649592 0.87596911 0.89933068
0.86560136 0.88428444 0.90654838
0.87475449 0.89260811 0.91355485
0.88391179 0.90090078 0.92034513
0.89302993 0.90912300 0.92691422
0.90206540 0.91723549 0.93325716
0.91097480 0.92519879 0.93936902
0.91971469 0.93297362 0.94524479
0.92824167 0.94052058 0.95087951
0.93651229 0.94780028 0.95626831
0.94448310 0.95477337 0.96140605
0.95211065 0.96140039 0.96628791
0.95935160 0.96764213 0.97090888
0.96616244 0.97345912 0.97526395
0.97249973 0.97881198 0.97934824
0.97832012 0.98366135 0.98315668
0.98358005 0.98796791 0.98668438
0.98823625 0.99169225 0.98992640
0.99224520 0.99479502 0.99287766
0.99556345 0.99723679 0.99553329
0.99814761 0.99897826 0.99788833
0.99995422 0.99998003 0.99993771
0.99592787 0.99530166 0.99884284
0.98995441 0.98860991 0.99668533
0.98228037 0.98016262 0.99360079
0.97299820 0.97006953 0.98963964
0.96220028 0.95844036 0.98485231
0.77794486 0.79931122 0.82527745
0.80290484 0.82388484 0.84927464
0.82459891 0.84514600 0.86992174
0.84262627 0.86269099 0.88681412
0.85616237 0.87566388 0.89906120
0.86526525 0.88397813 0.90628654
0.87441742 0.89230222 0.91330087
0.88357532 0.90059668 0.92009920
0.89269567 0.90882224 0.92667651
0.90173495 0.91693944 0.93302786
0.91064978 0.92490894 0.93914831
0.91939670 0.93269140 0.94503284
0.92793226 0.94024742 0.95067656
0.93621308 0.94753766 0.95607448
0.94419569 0.95452267 0.96122158
0.95183665 0.96116322 0.96611291
0.95909256 0.96741980 0.97074354
0.96591997 0.97325307 0.97510850
0.97227550 0.97862375 0.97920281
0.97811562 0.98349231 0.98302156
0.98339701 0.98781955 0.98655969
0.98807615 0.99156600 0.98981225
0.99210966 0.99469233 0.99277431
0.99545407 0.99715912 0.99544090
0.99806601 0.99892706 0.99780703
0.99990201 0.99995673 0.99986780
0.99611396 0.99551296 0.99890387
0.99020487 0.98888785 0.99678147
0.98259175 0.98050326 0.99373013
0.97336709 0.97046876 0.98980027
0.96262330 0.95889413 0.98504245
0.95045280 0.94588906 0.97950715
0.93694806 0.93156320 0.97324473
0.82386333 0.84442717 0.86922622
0.84203267 0.86211604 0.88626385
0.85582900 0.87535864 0.89879137
0.86492926 0.88367182 0.90602446
0.87408036 0.89199626 0.91304660
0.88323885 0.90029252 0.91985297
0.89236134 0.90852129 0.92643851
0.90140438 0.91664320 0.93279827
0.91032451 0.92461884 0.93892729
0.91907835 0.93240887 0.94482058
0.92762250 0.93997395 0.95047325
0.93591344 0.94727463 0.95588028
0.94390780 0.95427161 0.96103668
0.95156211 0.96092546 0.96593755
0.95883292 0.96719688 0.97057790
0.96567690 0.97304642 0.97495270
0.97205055 0.97843480 0.97905707
0.97791040 0.98332256 0.98288602
0.98321313 0.98767042 0.98643452
0.98791516 0.99143893 0.98969769
0.99197322 0.99458873 0.99267054
0.99534374 0.99708050 0.99534810
0.99798340 0.99887484 0.99772537
0.99984872 0.99993241 0.99979746
0.99629766 0.99572170 0.99896359
0.99045300 0.98916346 0.99687630
0.98290098 0.98084158 0.99385822
0.97373396 0.97086585 0.98995984
0.96304440 0.95934594 0.98523158
0.95092475 0.94639158 0.97972393
0.93746746 0.93211240 0.97348744
0.92276502 0.91661817 0.96657240
0.90690976 0.90001851 0.95902944
0.85549575 0.87505358 0.89852136
0.86459327 0.88336557 0.90576208
0.87374330 0.89169025 0.91279209
0.88290226 0.89998823 0.91960645
0.89202684 0.90822023 0.92620021
0.90107358 0.91634673 0.93256837
0.90999901 0.92432845 0.93870592
0.91875976 0.93212605 0.94460803
0.92731237 0.93970007 0.95026964
0.93561339 0.94701117 0.95568579
0.94361943 0.95402002 0.96085149
0.95128703 0.96068722 0.96576184
0.95857275 0.96697336 0.97041184
0.96543318 0.97283918 0.97479653
0.97182488 0.97824520 0.97891092
0.97770447 0.98315209 0.98275006
0.98302841 0.98752046 0.98630899
0.98775333 0.99131101 0.98958278
0.99183583 0.99448431 0.99256635
0.99523246 0.99700099 0.99525487
0.99789977 0.99882168 0.99764329
0.99979430 0.99990702 0.99972671
0.99647892 0.99592793 0.99902195
0.99069887 0.98943663 0.99696988
0.98320800 0.98117775 0.99398518
0.97409874 0.97126091 0.99011827
0.96346354 0.95979583 0.98541963
0.95139492 0.94689226 0.97993982
0.93798518 0.93265992 0.97372919
0.92332691 0.91720843 0.96683824
0.90751243 0.90064752 0.95931745
0.89063424 0.88308698 0.95121735
0.87278473 0.86463636 0.94258833
0.87340623 0.89138424 0.91253722
0.88256568 0.89968389 0.91935962
0.89169228 0.90791899 0.92596155
0.90074265 0.91605008 0.93233812
0.90967333 0.92403781 0.93848431
0.91844088 0.93184286 0.94439512
0.92700195 0.93942583 0.95006567
0.93531299 0.94674730 0.95549095
0.94333065 0.95376796 0.96066594
0.95101142 0.96044844 0.96558577
0.95831198 0.96674931 0.97024542
0.96518880 0.97263128 0.97463995
0.97159857 0.97805488 0.97876441
0.97749770 0.98298085 0.98261374
0.98284286 0.98736978 0.98618311
0.98759061 0.99118227 0.98946744
0.99169755 0.99437892 0.99246180
0.99512017 0.99692047 0.99516124
0.99781507 0.99876744 0.99756080
0.99973881 0.99988055 0.99965549
0.99665773 0.99613160 0.99907905
0.99094236 0.98970747 0.99706221
0.98351282 0.98151159 0.99411094
0.97446144 0.97165382 0.99027556
0.96388078 0.96024382 0.98560667
0.95186323 0.94739121 0.98015463
0.93850124 0.93320578 0.97397000
0.92388719 0.91779721 0.96710324
0.90811366 0.90127522 0.95960474
0.89127296 0.88374943 0.95152503
0.87345755 0.86532968 0.94291455
0.85475993 0.84612554 0.93382376
0.83527255 0.82624680 0.92430323
0.89135760 0.90761763 0.92572266
0.90041155 0.91575325 0.93210757
0.90934741 0.92374700 0.93826234
0.91812176 0.93155944 0.94418192
0.92669111 0.93915123 0.94986135
0.93501216 0.94648308 0.95529574
0.94304138 0.95351547 0.96048003
0.95073533 0.96020913 0.96540934
0.95805067 0.96652472 0.97007871
0.96494383 0.97242278 0.97448307
0.97137153 0.97786397 0.97861749
0.97729021 0.98280889 0.98247707
0.98265654 0.98721826 0.98605680
0.98742706 0.99105269 0.98935169
0.99155831 0.99427271 0.99235684
0.99500686 0.99683905 0.99506724
0.99772930 0.99871230 0.99747789
0.99968219 0.99985307 0.99958390
0.99683410 0.99633271 0.99913478
0.99118358 0.98997587 0.99715328
0.98381543 0.98184323 0.99423546
0.97482210 0.97204465 0.99043179
0.96429604 0.96068978 0.98579264
0.95232970 0.94788831 0.98036855
0.93901557 0.93374997 0.97420996
0.92444593 0.91838449 0.96736735
0.90871340 0.90190148 0.95989120
0.89191031 0.88441074 0.95183200
0.87412918 0.86602187 0.94324017
0.85546237 0.84684467 0.93416613
0.83600235 0.82698882 0.92466050
0.81584162 0.80656397 0.91477364
0.79507256 0.78567994 0.90455604
0.90902126 0.92345583 0.93804002
0.91780227 0.93127567 0.94396836
0.92637998 0.93887633 0.94965672
0.93471092 0.94621837 0.95510018
0.94275165 0.95326251 0.96029383
0.95045871 0.95996934 0.96523261
0.95778871 0.96629953 0.96991158
0.96469826 0.97221363 0.97432578
0.97114378 0.97767234 0.97847027
0.97708201 0.98263621 0.98234004
0.98246944 0.98706603 0.98593014
0.98726261 0.99092221 0.98923558
0.99141812 0.99416560 0.99225146
0.99489260 0.99675667 0.99497277
0.99764252 0.99865609 0.99739456
0.99962449 0.99982452 0.99951190
0.99700803 0.99653131 0.99918914
0.99142247 0.99024183 0.99724311
0.98411584 0.98217267 0.99435884
0.97518069 0.97243339 0.99058682
0.96470940 0.96113384 0.98597753
0.95279443 0.94838363 0.98058140
0.93952817 0.93429255 0.97444892
0.92500311 0.91897023 0.96763062
0.90931171 0.90252638 0.96017689
0.89254642 0.88507074 0.95213825
0.87479961 0.86671305 0.94356507
0.85616374 0.84756291 0.93450791
0.83673126 0.82773006 0.92501724
0.81659466 0.80732423 0.91514355
0.79584634 0.78645509 0.90493721
0.77457869 0.76523238 0.89444876
0.75288427 0.74376583 0.88372862
0.92606854 0.93860102 0.94945174
0.93440932 0.94595331 0.95490432
0.94246149 0.95300913 0.96010721
0.95018160 0.95972902 0.96505547
0.95752627 0.96607375 0.96974409
0.96445197 0.97200388 0.97416812
0.97091538 0.97748005 0.97832263
0.97687304 0.98246282 0.98220259
0.98228151 0.98691297 0.98580307
0.98709732 0.99079096 0.98911911
0.99127704 0.99405760 0.99214572
0.99477732 0.99667335 0.99487793
0.99755472 0.99859893 0.99731088
0.99956572 0.99979496 0.99943942
0.99717951 0.99672735 0.99924219
0.99165899 0.99050546 0.99733162
0.98441410 0.98249978 0.99448097
0.97553718 0.97282004 0.99074072
0.96512079 0.96157593 0.98616135
0.95325726 0.94887716 0.98079330
0.94003910 0.93483347 0.97468704
0.92555875 0.91955447 0.96789300
0.90990859 0.90314996 0.96046180
0.89318115 0.88572961 0.95244372
0.87546879 0.86740309 0.94388938
0.85686404 0.84828019 0.93484914
0.83745921 0.82847053 0.92537349
0.81734687 0.80808383 0.91551298
0.79661942 0.78722978 0.90531796
0.77536929 0.76601815 0.89483899
0.75368887 0.74455863 0.88412654
0.73167068 0.72296089 0.87323099
0.70940715 0.70133460 0.86220288
0.94217086 0.95275521 0.95992029
0.94990396 0.95948821 0.96487802
0.95726317 0.96584743 0.96957624
0.96420515 0.97179353 0.97401011
0.97068632 0.97728705 0.97817463
0.97666335 0.98228872 0.98206472
0.98209274 0.98675913 0.98567563
0.98693115 0.99065894 0.98900217
0.99113506 0.99394870 0.99203956
0.99466109 0.99658912 0.99478269
0.99746585 0.99854076 0.99722672
0.99950582 0.99976432 0.99936658
0.99734855 0.99692076 0.99929386
0.99189323 0.99076658 0.99741888
0.98471010 0.98282462 0.99460191
0.97589159 0.97320449 0.99089348
0.96553022 0.96201605 0.98634410
0.95371825 0.94936883 0.98100412
0.94054830 0.93537265 0.97492415
0.92611277 0.92013717 0.96815455
0.91050398 0.90377212 0.96074587
0.89381456 0.88638723 0.95274854
0.87613678 0.86809212 0.94421297
0.85756320 0.84899652 0.93518972
0.83818620 0.82921016 0.92572922
0.81809825 0.80884278 0.91588199
0.79739177 0.78800404 0.90569836
0.77615923 0.76680362 0.89522898
0.75449306 0.74535125 0.88452417
0.73248565 0.72375661 0.87363446
0.71022952 0.70212942 0.86261034
0.68781704 0.68057942 0.85150224
0.66534072 0.65921628 0.84036064
0.95699960 0.96562058 0.96940804
0.96395761 0.97158253 0.97385174
0.97045654 0.97709346 0.97802621
0.97645289 0.98211390 0.98192656
0.98190320 0.98660451 0.98554778
0.98676413 0.99052602 0.98888493
0.99099213 0.99383891 0.99193299
0.99454391 0.99650395 0.99468708
0.99737591 0.99848163 0.99714214
0.99944478 0.99973267 0.99929333
0.99751508 0.99711168 0.99934423
0.99212509 0.99102539 0.99750483
0.98500389 0.98314720 0.99472165
0.97624391 0.97358692 0.99104512
0.96593761 0.96245414 0.98652577
0.95417744 0.94985867 0.98121405
0.94105583 0.93591022 0.97516036
0.92666519 0.92071837 0.96841526
0.91109794 0.90439296 0.96102917
0.89444661 0.88704360 0.95305258
0.87680358 0.86878002 0.94453597
0.85826135 0.84971195 0.93552977
0.83891225 0.82994908 0.92608446
0.81884879 0.80960113 0.91625053
0.79816347 0.78877777 0.90607840
0.77694863 0.76758868 0.89561862
0.75529671 0.74614364 0.88492161
0.73330027 0.72455233 0.87403780
0.71105164 0.70292443 0.86301774
0.68864328 0.68136960 0.85191178
0.66616762 0.65999764 0.84077054
0.64371717 0.63891822 0.82964444
0.62081438 0.61802423 0.81827158
0.97022611 0.97689915 0.97787750
0.97624171 0.98193836 0.98178798
0.98171288 0.98644918 0.98541957
0.98659623 0.99039227 0.98876721
0.99084830 0.99372828 0.99182606
0.99442571 0.99641782 0.99459100
0.99728501 0.99842149 0.99705720
0.99938273 0.99970001 0.99921960
0.99767917 0.99730003 0.99939328
0.99235463 0.99128169 0.99758953
0.98529547 0.98346752 0.99484020
0.97659415 0.97396713 0.99119562
0.96634310 0.96289033 0.98670638
0.95463479 0.95034671 0.98142290
0.94156158 0.93644607 0.97539562
0.92721599 0.92129803 0.96867508
0.91169041 0.90501237 0.96131170
0.89507735 0.88769871 0.95335591
0.87746918 0.86946684 0.94485825
0.85895836 0.85042644 0.93586916
0.83963728 0.83068717 0.92643911
0.81959850 0.81035876 0.91661859
0.79893440 0.78955096 0.90645802
0.77773738 0.76837343 0.89600796
0.75609994 0.74693584 0.88531876
0.73411453 0.72534794 0.87444091
0.71187353 0.70371944 0.86342496
0.68946940 0.68216002 0.85232133
0.66699463 0.66077942 0.84118050
0.64454162 0.63968730 0.83005291
0.62167680 0.61879134 0.81869888
0.59850889 0.59836298 0.80735028
0.57591337 0.57878935 0.79652369
0.98152173 0.98629302 0.98529094
0.98642749 0.99025774 0.98864913
0.99070358 0.99361676 0.99171865
0.99430656 0.99633080 0.99449456
0.99719304 0.99836040 0.99697179
0.99931955 0.99966627 0.99914551
0.99784076 0.99748576 0.99944097
0.99258184 0.99153560 0.99767298
0.98558486 0.98378551 0.99495751
0.97694230 0.97434527 0.99134499
0.96674663 0.96332449 0.98688591
0.95509028 0.95083290 0.98163074
0.94206566 0.93698025 0.97562999
0.92776525 0.92187613 0.96893400
0.91228145 0.90563041 0.96159339
0.89570671 0.88835263 0.95365852
0.87813354 0.87015259 0.94517988
0.85965425 0.85113996 0.93620801
0.84036142 0.83142447 0.92679328
0.82034737 0.81111580 0.91698623
0.79970461 0.79032367 0.90683728
0.77852559 0.76915783 0.89639693
0.75690269 0.74772787 0.88571566
0.73492843 0.72614354 0.87484390
0.71269524 0.70451462 0.86383212
0.69029546 0.68295068 0.85273081
0.66782165 0.66156155 0.84159040
0.64536619 0.64045686 0.83046144
0.62254000 0.61955965 0.81912690
0.59935111 0.59909916 0.80775821
0.57673448 0.57949471 0.79691327
0.55469429 0.56071240 0.78654706
0.53323478 0.54271841 0.77661467
0.99055791 0.99350441 0.99161094
0.99418646 0.99624282 0.99439770
0.99710006 0.99829829 0.99688601
0.99925530 0.99963152 0.99907094
0.99799991 0.99766892 0.99948728
0.99280667 0.99178708 0.99775511
0.98587197 0.98410130 0.99507362
0.97728837 0.97472125 0.99149323
0.96714818 0.96375668 0.98706436
0.95554394 0.95131725 0.98183763
0.94256800 0.93751270 0.97586334
0.92831290 0.92245269 0.96919209
0.91287100 0.90624702 0.96187425
0.89633477 0.88900530 0.95396036
0.87879664 0.87083721 0.94550085
0.86034906 0.85185254 0.93654621
0.84108454 0.83216101 0.92714691
0.82109541 0.81187218 0.91735339
0.80047411 0.79109591 0.90721613
0.77931321 0.76994181 0.89678562
0.75770497 0.74851966 0.88611227
0.73574203 0.72693908 0.87524664
0.71351665 0.70530981 0.86423910
0.69112140 0.68374157 0.85314018
0.66864866 0.66234410 0.84200037
0.64619088 0.64122701 0.83087009
0.62340397 0.62032908 0.81955576
0.60019410 0.59983653 0.80816692
0.57755631 0.58020115 0.79730344
0.55549484 0.56138921 0.78692043
0.53401393 0.54336679 0.77697295
0.51311773 0.52610010 0.76741600
