LAVENDER Major/LAVENDER Major.cube
# VEGAS Pro LUT
TITLE "LAVENDER Major"
LUT_3D_SIZE 9
0.00000000 0.00000000 0.00000000
0.01335726 0.01270568 0.02769188
0.03771731 0.03587744 0.07819442
0.07114609 0.06767555 0.14749800
0.11170955 0.10626030 0.23159297
0.15747361 0.14979197 0.32646969
0.20650424 0.19643086 0.42811856
0.25686735 0.24433725 0.53252989
0.30662891 0.29167140 0.63569409
0.03664860 0.03486086 0.07597880
0.06977802 0.06637421 0.14466174
0.11011326 0.10474188 0.22828358
0.15572026 0.14812416 0.32283470
0.20466499 0.19468133 0.42430547
0.25501335 0.24257368 0.52868623
0.30483130 0.28996149 0.63196737
0.35218480 0.33500504 0.73013920
0.39513975 0.37586462 0.81919217
0.10852411 0.10323025 0.22498900
0.15397143 0.14646064 0.31920907
0.20282763 0.19293360 0.42049631
0.25315863 0.24080943 0.52484107
0.30303037 0.28824839 0.62823367
0.35050878 0.33341080 0.72666454
0.39365983 0.37445691 0.81612402
0.43054944 0.40954703 0.89260244
0.45924354 0.43684143 0.95209026
0.20099227 0.19118777 0.41669130
0.25130329 0.23904458 0.52099460
0.30122617 0.28653222 0.62449330
0.34882692 0.33181095 0.72317773
0.39217141 0.37304112 0.81303829
0.42932564 0.40838292 0.89006537
0.45835555 0.43599674 0.95024925
0.47732702 0.45404276 0.98958039
0.47701243 0.45374352 0.98892820
0.29941884 0.28481305 0.62074637
0.34713927 0.33020565 0.71967900
0.39067465 0.37161735 0.80993521
0.42809087 0.40720838 0.88750547
0.45745391 0.43513909 0.94838005
0.47682971 0.45356974 0.98854941
0.47750384 0.45421097 0.98994696
0.45868003 0.43630540 0.95092201
0.42977193 0.40880746 0.89099061
0.38916957 0.37018570 0.80681497
0.42684519 0.40602347 0.88492298
0.45653880 0.43426859 0.94648284
0.47631627 0.45308134 0.98748493
0.47797900 0.45466295 0.99093205
0.45956305 0.43714535 0.95275265
0.43099168 0.40996772 0.89351934
0.39419895 0.37496975 0.81724173
0.35111892 0.33399117 0.72792947
0.45561022 0.43338534 0.94455779
0.47578678 0.45257768 0.98638725
0.47843778 0.45509934 0.99188322
0.46043235 0.43797222 0.95455486
0.43220031 0.41111737 0.89602506
0.39567578 0.37637451 0.82030344
0.35279277 0.33558339 0.73139966
0.30548537 0.29058364 0.63332331
0.25568762 0.24321505 0.53008407
0.47888011 0.45552009 0.99280024
0.46128780 0.43878594 0.95632833
0.43339774 0.41225639 0.89850748
0.39714399 0.37777111 0.82334733
0.35446066 0.33716989 0.73485744
0.30728173 0.29229239 0.63704753
0.25754136 0.24497835 0.53392720
0.20717351 0.19706748 0.42950606
0.15811230 0.15039951 0.32779378
0.43458381 0.41338462 0.90096647
0.39860350 0.37915942 0.82637310
0.35612243 0.33875060 0.73830259
0.30907464 0.29399785 0.64076453
0.25939423 0.24674085 0.53776848
0.20901521 0.19881934 0.43332419
0.15987165 0.15207304 0.33144122
0.11389763 0.10834165 0.23612922
0.07302719 0.06946489 0.15139784
0.00367184 0.00349273 0.00761236
0.02145227 0.02040582 0.04447423
0.04949809 0.04708355 0.10261799
0.08587524 0.08168621 0.17803404
0.12864967 0.12237407 0.26671273
0.17588730 0.16730744 0.36464441
0.22565410 0.21464658 0.46781948
0.27601600 0.26255178 0.57222825
0.32503891 0.30918336 0.67386115
0.04830685 0.04595042 0.10014835
0.08441176 0.08029412 0.17500000
0.12698510 0.12079071 0.26326180
0.17409281 0.16560048 0.36092412
0.22380082 0.21288371 0.46397731
0.27417508 0.26080069 0.56841177
0.32328153 0.30751172 0.67021781
0.36918610 0.35117704 0.76538587
0.40995476 0.38995698 0.84990621
0.12532668 0.11921319 0.25982359
0.17230184 0.16389687 0.35721111
0.22194846 0.21112171 0.46013704
0.27233246 0.25904796 0.56459171
0.32151982 0.30583593 0.66656548
0.36757648 0.34964591 0.76204878
0.40856832 0.38863817 0.84703189
0.44256136 0.42097300 0.91750526
0.46762151 0.44481069 0.96945918
0.22009708 0.20936064 0.45629883
0.27048823 0.25729370 0.56076831
0.31975389 0.30415615 0.66290438
0.36595997 0.34810826 0.75869751
0.40717244 0.38731036 0.84413797
0.44145721 0.41992271 0.91521615
0.46688026 0.44410560 0.96792245
0.48150748 0.45801932 0.99824721
0.47098508 0.44801021 0.97643250
0.31798381 0.30247241 0.65923470
0.36433673 0.34656420 0.75533223
0.40576717 0.38597363 0.84122461
0.44034109 0.41886103 0.91290224
0.46612439 0.44338661 0.96635544
0.48118305 0.45771071 0.99757463
0.47163942 0.44863263 0.97778904
0.44874263 0.42685276 0.93032008
0.41649899 0.39618197 0.86347347
0.40435261 0.38462809 0.83829200
0.43921304 0.41778800 0.91056359
0.46535403 0.44265383 0.96475834
0.48084152 0.45738584 0.99686652
0.47227848 0.44924051 0.97911388
0.44976243 0.42782280 0.93243432
0.41782838 0.39744651 0.86622959
0.37841037 0.35995132 0.78450930
0.33344242 0.31717694 0.69128311
0.46456921 0.44190732 0.96313131
0.48048291 0.45704472 0.99612314
0.47290215 0.44983378 0.98040694
0.45076951 0.42878073 0.93452215
0.41914767 0.39870143 0.86896467
0.37997070 0.36143553 0.78774410
0.33517268 0.31882280 0.69487017
0.28668764 0.27270287 0.59435242
0.23644967 0.22491555 0.49020055
0.47351038 0.45041233 0.98166788
0.45176372 0.42972645 0.93658334
0.42045671 0.39994663 0.87167853
0.38152343 0.36291254 0.79096317
0.33689794 0.32046390 0.69844693
0.28851429 0.27444041 0.59813935
0.23830654 0.22668183 0.49405012
0.18820874 0.17902783 0.39018887
0.14015499 0.13331816 0.29056522
0.42175543 0.40118200 0.87437105
0.38306844 0.36438218 0.79416633
0.33861810 0.32210013 0.70201313
0.29033843 0.27617559 0.60192114
0.24016353 0.22844824 0.49790001
0.19002743 0.18075781 0.39395931
0.14186421 0.13494401 0.29410872
0.09760791 0.09284655 0.20235786
0.05919260 0.05630516 0.12271636
0.00911709 0.00867236 0.01890129
0.03103954 0.02952542 0.06435027
0.06248998 0.05944169 0.12955239
0.10153435 0.09658146 0.21049805
0.14623860 0.13910501 0.30317757
0.19466865 0.18517262 0.40358135
0.24489047 0.23294458 0.50769973
0.29496998 0.28058118 0.61152309
0.34297311 0.32624272 0.71104181
0.06118655 0.05820184 0.12685017
0.09998582 0.09510846 0.20728765
0.14451610 0.13746653 0.29960656
0.19284335 0.18343636 0.39979720
0.24303351 0.23117822 0.50384998
0.29315251 0.27885240 0.60775524
0.34126630 0.32461917 0.70750332
0.38544083 0.36663884 0.79908466
0.42374203 0.40307170 0.87848955
0.14279875 0.13583295 0.29604617
0.19102058 0.18170251 0.39601827
0.24117647 0.22941177 0.50000000
0.29133236 0.27712104 0.60398173
0.33955419 0.32299057 0.70395380
0.38390791 0.36518070 0.79590666
0.42245945 0.40185168 0.87583059
0.45327476 0.43116379 0.93971592
0.47441974 0.45127732 0.98355317
0.23931943 0.22764531 0.49615005
0.28950959 0.27538717 0.60020280
0.33783683 0.32135698 0.70039344
0.38236713 0.36371508 0.79271233
0.42116639 0.40062168 0.87314981
0.45230058 0.43023711 0.93769628
0.47383562 0.45072168 0.98234212
0.47989544 0.45648590 0.99490517
0.46332821 0.44072685 0.96055853
0.33611435 0.31971854 0.69682240
0.38081858 0.36224207 0.78950197
0.41986296 0.39938185 0.87044758
0.45131341 0.42929810 0.93564975
0.47323585 0.45015118 0.98109871
0.48028016 0.45685187 0.99570280
0.46413511 0.44149438 0.96223134
0.43744650 0.41610765 0.90690130
0.40214846 0.38253143 0.83372235
0.41854924 0.39813221 0.86772406
0.45031333 0.42834684 0.93357641
0.47262058 0.44956592 0.97982317
0.48064801 0.45720178 0.99646538
0.46492773 0.44224831 0.96387458
0.43859276 0.41719797 0.90927768
0.40357715 0.38389045 0.83668435
0.36181498 0.34416547 0.75010425
0.31524029 0.29986274 0.65354699
0.47198990 0.44896600 0.97851562
0.48099887 0.45753551 0.99719280
0.46570599 0.44298860 0.96548802
0.43972725 0.41827714 0.91162968
0.40499672 0.38524079 0.83962739
0.36344850 0.34571931 0.75349081
0.31701660 0.30155239 0.65722954
0.26763511 0.25457972 0.55485326
0.21723805 0.20664108 0.45037159
0.46646976 0.44371516 0.96707147
0.44084990 0.41934502 0.91395706
0.40640709 0.38658234 0.84255123
0.36507541 0.34726685 0.75686359
0.31878889 0.30323821 0.66090381
0.26948166 0.25633621 0.55868149
0.21908771 0.20840049 0.45420620
0.16954112 0.16127081 0.35148767
0.12277595 0.11678688 0.25453553
0.40780810 0.38791502 0.84545583
0.36669558 0.34880799 0.76022255
0.32055712 0.30492017 0.66456962
0.27132672 0.25809127 0.56250662
0.22093849 0.21016100 0.45804319
0.17132646 0.16296907 0.35518900
0.12442470 0.11835521 0.25795364
0.08216728 0.07815912 0.17034680
0.04648824 0.04422052 0.09637807
0.01622855 0.01543691 0.03364456
0.04201187 0.03996251 0.08709778
0.07658578 0.07284989 0.15877540
0.11801622 0.11225934 0.24466778
0.16436914 0.15635113 0.34076527
0.21371046 0.20328556 0.44305828
0.26410612 0.25122291 0.54753709
0.31362212 0.29832348 0.65019220
0.36032432 0.34274751 0.74701381
0.07518051 0.07151316 0.15586202
0.11639297 0.11071526 0.24130249
0.16259906 0.15466739 0.33709559
0.21186471 0.20152985 0.43923169
0.26225585 0.24946289 0.54370117
0.31183848 0.29662684 0.64649439
0.35867846 0.34118193 0.74360168
0.40084177 0.38128853 0.83101344
0.43639436 0.41510683 0.90472001
0.16083311 0.15298760 0.33343449
0.21002047 0.19977558 0.43540829
0.26040450 0.24770182 0.53986299
0.31005111 0.29492667 0.64278889
0.35702625 0.33961034 0.74017638
0.39939591 0.37991318 0.82801586
0.43522596 0.41399541 0.90229774
0.46258238 0.44001740 0.95901227
0.47953111 0.45613936 0.99414986
0.25855210 0.24593982 0.53602266
0.30826014 0.29322305 0.63907588
0.35536784 0.33803281 0.73673820
0.39794117 0.37852940 0.82499999
0.43404609 0.41287312 0.89985168
0.46174851 0.43922421 0.95728350
0.47911441 0.45574299 0.99328595
0.47493717 0.45176950 0.98462582
0.45414901 0.43199539 0.94152844
0.35370326 0.33644944 0.73328727
0.39647770 0.37713733 0.82196593
0.43285486 0.41173998 0.89738202
0.46090066 0.43841770 0.95552576
0.47868109 0.45533079 0.99238765
0.47549126 0.45229656 0.98577452
0.45509812 0.43289822 0.94349611
0.42489886 0.40417209 0.88088787
0.38682753 0.36795789 0.80195946
0.43165234 0.41059613 0.89488900
0.46003893 0.43759799 0.95373923
0.47823128 0.45490292 0.99145508
0.47602943 0.45280850 0.98689032
0.45603395 0.43378839 0.94543624
0.42616117 0.40537283 0.88350487
0.38834518 0.36940151 0.80510587
0.34452003 0.32771417 0.71424884
0.29661974 0.28215051 0.61494339
0.47776502 0.45445943 0.99048847
0.47655165 0.45330521 0.98797292
0.45695642 0.43466586 0.94734865
0.42741275 0.40656337 0.88609964
0.38985473 0.37083742 0.80823541
0.34621635 0.32932776 0.71776563
0.29843175 0.28387409 0.61869997
0.24843493 0.23631614 0.51504803
0.19815996 0.18849362 0.41081944
0.45786542 0.43553051 0.94923317
0.42865351 0.40774357 0.88867188
0.39135602 0.37226549 0.81134784
0.34790710 0.33093601 0.72127080
0.30024076 0.28559485 0.62245035
0.25029105 0.23808172 0.51889604
0.19999205 0.19023633 0.41461766
0.15127781 0.14389841 0.31362474
0.10608240 0.10090765 0.21992692
0.39284900 0.37368566 0.81444305
0.34959212 0.33253884 0.72476417
0.30204666 0.28731269 0.62619430
0.25214669 0.23984686 0.52274311
0.20182627 0.19198109 0.41842031
0.15301947 0.14555511 0.31723550
0.10766034 0.10240861 0.22319826
0.06768294 0.06438133 0.14031827
0.03502132 0.03331296 0.07260518
0.02489902 0.02368444 0.05161993
0.05426207 0.05161514 0.11249453
0.09167830 0.08720618 0.19006476
0.13521366 0.12861787 0.28032100
0.18293409 0.17401049 0.37925360
0.23290554 0.22154430 0.48285294
0.28319395 0.26937959 0.58710939
0.33186522 0.31567669 0.68801326
0.37698534 0.35859582 0.78155500
0.09018152 0.08578242 0.18696168
0.13352603 0.12701257 0.27682227
0.18112676 0.17229131 0.37550670
0.23104966 0.21977895 0.47900540
0.28136066 0.26763576 0.58330870
0.33012572 0.31402203 0.68440700
0.37541077 0.35709804 0.77829057
0.41528171 0.39502409 0.86094993
0.44780457 0.42596042 0.92837530
0.17932259 0.17057514 0.37176633
0.22919431 0.21801411 0.47515896
0.27952531 0.26588994 0.57950372
0.32838151 0.31236291 0.68079090
0.37382883 0.35559329 0.77501100
0.41393325 0.39374140 0.85815430
0.44676068 0.42496747 0.92621118
0.47037709 0.44743186 0.97517198
0.48178747 0.45828563 0.99882770
0.27768797 0.26414222 0.57569456
0.32663268 0.31069937 0.67716527
0.37223968 0.35408166 0.77171642
0.41257492 0.39244932 0.85533828
0.44570434 0.42396268 0.92402118
0.46969387 0.44678199 0.97375560
0.48207891 0.45856288 0.99943191
0.46828261 0.44543955 0.97082978
0.44355464 0.42191783 0.91956449
0.37064341 0.35256323 0.76840705
0.41120684 0.39114797 0.85250199
0.44463563 0.42294610 0.92180556
0.46899569 0.44611785 0.97230810
0.48235294 0.45882353 1.00000000
0.46899569 0.44611785 0.97230810
0.44463563 0.42294610 0.92180556
0.41120684 0.39114797 0.85250199
0.37064341 0.35256323 0.76840705
0.44355464 0.42191783 0.91956449
0.46828261 0.44543955 0.97082978
0.48207891 0.45856288 0.99943191
0.46969387 0.44678199 0.97375560
0.44570434 0.42396268 0.92402118
0.41257492 0.39244932 0.85533828
0.37223968 0.35408166 0.77171642
0.32663268 0.31069937 0.67716527
0.27768797 0.26414222 0.57569456
0.48178747 0.45828563 0.99882770
0.47037709 0.44743186 0.97517198
0.44676068 0.42496747 0.92621118
0.41393325 0.39374140 0.85815430
0.37382883 0.35559329 0.77501100
0.32838151 0.31236291 0.68079090
0.27952531 0.26588994 0.57950372
0.22919431 0.21801411 0.47515896
0.17932259 0.17057514 0.37176633
0.44780457 0.42596042 0.92837530
0.41528171 0.39502409 0.86094993
0.37541077 0.35709804 0.77829057
0.33012572 0.31402203 0.68440700
0.28136066 0.26763576 0.58330870
0.23104966 0.21977895 0.47900540
0.18112676 0.17229131 0.37550670
0.13352603 0.12701257 0.27682227
0.09018152 0.08578242 0.18696168
0.37698534 0.35859582 0.78155500
0.33186522 0.31567669 0.68801326
0.28319395 0.26937959 0.58710939
0.23290554 0.22154430 0.48285294
0.18293409 0.17401049 0.37925360
0.13521366 0.12861787 0.28032100
0.09167830 0.08720618 0.19006476
0.05426207 0.05161514 0.11249453
0.02489902 0.02368444 0.05161993
0.03502132 0.03331296 0.07260518
0.06768294 0.06438133 0.14031827
0.10766034 0.10240861 0.22319826
0.15301947 0.14555511 0.31723550
0.20182627 0.19198109 0.41842031
0.25214669 0.23984686 0.52274311
0.30204666 0.28731269 0.62619430
0.34959212 0.33253884 0.72476417
0.39284900 0.37368566 0.81444305
0.10608240 0.10090765 0.21992692
0.15127781 0.14389841 0.31362474
0.19999205 0.19023633 0.41461766
0.25029105 0.23808172 0.51889604
0.30024076 0.28559485 0.62245035
0.34790710 0.33093601 0.72127080
0.39135602 0.37226549 0.81134784
0.42865351 0.40774357 0.88867188
0.45786542 0.43553051 0.94923317
0.19815996 0.18849362 0.41081944
0.24843493 0.23631614 0.51504803
0.29843175 0.28387409 0.61869997
0.34621635 0.32932776 0.71776563
0.38985473 0.37083742 0.80823541
0.42741275 0.40656337 0.88609964
0.45695642 0.43466586 0.94734865
0.47655165 0.45330521 0.98797292
0.47776502 0.45445943 0.99048847
0.29661974 0.28215051 0.61494339
0.34452003 0.32771417 0.71424884
0.38834518 0.36940151 0.80510587
0.42616117 0.40537283 0.88350487
0.45603395 0.43378839 0.94543624
0.47602943 0.45280850 0.98689032
0.47823128 0.45490292 0.99145508
0.46003893 0.43759799 0.95373923
0.43165234 0.41059613 0.89488900
0.38682753 0.36795789 0.80195946
0.42489886 0.40417209 0.88088787
0.45509812 0.43289822 0.94349611
0.47549126 0.45229656 0.98577452
0.47868109 0.45533079 0.99238765
0.46090066 0.43841770 0.95552576
0.43285486 0.41173998 0.89738202
0.39647770 0.37713733 0.82196593
0.35370326 0.33644944 0.73328727
0.45414901 0.43199539 0.94152844
0.47493717 0.45176950 0.98462582
0.47911441 0.45574299 0.99328595
0.46174851 0.43922421 0.95728350
0.43404609 0.41287312 0.89985168
0.39794117 0.37852940 0.82499999
0.35536784 0.33803281 0.73673820
0.30826014 0.29322305 0.63907588
0.25855210 0.24593982 0.53602266
0.47953111 0.45613936 0.99414986
0.46258238 0.44001740 0.95901227
0.43522596 0.41399541 0.90229774
0.39939591 0.37991318 0.82801586
0.35702625 0.33961034 0.74017638
0.31005111 0.29492667 0.64278889
0.26040450 0.24770182 0.53986299
0.21002047 0.19977558 0.43540829
0.16083311 0.15298760 0.33343449
0.43639436 0.41510683 0.90472001
0.40084177 0.38128853 0.83101344
0.35867846 0.34118193 0.74360168
0.31183848 0.29662684 0.64649439
0.26225585 0.24946289 0.54370117
0.21186471 0.20152985 0.43923169
0.16259906 0.15466739 0.33709559
0.11639297 0.11071526 0.24130249
0.07518051 0.07151316 0.15586202
0.36032432 0.34274751 0.74701381
0.31362212 0.29832348 0.65019220
0.26410612 0.25122291 0.54753709
0.21371046 0.20328556 0.44305828
0.16436914 0.15635113 0.34076527
0.11801622 0.11225934 0.24466778
0.07658578 0.07284989 0.15877540
0.04201187 0.03996251 0.08709778
0.01622855 0.01543691 0.03364456
0.04648824 0.04422052 0.09637807
0.08216728 0.07815912 0.17034680
0.12442470 0.11835521 0.25795364
0.17132646 0.16296907 0.35518900
0.22093849 0.21016100 0.45804319
0.27132672 0.25809127 0.56250662
0.32055712 0.30492017 0.66456962
0.36669558 0.34880799 0.76022255
0.40780810 0.38791502 0.84545583
0.12277595 0.11678688 0.25453553
0.16954112 0.16127081 0.35148767
0.21908771 0.20840049 0.45420620
0.26948166 0.25633621 0.55868149
0.31878889 0.30323821 0.66090381
0.36507541 0.34726685 0.75686359
0.40640709 0.38658234 0.84255123
0.44084990 0.41934502 0.91395706
0.46646976 0.44371516 0.96707147
0.21723805 0.20664108 0.45037159
0.26763511 0.25457972 0.55485326
0.31701660 0.30155239 0.65722954
0.36344850 0.34571931 0.75349081
0.40499672 0.38524079 0.83962739
0.43972725 0.41827714 0.91162968
0.46570599 0.44298860 0.96548802
0.48099887 0.45753551 0.99719280
0.47198990 0.44896600 0.97851562
0.31524029 0.29986274 0.65354699
0.36181498 0.34416547 0.75010425
0.40357715 0.38389045 0.83668435
0.43859276 0.41719797 0.90927768
0.46492773 0.44224831 0.96387458
0.48064801 0.45720178 0.99646538
0.47262058 0.44956592 0.97982317
0.45031333 0.42834684 0.93357641
0.41854924 0.39813221 0.86772406
0.40214846 0.38253143 0.83372235
0.43744650 0.41610765 0.90690130
0.46413511 0.44149438 0.96223134
0.48028016 0.45685187 0.99570280
0.47323585 0.45015118 0.98109871
0.45131341 0.42929810 0.93564975
0.41986296 0.39938185 0.87044758
0.38081858 0.36224207 0.78950197
0.33611435 0.31971854 0.69682240
0.46332821 0.44072685 0.96055853
0.47989544 0.45648590 0.99490517
0.47383562 0.45072168 0.98234212
0.45230058 0.43023711 0.93769628
0.42116639 0.40062168 0.87314981
0.38236713 0.36371508 0.79271233
0.33783683 0.32135698 0.70039344
0.28950959 0.27538717 0.60020280
0.23931943 0.22764531 0.49615005
0.47441974 0.45127732 0.98355317
0.45327476 0.43116379 0.93971592
0.42245945 0.40185168 0.87583059
0.38390791 0.36518070 0.79590666
0.33955419 0.32299057 0.70395380
0.29133236 0.27712104 0.60398173
0.24117647 0.22941177 0.50000000
0.19102058 0.18170251 0.39601827
0.14279875 0.13583295 0.29604617
0.42374203 0.40307170 0.87848955
0.38544083 0.36663884 0.79908466
0.34126630 0.32461917 0.70750332
0.29315251 0.27885240 0.60775524
0.24303351 0.23117822 0.50384998
0.19284335 0.18343636 0.39979720
0.14451610 0.13746653 0.29960656
0.09998582 0.09510846 0.20728765
0.06118655 0.05820184 0.12685017
0.34297311 0.32624272 0.71104181
0.29496998 0.28058118 0.61152309
0.24489047 0.23294458 0.50769973
0.19466865 0.18517262 0.40358135
0.14623860 0.13910501 0.30317757
0.10153435 0.09658146 0.21049805
0.06248998 0.05944169 0.12955239
0.03103954 0.02952542 0.06435027
0.00911709 0.00867236 0.01890129
0.05919260 0.05630516 0.12271636
0.09760791 0.09284655 0.20235786
0.14186421 0.13494401 0.29410872
0.19002743 0.18075781 0.39395931
0.24016353 0.22844824 0.49790001
0.29033843 0.27617559 0.60192114
0.33861810 0.32210013 0.70201313
0.38306844 0.36438218 0.79416633
0.42175543 0.40118200 0.87437105
0.14015499 0.13331816 0.29056522
0.18820874 0.17902783 0.39018887
0.23830654 0.22668183 0.49405012
0.28851429 0.27444041 0.59813935
0.33689794 0.32046390 0.69844693
0.38152343 0.36291254 0.79096317
0.42045671 0.39994663 0.87167853
0.45176372 0.42972645 0.93658334
0.47351038 0.45041233 0.98166788
0.23644967 0.22491555 0.49020055
0.28668764 0.27270287 0.59435242
0.33517268 0.31882280 0.69487017
0.37997070 0.36143553 0.78774410
0.41914767 0.39870143 0.86896467
0.45076951 0.42878073 0.93452215
0.47290215 0.44983378 0.98040694
0.48048291 0.45704472 0.99612314
0.46456921 0.44190732 0.96313131
0.33344242 0.31717694 0.69128311
0.37841037 0.35995132 0.78450930
0.41782838 0.39744651 0.86622959
0.44976243 0.42782280 0.93243432
0.47227848 0.44924051 0.97911388
0.48084152 0.45738584 0.99686652
0.46535403 0.44265383 0.96475834
0.43921304 0.41778800 0.91056359
0.40435261 0.38462809 0.83829200
0.41649899 0.39618197 0.86347347
0.44874263 0.42685276 0.93032008
0.47163942 0.44863263 0.97778904
0.48118305 0.45771071 0.99757463
0.46612439 0.44338661 0.96635544
0.44034109 0.41886103 0.91290224
0.40576717 0.38597363 0.84122461
0.36433673 0.34656420 0.75533223
0.31798381 0.30247241 0.65923470
0.47098508 0.44801021 0.97643250
0.48150748 0.45801932 0.99824721
0.46688026 0.44410560 0.96792245
0.44145721 0.41992271 0.91521615
0.40717244 0.38731036 0.84413797
0.36595997 0.34810826 0.75869751
0.31975389 0.30415615 0.66290438
0.27048823 0.25729370 0.56076831
0.22009708 0.20936064 0.45629883
0.46762151 0.44481069 0.96945918
0.44256136 0.42097300 0.91750526
0.40856832 0.38863817 0.84703189
0.36757648 0.34964591 0.76204878
0.32151982 0.30583593 0.66656548
0.27233246 0.25904796 0.56459171
0.22194846 0.21112171 0.46013704
0.17230184 0.16389687 0.35721111
0.12532668 0.11921319 0.25982359
0.40995476 0.38995698 0.84990621
0.36918610 0.35117704 0.76538587
0.32328153 0.30751172 0.67021781
0.27417508 0.26080069 0.56841177
0.22380082 0.21288371 0.46397731
0.17409281 0.16560048 0.36092412
0.12698510 0.12079071 0.26326180
0.08441176 0.08029412 0.17500000
0.04830685 0.04595042 0.10014835
0.32503891 0.30918336 0.67386115
0.27601600 0.26255178 0.57222825
0.22565410 0.21464658 0.46781948
0.17588730 0.16730744 0.36464441
0.12864967 0.12237407 0.26671273
0.08587524 0.08168621 0.17803404
0.04949809 0.04708355 0.10261799
0.02145227 0.02040582 0.04447423
0.00367184 0.00349273 0.00761236
0.07302719 0.06946489 0.15139784
0.11389763 0.10834165 0.23612922
0.15987165 0.15207304 0.33144122
0.20901521 0.19881934 0.43332419
0.25939423 0.24674085 0.53776848
0.30907464 0.29399785 0.64076453
0.35612243 0.33875060 0.73830259
0.39860350 0.37915942 0.82637310
0.43458381 0.41338462 0.90096647
0.15811230 0.15039951 0.32779378
0.20717351 0.19706748 0.42950606
0.25754136 0.24497835 0.53392720
0.30728173 0.29229239 0.63704753
0.35446066 0.33716989 0.73485744
0.39714399 0.37777111 0.82334733
0.43339774 0.41225639 0.89850748
0.46128780 0.43878594 0.95632833
0.47888011 0.45552009 0.99280024
0.25568762 0.24321505 0.53008407
0.30548537 0.29058364 0.63332331
0.35279277 0.33558339 0.73139966
0.39567578 0.37637451 0.82030344
0.43220031 0.41111737 0.89602506
0.46043235 0.43797222 0.95455486
0.47843778 0.45509934 0.99188322
0.47578678 0.45257768 0.98638725
0.45561022 0.43338534 0.94455779
0.35111892 0.33399117 0.72792947
0.39419895 0.37496975 0.81724173
0.43099168 0.40996772 0.89351934
0.45956305 0.43714535 0.95275265
0.47797900 0.45466295 0.99093205
0.47631627 0.45308134 0.98748493
0.45653880 0.43426859 0.94648284
0.42684519 0.40602347 0.88492298
0.38916957 0.37018570 0.80681497
0.42977193 0.40880746 0.89099061
0.45868003 0.43630540 0.95092201
0.47750384 0.45421097 0.98994696
0.47682971 0.45356974 0.98854941
0.45745391 0.43513909 0.94838005
0.42809087 0.40720838 0.88750547
0.39067465 0.37161735 0.80993521
0.34713927 0.33020565 0.71967900
0.29941884 0.28481305 0.62074637
0.47701243 0.45374352 0.98892820
0.47732702 0.45404276 0.98958039
0.45835555 0.43599674 0.95024925
0.42932564 0.40838292 0.89006537
0.39217141 0.37304112 0.81303829
0.34882692 0.33181095 0.72317773
0.30122617 0.28653222 0.62449330
0.25130329 0.23904458 0.52099460
0.20099227 0.19118777 0.41669130
0.45924354 0.43684143 0.95209026
0.43054944 0.40954703 0.89260244
0.39365983 0.37445691 0.81612402
0.35050878 0.33341080 0.72666454
0.30303037 0.28824839 0.62823367
0.25315863 0.24080943 0.52484107
0.20282763 0.19293360 0.42049631
0.15397143 0.14646064 0.31920907
0.10852411 0.10323025 0.22498900
0.39513975 0.37586462 0.81919217
0.35218480 0.33500504 0.73013920
0.30483130 0.28996149 0.63196737
0.25501335 0.24257368 0.52868623
0.20466499 0.19468133 0.42430547
0.15572026 0.14812416 0.32283470
0.11011326 0.10474188 0.22828358
0.06977802 0.06637421 0.14466174
0.03664860 0.03486086 0.07597880
0.30662891 0.29167140 0.63569409
0.25686735 0.24433725 0.53252989
0.20650424 0.19643086 0.42811856
0.15747361 0.14979197 0.32646969
0.11170955 0.10626030 0.23159297
0.07114609 0.06767555 0.14749800
0.03771731 0.03587744 0.07819442
0.01335726 0.01270568 0.02769188
0.00000000 0.00000000 0.00000000
