LAVENDER Major/LAVENDER Major.cube
# VEGAS Pro LUT
TITLE "LAVENDER Major"
LUT_3D_SIZE 33
0.00000000 0.00000000 0.00000000
0.00220203 0.00209462 0.00456519
0.00518240 0.00492960 0.01074400
0.00891088 0.00847621 0.01847378
0.01335726 0.01270568 0.02769188
0.01849131 0.01758929 0.03833564
0.02428281 0.02309829 0.05034242
0.03070155 0.02920392 0.06364956
0.03771731 0.03587744 0.07819442
0.04529986 0.04309011 0.09391434
0.05341899 0.05081318 0.11074668
0.06204447 0.05901791 0.12862878
0.07114609 0.06767555 0.14749800
0.08069362 0.07675736 0.16729167
0.09065686 0.08623458 0.18794715
0.10100558 0.09607848 0.20940180
0.11170955 0.10626030 0.23159297
0.12273856 0.11675131 0.25445798
0.13406238 0.12752275 0.27793419
0.14565080 0.13854589 0.30195901
0.15747361 0.14979197 0.32646969
0.16950057 0.16123226 0.35140365
0.18170148 0.17283800 0.37669820
0.19404611 0.18458045 0.40229073
0.20650424 0.19643086 0.42811856
0.21904565 0.20836049 0.45411903
0.23164012 0.22034059 0.48022950
0.24425742 0.23234244 0.50638735
0.25686735 0.24433725 0.53252989
0.26943970 0.25629631 0.55859447
0.28194422 0.26819083 0.58451849
0.29435068 0.27999213 0.61023927
0.30662891 0.29167140 0.63569409
0.00505932 0.00481252 0.01048883
0.00876081 0.00833345 0.01816265
0.01318131 0.01253832 0.02732711
0.01829060 0.01739837 0.03791953
0.02405845 0.02288487 0.04987727
0.03045465 0.02896906 0.06313769
0.03744898 0.03562220 0.07763812
0.04501121 0.04281554 0.09331592
0.05311113 0.05052035 0.11010845
0.06171852 0.05870786 0.12795304
0.07080317 0.06734935 0.14678705
0.08033483 0.07641606 0.16654782
0.09028330 0.08587924 0.18717271
0.10061838 0.09571016 0.20859908
0.11130981 0.10588007 0.23076424
0.12232739 0.11636021 0.25360557
0.13364092 0.12712185 0.27706042
0.14522015 0.13813624 0.30106616
0.15703486 0.14937462 0.32556006
0.16905485 0.16080828 0.35047957
0.18124989 0.17240843 0.37576199
0.19358976 0.18414636 0.40134463
0.20604426 0.19599332 0.42716491
0.21858314 0.20792054 0.45316017
0.23117618 0.21989930 0.47926769
0.24379319 0.23190084 0.50542492
0.25640392 0.24389642 0.53156912
0.26897818 0.25585729 0.55763769
0.28148574 0.26775473 0.58356798
0.29389635 0.27955994 0.60929734
0.30617982 0.29124424 0.63476306
0.31830594 0.30277884 0.65990257
0.33024448 0.31413499 0.68465316
0.01300629 0.01237184 0.02696427
0.01809078 0.01720830 0.03750527
0.02383494 0.02267226 0.04941389
0.03020856 0.02873497 0.06262749
0.03718141 0.03536769 0.07708342
0.04472329 0.04254167 0.09271902
0.05280397 0.05022816 0.10947164
0.06139322 0.05839843 0.12727863
0.07046084 0.06702372 0.14607735
0.07997660 0.07607530 0.16580515
0.08991028 0.08552441 0.18639936
0.10023165 0.09534231 0.20779733
0.11091052 0.10550025 0.22993644
0.12191664 0.11596949 0.25275400
0.13321981 0.12672128 0.27618739
0.14478980 0.13772687 0.30017397
0.15659638 0.14895754 0.32465103
0.16860935 0.16038451 0.34955600
0.18079850 0.17197905 0.37482613
0.19313358 0.18371242 0.40039888
0.20558438 0.19555588 0.42621154
0.21812069 0.20748065 0.45220143
0.23071228 0.21945803 0.47830597
0.24332894 0.23145925 0.50446242
0.25594044 0.24345556 0.53060824
0.26851657 0.25541821 0.55668074
0.28102711 0.26731849 0.58261722
0.29344183 0.27912760 0.60835505
0.30573052 0.29081684 0.63383162
0.31786296 0.30235747 0.65898418
0.32980895 0.31372070 0.68375021
0.34153822 0.32487780 0.70806700
0.35302058 0.33580005 0.73187190
0.02361228 0.02246046 0.04895228
0.02996327 0.02850165 0.06211898
0.03691462 0.03511390 0.07653031
0.04443610 0.04226848 0.09212362
0.05249749 0.04993663 0.10883626
0.06106857 0.05808961 0.12660557
0.07011912 0.06669868 0.14536892
0.07961893 0.07573508 0.16506363
0.08953777 0.08517008 0.18562709
0.09984542 0.09497491 0.20699660
0.11051167 0.10512085 0.22910956
0.12150628 0.11557915 0.25190327
0.13279906 0.12632105 0.27531511
0.14435977 0.13731782 0.29928243
0.15615818 0.14854072 0.32374257
0.16816410 0.15996097 0.34863290
0.18034729 0.17154987 0.37389073
0.19267754 0.18327864 0.39945343
0.20512463 0.19511855 0.42525837
0.21765833 0.20704085 0.45124286
0.23024842 0.21901679 0.47734427
0.24286470 0.23101763 0.50349998
0.25547692 0.24301463 0.52964729
0.26805490 0.25497904 0.55572355
0.28056839 0.26688212 0.58166617
0.29298717 0.27869511 0.60741240
0.30528101 0.29038927 0.63289970
0.31741974 0.30193585 0.65806532
0.32937312 0.31330612 0.68284667
0.34111089 0.32447132 0.70718110
0.35260287 0.33540273 0.73100597
0.36381882 0.34607157 0.75425857
0.37472856 0.35644910 0.77687627
0.03664860 0.03486086 0.07597880
0.04414964 0.04199599 0.09152973
0.05219170 0.04964576 0.10820230
0.06074456 0.05778142 0.12593386
0.06977802 0.06637421 0.14466174
0.07926183 0.07539540 0.16432330
0.08916578 0.08481624 0.18485589
0.09945967 0.09460798 0.20619687
0.11011326 0.10474188 0.22828358
0.12109634 0.11518919 0.25105336
0.13237867 0.12592117 0.27444360
0.14393006 0.13690908 0.29839158
0.15572026 0.14812416 0.32283470
0.16771908 0.15953767 0.34771031
0.17989630 0.17112087 0.37295574
0.19222167 0.18284500 0.39850834
0.20466499 0.19468133 0.42430547
0.21719603 0.20660111 0.45028445
0.22978459 0.21857558 0.47638270
0.24240044 0.23057602 0.50253749
0.25501335 0.24257368 0.52868623
0.26759312 0.25453979 0.55476624
0.28010949 0.26644564 0.58071482
0.29253232 0.27826244 0.60646945
0.30483130 0.28996149 0.63196737
0.31697628 0.30151403 0.65714592
0.32893699 0.31289127 0.68194252
0.34068322 0.32406455 0.70629448
0.35218480 0.33500504 0.73013920
0.36341146 0.34568405 0.75341398
0.37433296 0.35607281 0.77605617
0.38491914 0.36614260 0.79800308
0.39513975 0.37586462 0.81919217
0.05188660 0.04935555 0.10756978
0.06042121 0.05747383 0.12526348
0.06943752 0.06605032 0.14395583
0.07890530 0.07505625 0.16358416
0.08879434 0.08446290 0.18408582
0.09907441 0.09424151 0.20539816
0.10971530 0.10436333 0.22745854
0.12068678 0.11479963 0.25020432
0.13195865 0.12552164 0.27357280
0.14350067 0.13650064 0.29750139
0.15528263 0.14770786 0.32192740
0.16727431 0.15911458 0.34678820
0.17944549 0.17069206 0.37202114
0.19176595 0.18241151 0.39756355
0.20420547 0.19424422 0.42335281
0.21673383 0.20616144 0.44932622
0.22932079 0.21813442 0.47542116
0.24193618 0.23013441 0.50157499
0.25454974 0.24213268 0.52772504
0.26713124 0.25410047 0.55380869
0.27965051 0.26600903 0.57976323
0.29207730 0.27782962 0.60552609
0.30438137 0.28953350 0.63103455
0.31653255 0.30109194 0.65622598
0.32850057 0.31247616 0.68103778
0.34025526 0.32365742 0.70540720
0.35176635 0.33460701 0.72927171
0.36300364 0.34529614 0.75256854
0.37393692 0.35569611 0.77523512
0.38453597 0.36577812 0.79720873
0.39477056 0.37551346 0.81842679
0.40461048 0.38487339 0.83882660
0.41402552 0.39382914 0.85834557
0.06909763 0.06572701 0.14325118
0.07854933 0.07471766 0.16284618
0.08842341 0.08411007 0.18331683
0.09868963 0.09387551 0.20460045
0.10931779 0.10398521 0.22663443
0.12027764 0.11441045 0.24935609
0.13153899 0.12512246 0.27270278
0.14307161 0.13609251 0.29661188
0.15484528 0.14729185 0.32102072
0.16682978 0.15869175 0.34586662
0.17899489 0.17026344 0.37108698
0.19131039 0.18197818 0.39661911
0.20374607 0.19380723 0.42240039
0.21627168 0.20572186 0.44836813
0.22885704 0.21769328 0.47445974
0.24147192 0.22969280 0.50061250
0.25408608 0.24169163 0.52676380
0.26666930 0.25366104 0.55285102
0.27919140 0.26557231 0.57881141
0.29162210 0.27739665 0.60458243
0.30393124 0.28910533 0.63010138
0.31608859 0.30066961 0.65530556
0.32806388 0.31206077 0.68013245
0.33982694 0.32325000 0.70451927
0.35134754 0.33420861 0.72840339
0.36259544 0.34490785 0.75172222
0.37354043 0.35531896 0.77441311
0.38415232 0.36541319 0.79641330
0.39440084 0.37516180 0.81766027
0.40425581 0.38453603 0.83809131
0.41368702 0.39350715 0.85764378
0.42266420 0.40204644 0.87625504
0.43115717 0.41012511 0.89386243
0.08805302 0.08375775 0.18254894
0.09830534 0.09350996 0.20380376
0.10892072 0.10360751 0.22581124
0.11986891 0.11402165 0.24850872
0.13111971 0.12472362 0.27183354
0.14264289 0.13568470 0.29572305
0.15440822 0.14687611 0.32011458
0.16638550 0.15826914 0.34494555
0.17854449 0.16983502 0.37015322
0.19085500 0.18154500 0.39567500
0.20328678 0.19337036 0.42144823
0.21580964 0.20528235 0.44741023
0.22839333 0.21725219 0.47349837
0.24100764 0.22925118 0.49965000
0.25362238 0.24125054 0.52580249
0.26620728 0.25322154 0.55189312
0.27873215 0.26513547 0.57785934
0.29116675 0.27696350 0.60363841
0.30348089 0.28867695 0.62916774
0.31564435 0.30024707 0.65438461
0.32762688 0.31164509 0.67922646
0.33939829 0.32284227 0.70363057
0.35092834 0.33380988 0.72753435
0.36218682 0.34451917 0.75087512
0.37314349 0.35494137 0.77359015
0.38376817 0.36504775 0.79561692
0.39403060 0.37480959 0.81689268
0.40390059 0.38419813 0.83735490
0.41334790 0.39318460 0.85694075
0.42234233 0.40174025 0.87558776
0.43085364 0.40983638 0.89323318
0.43885162 0.41744423 0.90981436
0.44630605 0.42453504 0.92526865
0.10852411 0.10323025 0.22498900
0.11946059 0.11363325 0.24766220
0.13070078 0.12432514 0.27096504
0.14221448 0.13527718 0.29483488
0.15397143 0.14646064 0.31920907
0.16594146 0.15784675 0.34402496
0.17809431 0.16940679 0.36921990
0.19039977 0.18111198 0.39473122
0.20282763 0.19293360 0.42049631
0.21534766 0.20484291 0.44645247
0.22792965 0.21681114 0.47253710
0.24054338 0.22880957 0.49868751
0.25315863 0.24080943 0.52484107
0.26574516 0.25278199 0.55093509
0.27827278 0.26469851 0.57690698
0.29071125 0.27653021 0.60269403
0.30303037 0.28824839 0.62823367
0.31519988 0.29982430 0.65346318
0.32718962 0.31122914 0.67831993
0.33896932 0.32243422 0.70274127
0.35050878 0.33341080 0.72666454
0.36177778 0.34413010 0.75002712
0.37274611 0.35456336 0.77276629
0.38338351 0.36468190 0.79481947
0.39365983 0.37445691 0.81612402
0.40354478 0.38385966 0.83661723
0.41300818 0.39286146 0.85623646
0.42201981 0.40143347 0.87491912
0.43054944 0.40954703 0.89260244
0.43856683 0.41717333 0.90922391
0.44604179 0.42428365 0.92472082
0.45294410 0.43084928 0.93903047
0.45924354 0.43684143 0.95209026
0.13028224 0.12392700 0.27009732
0.14178640 0.13486999 0.29394740
0.15353495 0.14604545 0.31830415
0.16549766 0.15742460 0.34310490
0.17764433 0.16897875 0.36828700
0.18994471 0.18067911 0.39378780
0.20236860 0.19249696 0.41954467
0.21488579 0.20440355 0.44549492
0.22746603 0.21637012 0.47157592
0.24007912 0.22836794 0.49772501
0.25269485 0.24036826 0.52387953
0.26528296 0.25234234 0.54997689
0.27781329 0.26426142 0.57595438
0.29025558 0.27609676 0.60174936
0.30257961 0.28781962 0.62729919
0.31475517 0.29940128 0.65254122
0.32675207 0.31081292 0.67741281
0.33854002 0.32202587 0.70185125
0.35008886 0.33301136 0.72579396
0.36136836 0.34374061 0.74917829
0.37234825 0.35418493 0.77194154
0.38299838 0.36431554 0.79402107
0.39328852 0.37410370 0.81535423
0.40318841 0.38352069 0.83587837
0.41266784 0.39253771 0.85553092
0.42169663 0.40112606 0.87424910
0.43024451 0.40925699 0.89197034
0.43828130 0.41690174 0.90863198
0.44577676 0.42403156 0.92417133
0.45270067 0.43061772 0.93852580
0.45902282 0.43663147 0.95163268
0.46471298 0.44204405 0.96342933
0.46974093 0.44682676 0.97385317
0.15309875 0.14563052 0.31739983
0.16505411 0.15700270 0.34218538
0.17719455 0.16855091 0.36735454
0.18948981 0.18024641 0.39284474
0.20190969 0.19206044 0.41859329
0.21442398 0.20396428 0.44453752
0.22700244 0.21592915 0.47061482
0.23961486 0.22792633 0.49676251
0.25223103 0.23992707 0.52291799
0.26482069 0.25190261 0.54901850
0.27735367 0.26382422 0.57500154
0.28979975 0.27566317 0.60080433
0.30212867 0.28739068 0.62636429
0.31431022 0.29897803 0.65161878
0.32631421 0.31039646 0.67650509
0.33811042 0.32161722 0.70096058
0.34966856 0.33261156 0.72492266
0.36095852 0.34335077 0.74832863
0.37194997 0.35380608 0.77111578
0.38261276 0.36394873 0.79322159
0.39291668 0.37375000 0.81458336
0.40283147 0.38318115 0.83513838
0.41232690 0.39221340 0.85482407
0.42137280 0.40081802 0.87357777
0.42993891 0.40896630 0.89133680
0.43799505 0.41662943 0.90803850
0.44551095 0.42377871 0.92362028
0.45245641 0.43038538 0.93801939
0.45880124 0.43642071 0.95117331
0.46451518 0.44185591 0.96301931
0.46956804 0.44666228 0.97349471
0.47392958 0.45081106 0.98253697
0.47756958 0.45427352 0.99008328
0.17674498 0.16812328 0.36642253
0.18903509 0.17981386 0.39190200
0.20145091 0.19162405 0.41764215
0.21396227 0.20352508 0.44358030
0.22653890 0.21548823 0.46965382
0.23915061 0.22748473 0.49580005
0.25176716 0.23948584 0.52195632
0.26435837 0.25146282 0.54806000
0.27689397 0.26338693 0.57404846
0.28934374 0.27522942 0.59985900
0.30167753 0.28696156 0.62542903
0.31386504 0.29855454 0.65069580
0.32587609 0.30997971 0.67559677
0.33768046 0.32120824 0.70006925
0.34924793 0.33221143 0.72405058
0.36054826 0.34296054 0.74747807
0.37155125 0.35342678 0.77028918
0.38222668 0.36358148 0.79242116
0.39254430 0.37339580 0.81381136
0.40247396 0.38284108 0.83439720
0.41198537 0.39188850 0.85411596
0.42104831 0.40050939 0.87290508
0.42963263 0.40867496 0.89070177
0.43770805 0.41635644 0.90744352
0.44524437 0.42352512 0.92306757
0.45221135 0.43015227 0.93751138
0.45857882 0.43620911 0.95071220
0.46431652 0.44166693 0.96260738
0.46939421 0.44649693 0.97313434
0.47378173 0.45067042 0.98223042
0.47744882 0.45415863 0.98983288
0.48036525 0.45693281 0.99587917
0.48219937 0.45867747 0.99968165
0.20099227 0.19118777 0.41669130
0.21350063 0.20308597 0.44262329
0.22607541 0.21504734 0.46869293
0.23868637 0.22704312 0.49483758
0.25130329 0.23904458 0.52099460
0.26389593 0.25102296 0.54710132
0.27643412 0.26294953 0.57309514
0.28888762 0.27479553 0.59891331
0.30122617 0.28653222 0.62449330
0.31341961 0.29813084 0.64977235
0.32543769 0.30956268 0.67468792
0.33725020 0.32079896 0.69917727
0.34882692 0.33181095 0.72317773
0.36013761 0.34256992 0.74662673
0.37115207 0.35304710 0.76946163
0.38184008 0.36321375 0.79161966
0.39217141 0.37304112 0.81303829
0.40211588 0.38250047 0.83365482
0.41164321 0.39156306 0.85340661
0.42072320 0.40020013 0.87223101
0.42932564 0.40838292 0.89006537
0.43742034 0.41608274 0.90684700
0.44497702 0.42327082 0.92251331
0.45196548 0.42991841 0.93700165
0.45835555 0.43599674 0.95024925
0.46411693 0.44147709 0.96219361
0.46921945 0.44633070 0.97277206
0.47363290 0.45052886 0.98192185
0.47732702 0.45404276 0.98958039
0.48027161 0.45684373 0.99568504
0.48226765 0.45874241 0.99982315
0.48002848 0.45661247 0.99518102
0.47701243 0.45374352 0.98892820
0.22561197 0.21460651 0.46773213
0.23822212 0.22660153 0.49387515
0.25083935 0.23860329 0.52003282
0.26343346 0.25058302 0.54614252
0.27597415 0.26251200 0.57214159
0.28843132 0.27436149 0.59796733
0.30077463 0.28610271 0.62355715
0.31297395 0.29770693 0.64884841
0.32499900 0.30914539 0.67377841
0.33681962 0.32038939 0.69828457
0.34840554 0.33141014 0.72230417
0.35972655 0.34217891 0.74577457
0.37075245 0.35266697 0.76863313
0.38145301 0.36284554 0.79081720
0.39179802 0.37268591 0.81226414
0.40175721 0.38215932 0.83291131
0.41130045 0.39123699 0.85269600
0.42039743 0.39989024 0.87155563
0.42901799 0.40809026 0.88942754
0.43713188 0.41580838 0.90624899
0.44470888 0.42301577 0.92195743
0.45171881 0.42968374 0.93649018
0.45813140 0.43578354 0.94978464
0.46391645 0.44128639 0.96177804
0.46904376 0.44616356 0.97240782
0.47348309 0.45038635 0.98161125
0.47720420 0.45392597 0.98932582
0.48017693 0.45675364 0.99548870
0.48233482 0.45880628 0.99996239
0.48012483 0.45670411 0.99538070
0.47713679 0.45386183 0.98918605
0.47340095 0.45030823 0.98144102
0.46894753 0.44607204 0.97220832
0.25037539 0.23816197 0.51907092
0.26297086 0.25014302 0.54518354
0.27551410 0.26207438 0.57118773
0.28797483 0.27392730 0.59702104
0.30032289 0.28567299 0.62262064
0.31252804 0.29728279 0.64792401
0.32456005 0.30872786 0.67286843
0.33638871 0.31997952 0.69739127
0.34798381 0.33100900 0.72142982
0.35931510 0.34178755 0.74492157
0.37035242 0.35228643 0.76780379
0.38106546 0.36247692 0.79001379
0.39142406 0.37233022 0.81148893
0.40139800 0.38181764 0.83216661
0.41095707 0.39091039 0.85198414
0.42007101 0.39957973 0.87087893
0.42870963 0.40779698 0.88878828
0.43684271 0.41553330 0.90564948
0.44444001 0.42276001 0.92140001
0.45147133 0.42944834 0.93597710
0.45790642 0.43556952 0.94931817
0.46371511 0.44109485 0.96136057
0.46886712 0.44599557 0.97204161
0.47333232 0.45024294 0.98129869
0.47708037 0.45380819 0.98906910
0.48008117 0.45666257 0.99529022
0.48230442 0.45877737 0.99989939
0.48022008 0.45679474 0.99557823
0.47726017 0.45397916 0.98944181
0.47355130 0.45045123 0.98175269
0.46912375 0.44623965 0.97257358
0.46400771 0.44137317 0.96196717
0.45823339 0.43588054 0.94999605
0.27505392 0.26163664 0.57023370
0.28751823 0.27349296 0.59607440
0.29987097 0.28524312 0.62168372
0.31208190 0.29685840 0.64699906
0.32412082 0.30831006 0.67195779
0.33595750 0.31956935 0.69649726
0.34756172 0.33060750 0.72055477
0.35890326 0.34139580 0.74406773
0.36995190 0.35190547 0.76697350
0.38067743 0.36210781 0.78920931
0.39104962 0.37197402 0.81071264
0.40103826 0.38147542 0.83142078
0.41061309 0.39058319 0.85127103
0.41974396 0.39926866 0.87020087
0.42840061 0.40750301 0.88814759
0.43655279 0.41525754 0.90504849
0.44417036 0.42250350 0.92084098
0.45122302 0.42921215 0.93546236
0.45768058 0.43535471 0.94885004
0.46351287 0.44090247 0.96094126
0.46868959 0.44582668 0.97167355
0.47318056 0.45009857 0.98098409
0.47695556 0.45368943 0.98881030
0.47998437 0.45657048 0.99508953
0.48223674 0.45871300 0.99975914
0.48031431 0.45688435 0.99577355
0.47738251 0.45409554 0.98969543
0.47370067 0.45059332 0.98206234
0.46929902 0.44640636 0.97293699
0.46420777 0.44156349 0.96238196
0.45845714 0.43609336 0.95045990
0.45207736 0.43002480 0.93723351
0.44509864 0.42338651 0.92276543
0.29941884 0.28481305 0.62074637
0.31163555 0.29643381 0.64607370
0.32368132 0.30789199 0.67104661
0.33552599 0.31915885 0.69560266
0.34713927 0.33020565 0.71967900
0.35849103 0.34100366 0.74321312
0.36955097 0.35152411 0.76614225
0.38028893 0.36173823 0.78840387
0.39067465 0.37161735 0.80993521
0.40067792 0.38113266 0.83067375
0.41026852 0.39025542 0.85055673
0.41941625 0.39895692 0.86952150
0.42809087 0.40720838 0.88750547
0.43626216 0.41498110 0.90444595
0.44389993 0.42224628 0.92028034
0.45097390 0.42897519 0.93494594
0.45745391 0.43513909 0.94838005
0.46330971 0.44070923 0.96052015
0.46851110 0.44565690 0.97130352
0.47302783 0.44995332 0.98066747
0.47682971 0.45356974 0.98854941
0.47988650 0.45647740 0.99488664
0.48216799 0.45864761 0.99961656
0.48040748 0.45697296 0.99596673
0.47750384 0.45421097 0.98994696
0.47384906 0.45073447 0.98237002
0.46947333 0.44657221 0.97329837
0.46440694 0.44175294 0.96279484
0.45868003 0.43630540 0.95092201
0.45232284 0.43025833 0.93774253
0.44536564 0.42364049 0.92331898
0.43783858 0.41648060 0.90771413
0.42977193 0.40880746 0.89099061
0.32324153 0.30747366 0.67013490
0.33509412 0.31874809 0.69470733
0.34671649 0.32980350 0.71880245
0.35807839 0.34061116 0.74235761
0.36914960 0.35114232 0.76531017
0.37989995 0.36136824 0.78759742
0.39029914 0.37126017 0.80915678
0.40031704 0.38078937 0.82992554
0.40992337 0.38992709 0.84984112
0.41908792 0.39864460 0.86884081
0.42778048 0.40691313 0.88686198
0.43597081 0.41470397 0.90384197
0.44362873 0.42198831 0.91971815
0.45072401 0.42873746 0.93442780
0.45722640 0.43492267 0.94790840
0.46310571 0.44051519 0.96009719
0.46833169 0.44548625 0.97093153
0.47287413 0.44980711 0.98034883
0.47670287 0.45344907 0.98828644
0.47978759 0.45638332 0.99468160
0.48209816 0.45858118 0.99947178
0.48049960 0.45706058 0.99615765
0.47762415 0.45432541 0.99019641
0.47399646 0.45087469 0.98267561
0.46964675 0.44673714 0.97365791
0.46460521 0.44194153 0.96320593
0.45890206 0.43651661 0.95138234
0.45256755 0.43049109 0.93824977
0.44563186 0.42389372 0.92387092
0.43812525 0.41675329 0.90830845
0.43007791 0.40909851 0.89162493
0.42152008 0.40095812 0.87388307
0.41248196 0.39236090 0.85514551
0.34629333 0.32940099 0.71792519
0.35766536 0.34021828 0.74150133
0.36874780 0.35076010 0.76447713
0.37951046 0.36099777 0.78679001
0.38992316 0.37090251 0.80837727
0.39995560 0.38044557 0.82917625
0.40957758 0.38959819 0.84912425
0.41875893 0.39833167 0.86815876
0.42746940 0.40661722 0.88621706
0.43567875 0.41442615 0.90323645
0.44335678 0.42172962 0.91915435
0.45047331 0.42849898 0.93390805
0.45699802 0.43470544 0.94743496
0.46290079 0.44032025 0.95967239
0.46815136 0.44531471 0.97055769
0.47271949 0.44966000 0.98002821
0.47657499 0.45332745 0.98802131
0.47968763 0.45628825 0.99447441
0.48202720 0.45851368 0.99932468
0.48059064 0.45714718 0.99634641
0.47774345 0.45443889 0.99044377
0.47414291 0.45101398 0.98297918
0.46981922 0.44690120 0.97401541
0.46480259 0.44212928 0.96361512
0.45912325 0.43672699 0.95184088
0.45281142 0.43072307 0.93875539
0.44589734 0.42414623 0.92442131
0.43841118 0.41702527 0.90890121
0.43038321 0.40938890 0.89225787
0.42184362 0.40126586 0.87455380
0.41282263 0.39268494 0.85585177
0.40335047 0.38367483 0.83621436
0.39345735 0.37426430 0.81570429
0.36834556 0.35037750 0.76364326
0.37912053 0.36062685 0.78598160
0.38954663 0.37054434 0.80759662
0.39959359 0.38010123 0.82842571
0.40923122 0.38926873 0.84840620
0.41842932 0.39801812 0.86747539
0.42715764 0.40632069 0.88557070
0.43538597 0.41414762 0.90262944
0.44308409 0.42147022 0.91858894
0.45022178 0.42825976 0.93338662
0.45676884 0.43448743 0.94695973
0.46269500 0.44012451 0.95924574
0.46797010 0.44514230 0.97018188
0.47256389 0.44951198 0.97970557
0.47644612 0.45320487 0.98775417
0.47958663 0.45619217 0.99426502
0.48195520 0.45844519 0.99917537
0.48068061 0.45723277 0.99653298
0.47786173 0.45455140 0.99068898
0.47428837 0.45115235 0.98328078
0.46999073 0.44706437 0.97437108
0.46499908 0.44231620 0.96402246
0.45934358 0.43693659 0.95229769
0.45305449 0.43095428 0.93925929
0.44616202 0.42439801 0.92497003
0.43869638 0.41729656 0.90949249
0.43068779 0.40967864 0.89288932
0.42216650 0.40157300 0.87522322
0.41316268 0.39300841 0.85655677
0.40370658 0.38401359 0.83695269
0.39382842 0.37461728 0.81647354
0.38355842 0.36484826 0.79518211
0.37292680 0.35473523 0.77314091
0.38916957 0.37018570 0.80681497
0.39923105 0.37975636 0.82767409
0.40888426 0.38893870 0.84768689
0.41809908 0.39770398 0.86679071
0.42684519 0.40602347 0.88492298
0.43509245 0.41386843 0.90202093
0.44281062 0.42121011 0.91802204
0.44996947 0.42801973 0.93286353
0.45653880 0.43426859 0.94648284
0.46248832 0.43992794 0.95881730
0.46778792 0.44496900 0.96980423
0.47240731 0.44936305 0.97938097
0.47631627 0.45308134 0.98748493
0.47948459 0.45609510 0.99405342
0.48188207 0.45837563 0.99902380
0.48076954 0.45731738 0.99671733
0.47797900 0.45466295 0.99093205
0.47443286 0.45128977 0.98358029
0.47016132 0.44722664 0.97472471
0.46519467 0.44250223 0.96442795
0.45956305 0.43714535 0.95275265
0.45329675 0.43118471 0.93976152
0.44642591 0.42464906 0.92551714
0.43898085 0.41756713 0.91008222
0.43099168 0.40996772 0.89351934
0.42248872 0.40187952 0.87589121
0.41350213 0.39333129 0.85726047
0.40406212 0.38435179 0.83768976
0.39419895 0.37496975 0.81724173
0.38394284 0.36521393 0.79597902
0.37332398 0.35511306 0.77396435
0.36237261 0.34469590 0.75126028
0.35111892 0.33399117 0.72792947
0.40853670 0.38860810 0.84696639
0.41776818 0.39738923 0.86610478
0.42653209 0.40572566 0.88427383
0.43479824 0.41358858 0.90141100
0.44253641 0.42094925 0.91745353
0.44971636 0.42777899 0.93233877
0.45630789 0.43404898 0.94600415
0.46228078 0.43973050 0.95838702
0.46760482 0.44479483 0.96942461
0.47224975 0.44921318 0.97905439
0.47618538 0.45295686 0.98721361
0.47938150 0.45599705 0.99383974
0.48180789 0.45830506 0.99887002
0.48085740 0.45740095 0.99689949
0.47809523 0.45477352 0.99117303
0.47457635 0.45142627 0.98387778
0.47033098 0.44738799 0.97507644
0.46538934 0.44268742 0.96483159
0.45978168 0.43735328 0.95320588
0.45353818 0.43141437 0.94026208
0.44668907 0.42489934 0.92606270
0.43926457 0.41783702 0.91067040
0.43129489 0.41025612 0.89414793
0.42281029 0.40218541 0.87655789
0.41384095 0.39365360 0.85796297
0.40441710 0.38468945 0.83842570
0.39456898 0.37532172 0.81800884
0.38432676 0.36557913 0.79677498
0.37372071 0.35549045 0.77478683
0.36278102 0.34508440 0.75210702
0.35153794 0.33438975 0.72879815
0.34002167 0.32343525 0.70492297
