LAVENDER Major/LAVENDER Major.cube
# VEGAS Pro LUT
TITLE "LAVENDER Major"
LUT_3D_SIZE 5
0.00000000 0.00000000 0.00000000
0.03771731 0.03587744 0.07819442
0.11170955 0.10626030 0.23159297
0.20650424 0.19643086 0.42811856
0.30662891 0.29167140 0.63569409
0.10852411 0.10323025 0.22498900
0.20282763 0.19293360 0.42049631
0.30303037 0.28824839 0.62823367
0.39365983 0.37445691 0.81612402
0.45924354 0.43684143 0.95209026
0.29941884 0.28481305 0.62074637
0.39067465 0.37161735 0.80993521
0.45745391 0.43513909 0.94838005
0.47750384 0.45421097 0.98994696
0.42977193 0.40880746 0.89099061
0.45561022 0.43338534 0.94455779
0.47843778 0.45509934 0.99188322
0.43220031 0.41111737 0.89602506
0.35279277 0.33558339 0.73139966
0.25568762 0.24321505 0.53008407
0.43458381 0.41338462 0.90096647
0.35612243 0.33875060 0.73830259
0.25939423 0.24674085 0.53776848
0.15987165 0.15207304 0.33144122
0.07302719 0.06946489 0.15139784
0.00911709 0.00867236 0.01890129
0.06248998 0.05944169 0.12955239
0.14623860 0.13910501 0.30317757
0.24489047 0.23294458 0.50769973
0.34297311 0.32624272 0.71104181
0.14279875 0.13583295 0.29604617
0.24117647 0.22941177 0.50000000
0.33955419 0.32299057 0.70395380
0.42245945 0.40185168 0.87583059
0.47441974 0.45127732 0.98355317
0.33611435 0.31971854 0.69682240
0.41986296 0.39938185 0.87044758
0.47323585 0.45015118 0.98109871
0.46413511 0.44149438 0.96223134
0.40214846 0.38253143 0.83372235
0.47198990 0.44896600 0.97851562
0.46570599 0.44298860 0.96548802
0.40499672 0.38524079 0.83962739
0.31701660 0.30155239 0.65722954
0.21723805 0.20664108 0.45037159
0.40780810 0.38791502 0.84545583
0.32055712 0.30492017 0.66456962
0.22093849 0.21016100 0.45804319
0.12442470 0.11835521 0.25795364
0.04648824 0.04422052 0.09637807
0.02489902 0.02368444 0.05161993
0.09167830 0.08720618 0.19006476
0.18293409 0.17401049 0.37925360
0.28319395 0.26937959 0.58710939
0.37698534 0.35859582 0.78155500
0.17932259 0.17057514 0.37176633
0.27952531 0.26588994 0.57950372
0.37382883 0.35559329 0.77501100
0.44676068 0.42496747 0.92621118
0.48178747 0.45828563 0.99882770
0.37064341 0.35256323 0.76840705
0.44463563 0.42294610 0.92180556
0.48235294 0.45882353 1.00000000
0.44463563 0.42294610 0.92180556
0.37064341 0.35256323 0.76840705
0.48178747 0.45828563 0.99882770
0.44676068 0.42496747 0.92621118
0.37382883 0.35559329 0.77501100
0.27952531 0.26588994 0.57950372
0.17932259 0.17057514 0.37176633
0.37698534 0.35859582 0.78155500
0.28319395 0.26937959 0.58710939
0.18293409 0.17401049 0.37925360
0.09167830 0.08720618 0.19006476
0.02489902 0.02368444 0.05161993
0.04648824 0.04422052 0.09637807
0.12442470 0.11835521 0.25795364
0.22093849 0.21016100 0.45804319
0.32055712 0.30492017 0.66456962
0.40780810 0.38791502 0.84545583
0.21723805 0.20664108 0.45037159
0.31701660 0.30155239 0.65722954
0.40499672 0.38524079 0.83962739
0.46570599 0.44298860 0.96548802
0.47198990 0.44896600 0.97851562
0.40214846 0.38253143 0.83372235
0.46413511 0.44149438 0.96223134
0.47323585 0.45015118 0.98109871
0.41986296 0.39938185 0.87044758
0.33611435 0.31971854 0.69682240
0.47441974 0.45127732 0.98355317
0.42245945 0.40185168 0.87583059
0.33955419 0.32299057 0.70395380
0.24117647 0.22941177 0.50000000
0.14279875 0.13583295 0.29604617
0.34297311 0.32624272 0.71104181
0.24489047 0.23294458 0.50769973
0.14623860 0.13910501 0.30317757
0.06248998 0.05944169 0.12955239
0.00911709 0.00867236 0.01890129
0.07302719 0.06946489 0.15139784
0.15987165 0.15207304 0.33144122
0.25939423 0.24674085 0.53776848
0.35612243 0.33875060 0.73830259
0.43458381 0.41338462 0.90096647
0.25568762 0.24321505 0.53008407
0.35279277 0.33558339 0.73139966
0.43220031 0.41111737 0.89602506
0.47843778 0.45509934 0.99188322
0.45561022 0.43338534 0.94455779
0.42977193 0.40880746 0.89099061
0.47750384 0.45421097 0.98994696
0.45745391 0.43513909 0.94838005
0.39067465 0.37161735 0.80993521
0.29941884 0.28481305 0.62074637
0.45924354 0.43684143 0.95209026
0.39365983 0.37445691 0.81612402
0.30303037 0.28824839 0.62823367
0.20282763 0.19293360 0.42049631
0.10852411 0.10323025 0.22498900
0.30662891 0.29167140 0.63569409
0.20650424 0.19643086 0.42811856
0.11170955 0.10626030 0.23159297
0.03771731 0.03587744 0.07819442
0.00000000 0.00000000 0.00000000
