Jingled X/Jingled X.cube
# VEGAS Pro LUT
TITLE "Jingled X"
LUT_3D_SIZE 33
1.00000000 0.00000000 0.00000000
1.00000000 0.00435957 0.00456519
1.00000000 0.00993719 0.01074400
1.00000000 0.01669370 0.01847378
1.00000000 0.02458994 0.02769188
1.00000000 0.03358676 0.03833564
1.00000000 0.04364499 0.05034242
1.00000000 0.05472549 0.06364956
1.00000000 0.06678909 0.07819442
1.00000000 0.07979663 0.09391434
1.00000000 0.09370898 0.11074668
1.00000000 0.10848696 0.12862878
1.00000000 0.12409142 0.14749800
1.00000000 0.14048320 0.16729167
1.00000000 0.15762314 0.18794715
1.00000000 0.17547210 0.20940180
1.00000000 0.19399090 0.23159297
1.00000000 0.21314040 0.25445798
1.00000000 0.23288144 0.27793419
1.00000000 0.25317487 0.30195901
1.00000000 0.27398151 0.32646969
1.00000000 0.29526225 0.35140365
1.00000000 0.31697789 0.37669820
1.00000000 0.33908927 0.40229073
1.00000000 0.36155728 0.42811856
1.00000000 0.38434270 0.45411903
1.00000000 0.40740642 0.48022950
1.00000000 0.43070927 0.50638735
1.00000000 0.45421210 0.53252989
1.00000000 0.47787574 0.55859447
1.00000000 0.50166106 0.58451849
1.00000000 0.52552885 0.61023927
1.00000000 0.54944003 0.63569409
1.00000000 0.00971087 0.01048883
1.00000000 0.01642470 0.01816265
1.00000000 0.02427971 0.02732711
1.00000000 0.03323672 0.03791953
1.00000000 0.04325660 0.04987727
1.00000000 0.05430019 0.06313769
1.00000000 0.06632831 0.07763812
1.00000000 0.07930183 0.09331592
1.00000000 0.09318158 0.11010845
1.00000000 0.10792840 0.12795304
1.00000000 0.12350315 0.14678705
1.00000000 0.13986665 0.16654782
1.00000000 0.15697977 0.18717271
1.00000000 0.17480333 0.20859908
1.00000000 0.19329819 0.23076424
1.00000000 0.21242519 0.25360557
1.00000000 0.23214516 0.27706042
1.00000000 0.25241897 0.30106616
1.00000000 0.27320743 0.32556006
1.00000000 0.29447141 0.35047957
1.00000000 0.31617174 0.37576199
1.00000000 0.33826926 0.40134463
1.00000000 0.36072481 0.42716491
1.00000000 0.38349926 0.45316017
1.00000000 0.40655345 0.47926769
1.00000000 0.42984819 0.50542492
1.00000000 0.45334435 0.53156912
1.00000000 0.47700277 0.55763769
1.00000000 0.50078428 0.58356798
1.00000000 0.52464974 0.60929734
1.00000000 0.54856002 0.63476306
1.00000000 0.57247591 0.65990257
1.00000000 0.59635824 0.68465316
1.00000000 0.02397096 0.02696427
1.00000000 0.03288813 0.03750527
1.00000000 0.04286960 0.04941389
1.00000000 0.05387621 0.06262749
1.00000000 0.06586882 0.07708342
1.00000000 0.07880825 0.09271902
1.00000000 0.09265535 0.10947164
1.00000000 0.10737097 0.12727863
1.00000000 0.12291595 0.14607735
1.00000000 0.13925113 0.16580515
1.00000000 0.15633737 0.18639936
1.00000000 0.17413549 0.20779733
1.00000000 0.19260634 0.22993644
1.00000000 0.21171077 0.25275400
1.00000000 0.23140962 0.27618739
1.00000000 0.25166374 0.30017397
1.00000000 0.27243397 0.32465103
1.00000000 0.29368114 0.34955600
1.00000000 0.31536612 0.37482613
1.00000000 0.33744973 0.40039888
1.00000000 0.35989282 0.42621154
1.00000000 0.38265622 0.45220143
1.00000000 0.40570080 0.47830597
1.00000000 0.42898738 0.50446242
1.00000000 0.45247683 0.53060824
1.00000000 0.47612998 0.55668074
1.00000000 0.49990767 0.58261722
1.00000000 0.52377075 0.60835505
1.00000000 0.54768002 0.63383162
1.00000000 0.57159638 0.65898418
1.00000000 0.59548068 0.68375021
1.00000000 0.61929375 0.70806700
1.00000000 0.64299637 0.73187190
1.00000000 0.04248399 0.04895228
1.00000000 0.05345358 0.06211898
1.00000000 0.06541060 0.07653031
1.00000000 0.07831589 0.09212362
1.00000000 0.09213030 0.10883626
1.00000000 0.10681466 0.12660557
1.00000000 0.12232982 0.14536892
1.00000000 0.13863662 0.16506363
1.00000000 0.15569592 0.18562709
1.00000000 0.17346855 0.20699660
1.00000000 0.19191535 0.22910956
1.00000000 0.21099716 0.25190327
1.00000000 0.23067483 0.27531511
1.00000000 0.25090921 0.29928243
1.00000000 0.27166116 0.32374257
1.00000000 0.29289147 0.34863290
1.00000000 0.31456104 0.37389073
1.00000000 0.33663067 0.39945343
1.00000000 0.35906121 0.42525837
1.00000000 0.38181356 0.45124286
1.00000000 0.40484849 0.47734427
1.00000000 0.42812687 0.50349998
1.00000000 0.45160952 0.52964729
1.00000000 0.47525737 0.55572355
1.00000000 0.49903116 0.58166617
1.00000000 0.52289176 0.60741240
1.00000000 0.54680008 0.63289970
1.00000000 0.57071686 0.65806532
1.00000000 0.59460306 0.68284667
1.00000000 0.61841941 0.70718110
1.00000000 0.64212680 0.73100597
1.00000000 0.66568607 0.75425857
1.00000000 0.68905813 0.77687627
1.00000000 0.06495367 0.07597880
1.00000000 0.07782476 0.09152973
1.00000000 0.09160642 0.10820230
1.00000000 0.10625947 0.12593386
1.00000000 0.12174476 0.14466174
1.00000000 0.13802314 0.16432330
1.00000000 0.15505545 0.18485589
1.00000000 0.17280252 0.20619687
1.00000000 0.19122522 0.22828358
1.00000000 0.21028435 0.25105336
1.00000000 0.22994080 0.27444360
1.00000000 0.25015542 0.29839158
1.00000000 0.27088898 0.32283470
1.00000000 0.29210240 0.34771031
1.00000000 0.31375650 0.37295574
1.00000000 0.33581212 0.39850834
1.00000000 0.35823008 0.42430547
1.00000000 0.38097125 0.45028445
1.00000000 0.40399650 0.47638270
1.00000000 0.42726660 0.50253749
1.00000000 0.45074245 0.52868623
1.00000000 0.47438490 0.55476624
1.00000000 0.49815476 0.58071482
1.00000000 0.52201289 0.60646945
1.00000000 0.54592013 0.63196737
1.00000000 0.56983727 0.65714592
1.00000000 0.59372526 0.68194252
1.00000000 0.61754489 0.70629448
1.00000000 0.64125699 0.73013920
1.00000000 0.66482246 0.75341398
1.00000000 0.68820202 0.77605617
1.00000000 0.71135664 0.79800308
1.00000000 0.73424709 0.81919217
1.00000000 0.09108372 0.10756978
1.00000000 0.10570541 0.12526348
1.00000000 0.12116078 0.14395583
1.00000000 0.13741067 0.16358416
1.00000000 0.15441594 0.18408582
1.00000000 0.17213741 0.20539816
1.00000000 0.19053593 0.22745854
1.00000000 0.20957236 0.25020432
1.00000000 0.22920753 0.27357280
1.00000000 0.24940228 0.29750139
1.00000000 0.27011746 0.32192740
1.00000000 0.29131392 0.34678820
1.00000000 0.31295252 0.37202114
1.00000000 0.33499405 0.39756355
1.00000000 0.35739937 0.42335281
1.00000000 0.38012937 0.44932622
1.00000000 0.40314484 0.47542116
1.00000000 0.42640662 0.50157499
1.00000000 0.44987562 0.52772504
1.00000000 0.47351262 0.55380869
1.00000000 0.49727848 0.57976323
1.00000000 0.52113402 0.60552609
1.00000000 0.54504019 0.63103455
1.00000000 0.56895769 0.65622598
1.00000000 0.59284741 0.68103778
1.00000000 0.61667025 0.70540720
1.00000000 0.64038700 0.72927171
1.00000000 0.66395855 0.75256854
1.00000000 0.68734568 0.77523512
1.00000000 0.71050924 0.79720873
1.00000000 0.73341012 0.81842679
1.00000000 0.75600916 0.83882660
1.00000000 0.77826715 0.85834557
1.00000000 0.12057786 0.14325118
1.00000000 0.13679923 0.16284618
1.00000000 0.15377739 0.18331683
1.00000000 0.17147321 0.20460045
1.00000000 0.18984753 0.22663443
1.00000000 0.20886117 0.24935609
1.00000000 0.22847502 0.27270278
1.00000000 0.24864988 0.29661188
1.00000000 0.26934659 0.32102072
1.00000000 0.29052606 0.34586662
1.00000000 0.31214905 0.37108698
1.00000000 0.33417645 0.39661911
1.00000000 0.35656911 0.42240039
1.00000000 0.37928784 0.44836813
1.00000000 0.40229350 0.47445974
1.00000000 0.42554694 0.50061250
1.00000000 0.44900897 0.52676380
1.00000000 0.47264048 0.55285102
1.00000000 0.49640232 0.57881141
1.00000000 0.52025527 0.60458243
1.00000000 0.54416025 0.63010138
1.00000000 0.56807804 0.65530556
1.00000000 0.59196949 0.68013245
1.00000000 0.61579549 0.70451927
1.00000000 0.63951683 0.72840339
1.00000000 0.66309440 0.75172222
1.00000000 0.68648899 0.77441311
1.00000000 0.70966148 0.79641330
1.00000000 0.73257273 0.81766027
1.00000000 0.75518358 0.83809131
1.00000000 0.77745479 0.85764378
1.00000000 0.79934728 0.87625504
1.00000000 0.82082194 0.89386243
1.00000000 0.15313981 0.18254894
1.00000000 0.17080992 0.20380376
1.00000000 0.18915997 0.22581124
1.00000000 0.20815080 0.24850872
1.00000000 0.22774325 0.27183354
1.00000000 0.24789818 0.29572305
1.00000000 0.26857641 0.32011458
1.00000000 0.28973877 0.34494555
1.00000000 0.31134614 0.37015322
1.00000000 0.33335936 0.39567500
1.00000000 0.35573927 0.42144823
1.00000000 0.37844670 0.44741023
1.00000000 0.40144250 0.47349837
1.00000000 0.42468750 0.49965000
1.00000000 0.44814259 0.52580249
1.00000000 0.47176856 0.55189312
1.00000000 0.49552628 0.57785934
1.00000000 0.51937658 0.60363841
1.00000000 0.54328030 0.62916774
1.00000000 0.56719834 0.65438461
1.00000000 0.59109145 0.67922646
1.00000000 0.61492056 0.70363057
1.00000000 0.63864642 0.72753435
1.00000000 0.66222996 0.75087512
1.00000000 0.68563199 0.77359015
1.00000000 0.70881337 0.79561692
1.00000000 0.73173493 0.81689268
1.00000000 0.75435752 0.83735490
1.00000000 0.77664191 0.85694075
1.00000000 0.79854906 0.87558776
1.00000000 0.82003975 0.89323318
1.00000000 0.84107482 0.90981436
1.00000000 0.86161518 0.92526865
1.00000000 0.18847330 0.22498900
1.00000000 0.20744124 0.24766220
1.00000000 0.22701226 0.27096504
1.00000000 0.24714717 0.29483488
1.00000000 0.26780686 0.31920907
1.00000000 0.28895211 0.34402496
1.00000000 0.31054381 0.36921990
1.00000000 0.33254278 0.39473122
1.00000000 0.35490990 0.42049631
1.00000000 0.37760597 0.44645247
1.00000000 0.40059185 0.47253710
1.00000000 0.42382839 0.49868751
1.00000000 0.44727641 0.52484107
1.00000000 0.47089681 0.55093509
1.00000000 0.49465036 0.57690698
1.00000000 0.51849794 0.60269403
1.00000000 0.54240042 0.62823367
1.00000000 0.56631857 0.65346318
1.00000000 0.59021336 0.67831993
1.00000000 0.61404550 0.70274127
1.00000000 0.63777584 0.72666454
1.00000000 0.66136533 0.75002712
1.00000000 0.68477476 0.77276629
1.00000000 0.70796490 0.79481947
1.00000000 0.73089671 0.81612402
1.00000000 0.75353098 0.83661723
1.00000000 0.77582854 0.85623646
1.00000000 0.79775023 0.87491912
1.00000000 0.81925696 0.89260244
1.00000000 0.84030950 0.90922391
1.00000000 0.86086875 0.92472082
1.00000000 0.88089550 0.93903047
1.00000000 0.90035057 0.95209026
1.00000000 0.22628202 0.27009732
1.00000000 0.24639688 0.29394740
1.00000000 0.26703796 0.31830415
1.00000000 0.28816605 0.34310490
1.00000000 0.30974200 0.36828700
1.00000000 0.33172670 0.39378780
1.00000000 0.35408095 0.41954467
1.00000000 0.37676561 0.44549492
1.00000000 0.39974153 0.47157592
1.00000000 0.42296955 0.49772501
1.00000000 0.44641051 0.52387953
1.00000000 0.47002524 0.54997689
1.00000000 0.49377459 0.57595438
1.00000000 0.51761943 0.60174936
1.00000000 0.54152054 0.62729919
1.00000000 0.56543887 0.65254122
1.00000000 0.58933514 0.67741281
1.00000000 0.61317027 0.70185125
1.00000000 0.63690507 0.72579396
1.00000000 0.66050047 0.74917829
1.00000000 0.68391716 0.77194154
1.00000000 0.70711613 0.79402107
1.00000000 0.73005807 0.81535423
1.00000000 0.75270402 0.83587837
1.00000000 0.77501464 0.85553092
1.00000000 0.79695088 0.87424910
1.00000000 0.81847358 0.89197034
1.00000000 0.83954352 0.90863198
1.00000000 0.86012155 0.92417133
1.00000000 0.88016862 0.93852580
1.00000000 0.89964545 0.95163268
1.00000000 0.91851294 0.96342933
1.00000000 0.93673187 0.97385317
1.00000000 0.26626971 0.31739983
1.00000000 0.28738058 0.34218538
1.00000000 0.30894077 0.36735454
1.00000000 0.33091110 0.39284474
1.00000000 0.35325247 0.41859329
1.00000000 0.37592566 0.44453752
1.00000000 0.39889157 0.47061482
1.00000000 0.42211100 0.49676251
1.00000000 0.44554481 0.52291799
1.00000000 0.46915382 0.54901850
1.00000000 0.49289894 0.57500154
1.00000000 0.51674092 0.60080433
1.00000000 0.54064071 0.62636429
1.00000000 0.56455904 0.65161878
1.00000000 0.58845687 0.67650509
1.00000000 0.61229491 0.70096058
1.00000000 0.63603413 0.72492266
1.00000000 0.65963531 0.74832863
1.00000000 0.68305928 0.77111578
1.00000000 0.70626694 0.79322159
1.00000000 0.72921908 0.81458336
1.00000000 0.75187659 0.83513838
1.00000000 0.77420026 0.85482407
1.00000000 0.79615098 0.87357777
1.00000000 0.81768954 0.89133680
1.00000000 0.83877683 0.90803850
1.00000000 0.85937369 0.92362028
1.00000000 0.87944096 0.93801939
1.00000000 0.89893943 0.95117331
1.00000000 0.91783005 0.96301931
1.00000000 0.93607360 0.97349471
1.00000000 0.95363086 0.98253697
1.00000000 0.97046280 0.99008328
1.00000000 0.30814007 0.36642253
1.00000000 0.33009604 0.39190200
1.00000000 0.35242441 0.41764215
1.00000000 0.37508610 0.44358030
1.00000000 0.39804193 0.46965382
1.00000000 0.42125273 0.49580005
1.00000000 0.44467935 0.52195632
1.00000000 0.46828261 0.54806000
1.00000000 0.49202341 0.57404846
1.00000000 0.51586252 0.59985900
1.00000000 0.53976089 0.62542903
1.00000000 0.56367922 0.65069580
1.00000000 0.58757848 0.67559677
1.00000000 0.61141944 0.70006925
1.00000000 0.63516301 0.72405058
1.00000000 0.65876997 0.74747807
1.00000000 0.68220115 0.77028918
1.00000000 0.70541745 0.79242116
1.00000000 0.72837967 0.81381136
1.00000000 0.75104868 0.83439720
1.00000000 0.77338535 0.85411596
1.00000000 0.79535049 0.87290508
1.00000000 0.81690490 0.89070177
1.00000000 0.83800948 0.90744352
1.00000000 0.85862505 0.92306757
1.00000000 0.87871253 0.93751138
1.00000000 0.89823264 0.95071220
1.00000000 0.91714633 0.96260738
1.00000000 0.93541431 0.97313434
1.00000000 0.95299757 0.98223042
1.00000000 0.96985692 0.98983288
1.00000000 0.98595309 0.99587917
0.99745542 1.00000000 0.99934745
1.00000000 0.35159683 0.41669130
1.00000000 0.37424695 0.44262329
1.00000000 0.39719266 0.46869293
1.00000000 0.42039475 0.49483758
1.00000000 0.44381413 0.52099460
1.00000000 0.46741161 0.54710132
1.00000000 0.49114802 0.57309514
1.00000000 0.51498425 0.59891331
1.00000000 0.53888106 0.62449330
1.00000000 0.56279939 0.64977235
1.00000000 0.58670002 0.67468792
1.00000000 0.61054385 0.69917727
1.00000000 0.63429165 0.72317773
1.00000000 0.65790433 0.74662673
1.00000000 0.68134266 0.76946163
1.00000000 0.70456761 0.79161966
1.00000000 0.72753984 0.81303829
1.00000000 0.75022036 0.83365482
1.00000000 0.77256995 0.85340661
1.00000000 0.79454941 0.87223101
1.00000000 0.81611967 0.89006537
1.00000000 0.83724147 0.90684700
1.00000000 0.85787576 0.92251331
1.00000000 0.87798333 0.93700165
1.00000000 0.89752501 0.95024925
1.00000000 0.91646171 0.96219361
1.00000000 0.93475413 0.97277206
1.00000000 0.95236331 0.98192185
1.00000000 0.96924990 0.98958039
1.00000000 0.98537493 0.99568504
0.99857843 1.00000000 0.99963945
0.96623403 1.00000000 0.98903835
0.93036002 1.00000000 0.97315770
1.00000000 0.39634371 0.46773213
1.00000000 0.41953707 0.49387515
1.00000000 0.44294915 0.52003282
1.00000000 0.46654075 0.54614252
1.00000000 0.49027276 0.57214159
1.00000000 0.51410598 0.59796733
1.00000000 0.53800130 0.62355715
1.00000000 0.56191951 0.64884841
1.00000000 0.58582151 0.67377841
1.00000000 0.60966814 0.69828457
1.00000000 0.63342017 0.72230417
1.00000000 0.65703851 0.74577457
1.00000000 0.68048394 0.76863313
1.00000000 0.70371741 0.79081720
1.00000000 0.72669965 0.81226414
1.00000000 0.74939162 0.83291131
1.00000000 0.77175403 0.85269600
1.00000000 0.79374784 0.87155563
1.00000000 0.81533378 0.88942754
1.00000000 0.83647281 0.90624899
1.00000000 0.85712576 0.92195743
1.00000000 0.87725335 0.93649018
1.00000000 0.89681655 0.94978464
1.00000000 0.91577619 0.96177804
1.00000000 0.93409306 0.97240782
1.00000000 0.95172805 0.98161125
1.00000000 0.96864194 0.98932582
1.00000000 0.98479563 0.99548870
0.99969608 1.00000000 0.99992377
0.96748883 1.00000000 0.98952430
0.93173790 1.00000000 0.97383100
0.89282429 1.00000000 0.95322901
0.85112888 1.00000000 0.92810333
1.00000000 0.44208440 0.51907092
1.00000000 0.46567011 0.54518354
1.00000000 0.48939764 0.57118773
1.00000000 0.51322788 0.59702104
1.00000000 0.53712159 0.62262064
1.00000000 0.56103963 0.64792401
1.00000000 0.58494294 0.67286843
1.00000000 0.60879225 0.69739127
1.00000000 0.63254845 0.72142982
1.00000000 0.65617239 0.74492157
1.00000000 0.67962492 0.76780379
1.00000000 0.70286685 0.79001379
1.00000000 0.72585905 0.81148893
1.00000000 0.74856240 0.83216661
1.00000000 0.77093762 0.85198414
1.00000000 0.79294568 0.87087893
1.00000000 0.81454736 0.88878828
1.00000000 0.83570349 0.90564948
1.00000000 0.85637498 0.92140001
1.00000000 0.87652266 0.93597710
1.00000000 0.89610732 0.94931817
1.00000000 0.91508985 0.96136057
1.00000000 0.93343103 0.97204161
1.00000000 0.95109177 0.98129869
1.00000000 0.96803290 0.98906910
1.00000000 0.98421526 0.99529022
1.00000000 0.99959970 0.99989939
0.96873879 1.00000000 0.99000305
0.93311149 1.00000000 0.97449768
0.89430749 1.00000000 0.95406944
0.85270774 1.00000000 0.92910337
0.80869299 1.00000000 0.89998448
0.76264429 1.00000000 0.86709780
1.00000000 0.48852268 0.57023370
1.00000000 0.51234978 0.59607440
1.00000000 0.53624189 0.62168372
1.00000000 0.56015974 0.64699906
1.00000000 0.58406425 0.67195779
1.00000000 0.60791624 0.69649726
1.00000000 0.63167661 0.72055477
1.00000000 0.65530610 0.74406773
1.00000000 0.67876559 0.76697350
1.00000000 0.70201600 0.78920931
1.00000000 0.72501808 0.81071264
1.00000000 0.74773270 0.83142078
1.00000000 0.77012074 0.85127103
1.00000000 0.79214299 0.87020087
1.00000000 0.81376028 0.88814759
1.00000000 0.83493352 0.90504849
1.00000000 0.85562354 0.92084098
1.00000000 0.87579119 0.93546236
1.00000000 0.89539725 0.94885004
1.00000000 0.91440260 0.96094126
1.00000000 0.93276811 0.97167355
1.00000000 0.95045459 0.98098409
1.00000000 0.96742284 0.98881030
1.00000000 0.98363382 0.99508953
1.00000000 0.99904829 0.99975914
0.96998399 1.00000000 0.99047458
0.93448085 1.00000000 0.97515768
0.89578694 1.00000000 0.95490378
0.85428327 1.00000000 0.93009782
0.81035066 1.00000000 0.90112484
0.76437002 1.00000000 0.86836994
0.71672225 1.00000000 0.83221817
0.66778827 1.00000000 0.79305446
1.00000000 0.53536218 0.62074637
1.00000000 0.55927980 0.64607370
1.00000000 0.58318549 0.67104661
1.00000000 0.60704017 0.69560266
1.00000000 0.63080454 0.71967900
1.00000000 0.65443957 0.74321312
1.00000000 0.67790604 0.76614225
1.00000000 0.70116478 0.78840387
1.00000000 0.72417670 0.80993521
1.00000000 0.74690259 0.83067375
1.00000000 0.76930332 0.85055673
1.00000000 0.79133970 0.86952150
1.00000000 0.81297266 0.88750547
1.00000000 0.83416289 0.90444595
1.00000000 0.85487139 0.92028034
1.00000000 0.87505895 0.93494594
1.00000000 0.89468634 0.94838005
1.00000000 0.91371447 0.96052015
1.00000000 0.93210423 0.97130352
1.00000000 0.94981641 0.98066747
1.00000000 0.96681178 0.98854941
1.00000000 0.98305130 0.99488664
1.00000000 0.99849582 0.99961656
0.97122437 1.00000000 0.99093896
0.93584585 1.00000000 0.97581100
0.89726257 1.00000000 0.95573187
0.85585552 1.00000000 0.93108660
0.81200552 1.00000000 0.90226012
0.76609343 1.00000000 0.86963755
0.71850026 1.00000000 0.83360386
0.66960686 1.00000000 0.79454416
0.61979413 1.00000000 0.75284344
0.56944293 1.00000000 0.70888680
1.00000000 0.58230668 0.67013490
1.00000000 0.60616392 0.69470733
1.00000000 0.62993234 0.71880245
1.00000000 0.65357280 0.74235761
1.00000000 0.67704612 0.76531017
1.00000000 0.70031327 0.78759742
1.00000000 0.72333491 0.80915678
1.00000000 0.74607205 0.82992554
1.00000000 0.76848543 0.84984112
1.00000000 0.79053593 0.86884081
1.00000000 0.81218439 0.88686198
1.00000000 0.83339167 0.90384197
1.00000000 0.85411853 0.91971815
1.00000000 0.87432593 0.93442780
1.00000000 0.89397466 0.94790840
1.00000000 0.91302556 0.96009719
1.00000000 0.93143946 0.97093153
1.00000000 0.94917721 0.98034883
1.00000000 0.96619970 0.98828644
1.00000000 0.98246771 0.99468160
1.00000000 0.99794215 0.99947178
0.97245985 1.00000000 0.99139607
0.93720651 1.00000000 0.97645766
0.89873439 1.00000000 0.95655388
0.85742450 1.00000000 0.93206972
0.81365758 1.00000000 0.90339023
0.76781464 1.00000000 0.87090051
0.72027659 1.00000000 0.83498549
0.67142427 1.00000000 0.79603028
0.62163860 1.00000000 0.75441992
0.57130045 1.00000000 0.71053946
0.52079082 1.00000000 0.66477382
0.47049052 1.00000000 0.61750817
1.00000000 0.62905991 0.71792519
1.00000000 0.65270579 0.74150133
1.00000000 0.67618597 0.76447713
1.00000000 0.69946140 0.78679001
1.00000000 0.72249281 0.80837727
1.00000000 0.74524105 0.82917625
1.00000000 0.76766706 0.84912425
1.00000000 0.78973156 0.86815876
1.00000000 0.81139553 0.88621706
1.00000000 0.83261973 0.90323645
1.00000000 0.85336494 0.91915435
1.00000000 0.87359214 0.93390805
1.00000000 0.89326215 0.94743496
1.00000000 0.91233569 0.95967239
1.00000000 0.93077374 0.97055769
1.00000000 0.94853711 0.98002821
1.00000000 0.96558660 0.98802131
1.00000000 0.98188305 0.99447441
1.00000000 0.99738735 0.99932468
0.97369045 1.00000000 0.99184597
0.93856281 1.00000000 0.97709757
0.90020239 1.00000000 0.95736963
0.85899013 1.00000000 0.93304718
0.81530684 1.00000000 0.90451521
0.76953357 1.00000000 0.87215883
0.72205108 1.00000000 0.83636302
0.67324036 1.00000000 0.79751283
0.62348229 1.00000000 0.75599331
0.57315773 1.00000000 0.71218950
0.52264768 1.00000000 0.66648644
0.47233289 1.00000000 0.61926913
0.42259443 1.00000000 0.57092261
0.37381309 1.00000000 0.52183199
1.00000000 0.67532557 0.76364326
1.00000000 0.69860917 0.78598160
1.00000000 0.72165024 0.80759662
1.00000000 0.74440962 0.82842571
1.00000000 0.76684815 0.84840620
1.00000000 0.78892672 0.86747539
1.00000000 0.81060606 0.88557070
1.00000000 0.83184713 0.90262944
1.00000000 0.85261071 0.91858894
1.00000000 0.87285763 0.93338662
1.00000000 0.89254880 0.94695973
1.00000000 0.91164505 0.95924574
1.00000000 0.93010712 0.97018188
1.00000000 0.94789600 0.97970557
1.00000000 0.96497244 0.98775417
1.00000000 0.98129731 0.99426502
1.00000000 0.99683148 0.99917537
0.97491622 1.00000000 0.99228859
0.93991476 1.00000000 0.97773075
0.90166652 1.00000000 0.95817918
0.86055237 1.00000000 0.93401891
0.81695330 1.00000000 0.90563500
0.77125013 1.00000000 0.87341249
0.72382379 1.00000000 0.83773637
0.67505521 1.00000000 0.79899174
0.62532520 1.00000000 0.75756365
0.57501477 1.00000000 0.71383703
0.52450478 1.00000000 0.66819704
0.47417608 1.00000000 0.62102860
0.42440963 1.00000000 0.57271683
0.37558633 1.00000000 0.52364671
0.32808706 1.00000000 0.47420332
0.28229275 1.00000000 0.42477170
1.00000000 0.72080731 0.80681497
1.00000000 0.74357778 0.82767409
1.00000000 0.76602882 0.84768689
1.00000000 0.78812128 0.86679071
1.00000000 0.80981606 0.88492298
1.00000000 0.83107388 0.90202093
1.00000000 0.85185575 0.91802204
1.00000000 0.87212241 0.93286353
1.00000000 0.89183468 0.94648284
1.00000000 0.91095346 0.95881730
1.00000000 0.92943960 0.96980423
1.00000000 0.94725394 0.97938097
1.00000000 0.96435732 0.98748493
1.00000000 0.98071051 0.99405342
1.00000000 0.99627441 0.99902380
0.97613704 1.00000000 0.99272394
0.94126230 1.00000000 0.97835714
0.90312672 1.00000000 0.95898247
0.86211133 1.00000000 0.93498492
0.81859690 1.00000000 0.90674961
0.77296436 1.00000000 0.87466145
0.72559470 1.00000000 0.83910561
0.67686874 1.00000000 0.80046707
0.62716734 1.00000000 0.75913084
0.57687151 1.00000000 0.71548200
0.52636212 1.00000000 0.66990554
0.47602001 1.00000000 0.62278652
0.42622614 1.00000000 0.57450998
0.37736139 1.00000000 0.52546096
0.32980666 1.00000000 0.47602448
0.28394288 1.00000000 0.42658556
0.24015090 1.00000000 0.37752929
0.19881168 1.00000000 0.32924068
1.00000000 0.76520896 0.84696639
1.00000000 0.78731531 0.86610478
1.00000000 0.80902541 0.88427383
1.00000000 0.83030003 0.90141100
1.00000000 0.85110009 0.91745353
1.00000000 0.87138641 0.93233877
1.00000000 0.89111978 0.94600415
1.00000000 0.91026109 0.95838702
1.00000000 0.92877120 0.96942461
1.00000000 0.94661093 0.97905439
1.00000000 0.96374112 0.98721361
1.00000000 0.98012263 0.99383974
1.00000000 0.99571627 0.99887002
0.97735292 1.00000000 0.99315202
0.94260538 1.00000000 0.97897679
0.90458310 1.00000000 0.95977950
0.86366683 1.00000000 0.93594521
0.82023764 1.00000000 0.90785897
0.77467626 1.00000000 0.87590575
0.72736377 1.00000000 0.84047067
0.67868090 1.00000000 0.80193871
0.62900871 1.00000000 0.76069492
0.57872796 1.00000000 0.71712428
0.52821970 1.00000000 0.67161191
0.47786468 1.00000000 0.62454283
0.42804387 1.00000000 0.57630205
0.37913820 1.00000000 0.52727467
0.33152854 1.00000000 0.47784561
0.28559577 1.00000000 0.42839998
0.24172086 1.00000000 0.37932280
0.20028464 1.00000000 0.33099911
0.16166805 1.00000000 0.28381395
