Jingled X/Jingled X.cube
# VEGAS Pro LUT
TITLE "Jingled X"
LUT_3D_SIZE 5
1.00000000 0.00000000 0.00000000
1.00000000 0.06678909 0.07819442
1.00000000 0.19399090 0.23159297
1.00000000 0.36155728 0.42811856
1.00000000 0.54944003 0.63569409
1.00000000 0.18847330 0.22498900
1.00000000 0.35490990 0.42049631
1.00000000 0.54240042 0.62823367
1.00000000 0.73089671 0.81612402
1.00000000 0.90035057 0.95209026
1.00000000 0.53536218 0.62074637
1.00000000 0.72417670 0.80993521
1.00000000 0.89468634 0.94838005
0.93584585 1.00000000 0.97581100
0.56944293 1.00000000 0.70888680
1.00000000 0.88897020 0.94455779
0.94660813 1.00000000 0.98079479
0.58429545 1.00000000 0.72203541
0.20472637 1.00000000 0.33628359
0.00292242 1.00000000 0.02067767
0.59912461 1.00000000 0.73501217
0.21673498 1.00000000 0.35043943
0.00493580 1.00000000 0.02876000
0.20003729 1.00000000 0.00000000
0.57621497 1.00000000 0.00000000
1.00000000 0.01706301 0.01890129
1.00000000 0.10925043 0.12955239
1.00000000 0.25420678 0.30317757
1.00000000 0.43188390 0.50769973
1.00000000 0.62223363 0.71104181
1.00000000 0.24817143 0.29604617
1.00000000 0.42500001 0.50000000
1.00000000 0.61523873 0.70395380
1.00000000 0.79883939 0.87583059
1.00000000 0.95575386 0.98355317
1.00000000 0.60823482 0.69682240
1.00000000 0.79243493 0.87044758
1.00000000 0.95068640 0.98109871
0.80974817 1.00000000 0.90071076
0.41649830 1.00000000 0.56488043
1.00000000 0.94555664 0.97851562
0.82291621 1.00000000 0.90966302
0.43102103 1.00000000 0.57923228
0.09622551 1.00000000 0.19697228
0.04299967 1.00000000 0.00000000
0.44562107 1.00000000 0.59351403
0.10526951 1.00000000 0.20966791
0.03592597 1.00000000 0.00000000
0.33577237 1.00000000 0.00000000
0.71788496 1.00000000 0.00000000
1.00000000 0.04471125 0.05161993
1.00000000 0.15938266 0.19006476
1.00000000 0.31917921 0.37925360
1.00000000 0.50405276 0.58710939
1.00000000 0.69395506 0.78155500
1.00000000 0.31273332 0.37176633
1.00000000 0.49703950 0.57950372
1.00000000 0.68711203 0.77501100
1.00000000 0.86290276 0.92621118
0.99092287 1.00000000 0.99752837
1.00000000 0.68024969 0.76840705
1.00000000 0.85692108 0.92180556
1.00000000 1.00000000 1.00000000
0.66464412 1.00000000 0.79047298
0.27289703 1.00000000 0.41439402
1.00000000 0.99556386 0.99882770
0.67917496 1.00000000 0.80233943
0.28604707 1.00000000 0.42889491
0.02437488 1.00000000 0.07878416
0.13744305 1.00000000 0.00000000
0.29937500 1.00000000 0.44342735
0.02941128 1.00000000 0.08896531
0.12682338 1.00000000 0.00000000
0.48346627 1.00000000 0.00000000
0.84017199 1.00000000 0.00000000
1.00000000 0.08183359 0.09637807
1.00000000 0.21607462 0.25795364
1.00000000 0.38779700 0.45804319
1.00000000 0.57695258 0.66456962
1.00000000 0.76349318 0.84545583
1.00000000 0.38104782 0.45037159
1.00000000 0.56991726 0.65722954
1.00000000 0.75690925 0.83962739
1.00000000 0.92197573 0.96548802
0.87917012 1.00000000 0.94531018
1.00000000 0.75029570 0.83372235
1.00000000 0.91652393 0.96223134
0.89120191 1.00000000 0.95230520
0.51134264 1.00000000 0.65602398
0.14944814 1.00000000 0.26835388
0.90299416 1.00000000 0.95890969
0.52619326 1.00000000 0.66975027
0.16018248 1.00000000 0.28194946
0.00471958 1.00000000 0.00000000
0.26208428 1.00000000 0.00000000
0.17119536 1.00000000 0.29567835
0.00043703 1.00000000 0.00000000
0.24907167 1.00000000 0.00000000
0.63116932 1.00000000 0.00000000
0.93112642 1.00000000 0.00000000
1.00000000 0.12731884 0.15139784
1.00000000 0.27821514 0.33144122
1.00000000 0.45894903 0.53776848
1.00000000 0.64947230 0.73830259
1.00000000 0.82973683 0.90096647
1.00000000 0.45200375 0.53008407
1.00000000 0.64252210 0.73139966
1.00000000 0.82351923 0.89602506
1.00000000 0.97494698 0.99188322
0.74272203 1.00000000 0.85220385
1.00000000 0.81726164 0.89099061
1.00000000 0.97013241 0.98994696
0.75666559 1.00000000 0.86266792
0.36065263 1.00000000 0.50828999
0.05696054 1.00000000 0.13768630
0.77047014 1.00000000 0.87284321
0.37478009 1.00000000 0.52282190
0.06423622 1.00000000 0.14932227
0.07431678 1.00000000 0.00000000
0.40497366 1.00000000 0.00000000
0.07189108 1.00000000 0.16119330
0.06577013 1.00000000 0.00000000
0.39072114 1.00000000 0.00000000
0.76693183 1.00000000 0.00000000
0.97879857 1.00000000 0.00000000
