Jingled X/Jingled X.cube
# VEGAS Pro LUT
TITLE "Jingled X"
LUT_3D_SIZE 9
1.00000000 0.00000000 0.00000000
1.00000000 0.02458994 0.02769188
1.00000000 0.06678909 0.07819442
1.00000000 0.12409142 0.14749800
1.00000000 0.19399090 0.23159297
1.00000000 0.27398151 0.32646969
1.00000000 0.36155728 0.42811856
1.00000000 0.45421210 0.53252989
1.00000000 0.54944003 0.63569409
1.00000000 0.06495367 0.07597880
1.00000000 0.12174476 0.14466174
1.00000000 0.19122522 0.22828358
1.00000000 0.27088898 0.32283470
1.00000000 0.35823008 0.42430547
1.00000000 0.45074245 0.52868623
1.00000000 0.54592013 0.63196737
1.00000000 0.64125699 0.73013920
1.00000000 0.73424709 0.81919217
1.00000000 0.18847330 0.22498900
1.00000000 0.26780686 0.31920907
1.00000000 0.35490990 0.42049631
1.00000000 0.44727641 0.52484107
1.00000000 0.54240042 0.62823367
1.00000000 0.63777584 0.72666454
1.00000000 0.73089671 0.81612402
1.00000000 0.81925696 0.89260244
1.00000000 0.90035057 0.95209026
1.00000000 0.35159683 0.41669130
1.00000000 0.44381413 0.52099460
1.00000000 0.53888106 0.62449330
1.00000000 0.63429165 0.72317773
1.00000000 0.72753984 0.81303829
1.00000000 0.81611967 0.89006537
1.00000000 0.89752501 0.95024925
1.00000000 0.96924990 0.98958039
0.93036002 1.00000000 0.97315770
1.00000000 0.53536218 0.62074637
1.00000000 0.63080454 0.71967900
1.00000000 0.72417670 0.80993521
1.00000000 0.81297266 0.88750547
1.00000000 0.89468634 0.94838005
1.00000000 0.96681178 0.98854941
0.93584585 1.00000000 0.97581100
0.76609343 1.00000000 0.86963755
0.56944293 1.00000000 0.70888680
1.00000000 0.72080731 0.80681497
1.00000000 0.80981606 0.88492298
1.00000000 0.89183468 0.94648284
1.00000000 0.96435732 0.98748493
0.94126230 1.00000000 0.97835714
0.77296436 1.00000000 0.87466145
0.57687151 1.00000000 0.71548200
0.37736139 1.00000000 0.52546096
0.19881168 1.00000000 0.32924068
1.00000000 0.88897020 0.94455779
1.00000000 0.96188653 0.98638725
0.94660813 1.00000000 0.98079479
0.77979767 1.00000000 0.87961030
0.58429545 1.00000000 0.72203541
0.38447911 1.00000000 0.53271240
0.20472637 1.00000000 0.33628359
0.06941490 1.00000000 0.15739125
0.00292242 1.00000000 0.02067767
0.95188212 1.00000000 0.98312283
0.78659213 1.00000000 0.88448280
0.59171355 1.00000000 0.72854590
0.39162400 1.00000000 0.53995425
0.21070121 1.00000000 0.34335026
0.07332285 1.00000000 0.16337615
0.00386665 1.00000000 0.02467423
0.06425468 1.00000000 0.00000000
0.20613284 1.00000000 0.00000000
0.59912461 1.00000000 0.73501217
0.39879483 1.00000000 0.54718524
0.21673498 1.00000000 0.35043943
0.07732274 1.00000000 0.16941690
0.00493580 1.00000000 0.02876000
0.06014930 1.00000000 0.00000000
0.20003729 1.00000000 0.00000000
0.38104266 1.00000000 0.00000000
0.57621497 1.00000000 0.00000000
1.00000000 0.00713890 0.00761236
1.00000000 0.03873831 0.04447423
1.00000000 0.08699145 0.10261799
1.00000000 0.14939229 0.17803404
1.00000000 0.22343482 0.26671273
1.00000000 0.30661303 0.36464441
1.00000000 0.39642087 0.46781948
1.00000000 0.49035233 0.57222825
1.00000000 0.58590138 0.67386115
1.00000000 0.08495024 0.10014835
1.00000000 0.14687499 0.17500000
1.00000000 0.22053364 0.26326180
1.00000000 0.30342016 0.36092412
1.00000000 0.39302850 0.46397731
1.00000000 0.48685265 0.56841177
1.00000000 0.58238661 0.67021781
1.00000000 0.67712432 0.76538587
1.00000000 0.76855981 0.84990621
1.00000000 0.21764494 0.25982359
1.00000000 0.30023637 0.35721111
1.00000000 0.38964182 0.46013704
1.00000000 0.48335528 0.56459171
1.00000000 0.57887071 0.66656548
1.00000000 0.67368215 0.76204878
1.00000000 0.76528352 0.84703189
1.00000000 0.85116881 0.91750526
1.00000000 0.92883199 0.96945918
1.00000000 0.38626099 0.45629883
1.00000000 0.47986037 0.56076831
1.00000000 0.57535392 0.66290438
1.00000000 0.67023563 0.75869751
1.00000000 0.76199949 0.84413797
1.00000000 0.84813946 0.91521615
1.00000000 0.92614955 0.96792245
1.00000000 0.99352372 0.99824721
0.86971480 1.00000000 0.93964368
1.00000000 0.57183629 0.65923470
1.00000000 0.66678488 0.75533223
1.00000000 0.75870788 0.84122461
1.00000000 0.84509915 0.91290224
1.00000000 0.92345273 0.96635544
1.00000000 0.99126256 0.99757463
0.87584835 1.00000000 0.94333595
0.69296515 1.00000000 0.81344718
0.49247825 1.00000000 0.63837647
1.00000000 0.75540876 0.83829200
1.00000000 0.84204793 0.91056359
1.00000000 0.92074162 0.96475834
1.00000000 0.98898375 0.99686652
0.88192517 1.00000000 0.94693375
0.70015442 1.00000000 0.81917709
0.49988329 1.00000000 0.64533204
0.30548936 1.00000000 0.45004082
0.14135036 1.00000000 0.25794575
1.00000000 0.91801637 0.96313131
1.00000000 0.98668742 0.99612314
0.88794386 1.00000000 0.95043576
0.70731872 1.00000000 0.82484466
0.50729626 1.00000000 0.65225852
0.31225419 1.00000000 0.45731971
0.14657022 1.00000000 0.26467043
0.03462204 1.00000000 0.09895302
0.01083645 1.00000000 0.00000000
0.89390337 1.00000000 0.95384085
0.71445674 1.00000000 0.83044863
0.51471597 1.00000000 0.65915477
0.31905875 1.00000000 0.46460170
0.15186280 1.00000000 0.27143157
0.03750579 1.00000000 0.10428675
0.00834562 1.00000000 0.00000000
0.11190055 1.00000000 0.00000000
0.27225640 1.00000000 0.00000000
0.52214122 1.00000000 0.66601956
0.32590184 1.00000000 0.47188553
0.15722689 1.00000000 0.27822796
0.04049406 1.00000000 0.10968906
0.00596813 1.00000000 0.00000000
0.10691942 1.00000000 0.00000000
0.26566312 1.00000000 0.00000000
0.45524877 1.00000000 0.00000000
0.64872599 1.00000000 0.00000000
1.00000000 0.01706301 0.01890129
1.00000000 0.05530759 0.06435027
1.00000000 0.10925043 0.12955239
1.00000000 0.17638549 0.21049805
1.00000000 0.25420678 0.30317757
1.00000000 0.34020826 0.40358135
1.00000000 0.43188390 0.50769973
1.00000000 0.52672768 0.61152309
1.00000000 0.62223363 0.71104181
1.00000000 0.10701682 0.12685017
1.00000000 0.17371096 0.20728765
1.00000000 0.25118351 0.29960656
1.00000000 0.33692846 0.39979720
1.00000000 0.42843974 0.50384998
1.00000000 0.52321142 0.60775524
1.00000000 0.61873734 0.70750332
1.00000000 0.71251160 0.79908466
1.00000000 0.80202818 0.87848955
1.00000000 0.24817143 0.29604617
1.00000000 0.33365643 0.39601827
1.00000000 0.42500001 0.50000000
1.00000000 0.51969612 0.60398173
1.00000000 0.61523873 0.70395380
1.00000000 0.70912182 0.79590666
1.00000000 0.79883939 0.87583059
1.00000000 0.88188541 0.93971592
1.00000000 0.95575386 0.98355317
1.00000000 0.42156479 0.49615005
1.00000000 0.51618195 0.60020280
1.00000000 0.61173785 0.70039344
1.00000000 0.70572639 0.79271233
1.00000000 0.79564160 0.87314981
1.00000000 0.87897748 0.93769628
1.00000000 0.95322800 0.98234212
0.96451521 1.00000000 0.98836428
0.80309719 1.00000000 0.89611137
1.00000000 0.60823482 0.69682240
1.00000000 0.70232546 0.78950197
1.00000000 0.79243493 0.87044758
1.00000000 0.87605727 0.93564975
1.00000000 0.95068640 0.98109871
0.96953177 1.00000000 0.99030393
0.80974817 1.00000000 0.90071076
0.61727780 1.00000000 0.75068879
0.41649830 1.00000000 0.56488043
1.00000000 0.78921944 0.86772406
1.00000000 0.87312484 0.93357641
1.00000000 0.94812924 0.97982317
0.97447103 1.00000000 0.99212849
0.81635493 1.00000000 0.90522838
0.62465513 1.00000000 0.75699300
0.42374942 1.00000000 0.57206452
0.23801541 1.00000000 0.37508529
0.09183086 1.00000000 0.19069760
1.00000000 0.94555664 0.97851562
0.97933191 1.00000000 0.99383664
0.82291621 1.00000000 0.90966302
0.63202000 1.00000000 0.76324749
0.43102103 1.00000000 0.57923228
0.24429698 1.00000000 0.38225982
0.09622551 1.00000000 0.19697228
0.01118434 1.00000000 0.04801199
0.04299967 1.00000000 0.00000000
0.82943082 1.00000000 0.91401339
0.63937122 1.00000000 0.76945108
0.43831199 1.00000000 0.58638257
0.25063086 1.00000000 0.38945013
0.10070546 1.00000000 0.20329612
0.01291353 1.00000000 0.05256277
0.03941310 1.00000000 0.00000000
0.16780342 1.00000000 0.00000000
0.34271926 1.00000000 0.00000000
0.44562107 1.00000000 0.59351403
0.25701582 1.00000000 0.39665508
0.10526951 1.00000000 0.20966791
0.01475980 1.00000000 0.05719485
0.03592597 1.00000000 0.00000000
0.16209067 1.00000000 0.00000000
0.33577237 1.00000000 0.00000000
0.53002059 1.00000000 0.00000000
0.71788496 1.00000000 0.00000000
1.00000000 0.02963342 0.03364456
1.00000000 0.07415888 0.08709778
1.00000000 0.13342713 0.15877540
1.00000000 0.20493212 0.24466778
1.00000000 0.28616786 0.34076527
1.00000000 0.37462834 0.44305828
1.00000000 0.46780750 0.54753709
1.00000000 0.56319934 0.65019220
1.00000000 0.65829784 0.74701381
1.00000000 0.13101453 0.15586202
1.00000000 0.20211376 0.24130249
1.00000000 0.28303590 0.33709559
1.00000000 0.37127498 0.43923169
1.00000000 0.46432495 0.54370117
1.00000000 0.55967981 0.64649439
1.00000000 0.65483344 0.74360168
1.00000000 0.74727994 0.83101344
1.00000000 0.83451331 0.90472001
1.00000000 0.27991387 0.33343449
1.00000000 0.36792815 0.43540829
1.00000000 0.46084553 0.53986299
1.00000000 0.55615997 0.64278889
1.00000000 0.65136546 0.74017638
1.00000000 0.74395597 0.82801586
1.00000000 0.83142543 0.90229774
1.00000000 0.91126794 0.95901227
1.00000000 0.98097736 0.99414986
1.00000000 0.45736936 0.53602266
1.00000000 0.55264002 0.63907588
1.00000000 0.64789391 0.73673820
1.00000000 0.74062502 0.82499999
1.00000000 0.82832730 0.89985168
1.00000000 0.90849477 0.95728350
1.00000000 0.97862142 0.99328595
0.90827239 1.00000000 0.96178001
0.73185837 1.00000000 0.84392637
1.00000000 0.64441890 0.73328727
1.00000000 0.73728722 0.82196593
1.00000000 0.82521898 0.89738202
1.00000000 0.90570801 0.95552576
1.00000000 0.97624844 0.99238765
0.91401786 1.00000000 0.96484065
0.73889637 1.00000000 0.84930116
0.54038262 1.00000000 0.68272829
0.34285420 1.00000000 0.48976433
1.00000000 0.82210052 0.89488900
1.00000000 0.90290779 0.95373923
1.00000000 0.97385865 0.99145508
0.91969872 1.00000000 0.96779895
0.74590272 1.00000000 0.85460687
0.54781759 1.00000000 0.68947488
0.34982100 1.00000000 0.49704519
0.17629068 1.00000000 0.30196017
0.05160430 1.00000000 0.12886205
1.00000000 0.97145212 0.99048847
0.92531365 1.00000000 0.97065353
0.75287616 1.00000000 0.85984230
0.55525273 1.00000000 0.69618452
0.35682094 1.00000000 0.50432247
0.18195860 1.00000000 0.30889854
0.05504335 1.00000000 0.13455492
0.00045292 1.00000000 0.00593395
0.08569977 1.00000000 0.00000000
0.75981557 1.00000000 0.86500621
0.56268674 1.00000000 0.70285600
0.36385277 1.00000000 0.51159495
0.18769141 1.00000000 0.31586543
0.05858031 1.00000000 0.14030969
0.00089717 1.00000000 0.00957000
0.08116160 1.00000000 0.00000000
0.23046960 1.00000000 0.00000000
0.41602767 1.00000000 0.00000000
0.37091529 1.00000000 0.51886141
0.19348790 1.00000000 0.32285964
0.06221393 1.00000000 0.14612511
0.00147108 1.00000000 0.01330005
0.07670896 1.00000000 0.00000000
0.22416936 1.00000000 0.00000000
0.40887132 1.00000000 0.00000000
0.60386443 1.00000000 0.00000000
0.78219819 1.00000000 0.00000000
1.00000000 0.04471125 0.05161993
1.00000000 0.09515330 0.11249453
1.00000000 0.15938266 0.19006476
1.00000000 0.23489329 0.28032100
1.00000000 0.31917921 0.37925360
1.00000000 0.40973437 0.48285294
1.00000000 0.50405276 0.58710939
1.00000000 0.59962833 0.68801326
1.00000000 0.69395506 0.78155500
1.00000000 0.15680447 0.18696168
1.00000000 0.23194449 0.27682227
1.00000000 0.31595197 0.37550670
1.00000000 0.40632087 0.47900540
1.00000000 0.50054520 0.58330870
1.00000000 0.59611893 0.68440700
1.00000000 0.69053602 0.77829057
1.00000000 0.78129047 0.86094993
1.00000000 0.86587626 0.92837530
1.00000000 0.31273332 0.37176633
1.00000000 0.40291262 0.47515896
1.00000000 0.49703950 0.57950372
1.00000000 0.59260798 0.68079090
1.00000000 0.68711203 0.77501100
1.00000000 0.77804565 0.85815430
1.00000000 0.86290276 0.92621118
1.00000000 0.93917739 0.97517198
0.99092287 1.00000000 0.99752837
1.00000000 0.49353576 0.57569456
1.00000000 0.58909559 0.67716527
1.00000000 0.68368322 0.77171642
1.00000000 0.77479261 0.85533828
1.00000000 0.85991764 0.92402118
1.00000000 0.93655246 0.97375560
0.99550337 1.00000000 0.99882507
0.84521574 1.00000000 0.92432672
0.65734947 1.00000000 0.78445464
1.00000000 0.68024969 0.76840705
1.00000000 0.77153140 0.85250199
1.00000000 0.85692108 0.92180556
1.00000000 0.93391258 0.97230810
1.00000000 1.00000000 1.00000000
0.85155982 1.00000000 0.92837662
0.66464412 1.00000000 0.79047298
0.46363065 1.00000000 0.61093134
0.27289703 1.00000000 0.41439402
1.00000000 0.85391307 0.91956449
1.00000000 0.93125796 0.97082978
1.00000000 0.99779093 0.99943191
0.85785180 1.00000000 0.93233687
0.67191970 1.00000000 0.79643500
0.47099292 1.00000000 0.61798859
0.27944922 1.00000000 0.42163989
0.12166627 1.00000000 0.23203123
0.02202177 1.00000000 0.07380487
1.00000000 0.99556386 0.99882770
0.86409050 1.00000000 0.93620610
0.67917496 1.00000000 0.80233943
0.47836789 1.00000000 0.62502158
0.28604707 1.00000000 0.42889491
0.12659016 1.00000000 0.23860165
0.02437488 1.00000000 0.07878416
0.02163563 1.00000000 0.00000000
0.13744305 1.00000000 0.00000000
0.68640870 1.00000000 0.80818504
0.48575434 1.00000000 0.63202912
0.29268941 1.00000000 0.43615779
0.13159154 1.00000000 0.24521334
0.02683846 1.00000000 0.08383805
0.01871456 1.00000000 0.00000000
0.13209739 1.00000000 0.00000000
0.29840535 1.00000000 0.00000000
0.49068797 1.00000000 0.00000000
0.29937500 1.00000000 0.44342735
0.13666917 1.00000000 0.25186503
0.02941128 1.00000000 0.08896531
0.01590160 1.00000000 0.00000000
0.12682338 1.00000000 0.00000000
0.29166174 1.00000000 0.00000000
0.48346627 1.00000000 0.00000000
0.67528653 1.00000000 0.00000000
0.84017199 1.00000000 0.00000000
1.00000000 0.06215761 0.07260518
1.00000000 0.11815194 0.14031827
1.00000000 0.18697812 0.22319826
1.00000000 0.26613009 0.31723550
1.00000000 0.35310188 0.41842031
1.00000000 0.44538742 0.52274311
1.00000000 0.54048073 0.62619430
1.00000000 0.63587576 0.72476417
1.00000000 0.72906649 0.81444305
1.00000000 0.18424775 0.21992692
1.00000000 0.26306427 0.31362474
1.00000000 0.34979275 0.41461766
1.00000000 0.44192722 0.51889604
1.00000000 0.53696162 0.62245035
1.00000000 0.63238996 0.72127080
1.00000000 0.72570616 0.81134784
1.00000000 0.81440431 0.88867188
1.00000000 0.89597827 0.94923317
1.00000000 0.34649095 0.41081944
1.00000000 0.43847093 0.51504803
1.00000000 0.53344303 0.61869997
1.00000000 0.62890130 0.71776563
1.00000000 0.72233963 0.80823541
1.00000000 0.81125206 0.88609964
1.00000000 0.89313251 0.94734865
1.00000000 0.96547496 0.98797292
0.93880892 1.00000000 0.97721320
1.00000000 0.52992511 0.61494339
1.00000000 0.62540990 0.71424884
1.00000000 0.71896696 0.80510587
1.00000000 0.80809027 0.88350487
1.00000000 0.89027381 0.94543624
1.00000000 0.96301162 0.98689032
0.94418705 1.00000000 0.97970033
0.77669638 1.00000000 0.87737024
0.58092159 1.00000000 0.71906185
1.00000000 0.71558827 0.80195946
1.00000000 0.80491906 0.88088787
1.00000000 0.88740236 0.94349611
1.00000000 0.96053207 0.98577452
0.94949383 1.00000000 0.98207831
0.78350866 1.00000000 0.88227761
0.58834249 1.00000000 0.72559196
0.38837305 1.00000000 0.53666377
0.20797800 1.00000000 0.34013528
1.00000000 0.88451827 0.94152844
1.00000000 0.95803642 0.98462582
0.95472813 1.00000000 0.98434597
0.79028141 1.00000000 0.88710797
0.59575689 1.00000000 0.73207849
0.39553222 1.00000000 0.54389989
0.21398513 1.00000000 0.34721437
0.07549329 1.00000000 0.16666426
0.00443442 1.00000000 0.02689185
0.95988876 1.00000000 0.98650205
0.79701346 1.00000000 0.89186013
0.60316360 1.00000000 0.73852015
0.40271670 1.00000000 0.55112445
0.22005054 1.00000000 0.35431528
0.07954281 1.00000000 0.17273496
0.00557120 1.00000000 0.03102577
0.05794874 1.00000000 0.00000000
0.19673580 1.00000000 0.00000000
0.61056131 1.00000000 0.74491572
0.40992522 1.00000000 0.55833626
0.22617301 1.00000000 0.36143681
0.08368238 1.00000000 0.17885964
0.00683103 1.00000000 0.03524699
0.05398630 1.00000000 0.00000000
0.19072679 1.00000000 0.00000000
0.37011698 1.00000000 0.00000000
0.56520641 1.00000000 0.00000000
0.23235133 1.00000000 0.36857775
0.08791079 1.00000000 0.18503705
0.00821269 1.00000000 0.03955431
0.05011806 1.00000000 0.00000000
0.18477552 1.00000000 0.00000000
0.36307415 1.00000000 0.00000000
0.55806351 1.00000000 0.00000000
0.74279314 1.00000000 0.00000000
0.89031267 1.00000000 0.00000000
1.00000000 0.08183359 0.09637807
1.00000000 0.14301592 0.17034680
1.00000000 0.21607462 0.25795364
1.00000000 0.29850364 0.35518900
1.00000000 0.38779700 0.45804319
1.00000000 0.48144865 0.56250662
1.00000000 0.57695258 0.66456962
1.00000000 0.67180276 0.76022255
1.00000000 0.76349318 0.84545583
1.00000000 0.21320546 0.25453553
1.00000000 0.29533416 0.35148767
1.00000000 0.38441938 0.45420620
1.00000000 0.47795510 0.55868149
1.00000000 0.57343531 0.66090381
1.00000000 0.66835392 0.75686359
1.00000000 0.76020503 0.84255123
1.00000000 0.84648246 0.91395706
1.00000000 0.92468035 0.96707147
1.00000000 0.38104782 0.45037159
1.00000000 0.47446421 0.55485326
1.00000000 0.56991726 0.65722954
1.00000000 0.66490096 0.75349081
1.00000000 0.75690925 0.83962739
1.00000000 0.84343618 0.91162968
1.00000000 0.92197573 0.96548802
1.00000000 0.99002177 0.99719280
0.87917012 1.00000000 0.94531018
1.00000000 0.56639856 0.65354699
1.00000000 0.66144395 0.75010425
1.00000000 0.75360614 0.83668435
1.00000000 0.84037912 0.90927768
1.00000000 0.91925687 0.96387458
1.00000000 0.98773336 0.99646538
0.88521534 1.00000000 0.94885588
0.70406544 1.00000000 0.82227629
0.50392580 1.00000000 0.64911377
1.00000000 0.75029570 0.83372235
1.00000000 0.83731133 0.90690130
1.00000000 0.91652393 0.96223134
1.00000000 0.98542750 0.99570280
0.89120191 1.00000000 0.95230520
0.71121550 1.00000000 0.82790935
0.51134264 1.00000000 0.65602398
0.31596091 1.00000000 0.46129137
0.14944814 1.00000000 0.26835388
1.00000000 0.91377711 0.96055853
1.00000000 0.98310429 0.99490517
0.89712858 1.00000000 0.95565689
0.71833873 1.00000000 0.83347809
0.51876551 1.00000000 0.66290319
0.32278666 1.00000000 0.46857455
0.15477988 1.00000000 0.27513438
0.03912288 1.00000000 0.10722504
0.00703467 1.00000000 0.00000000
0.90299416 1.00000000 0.95890969
0.72543377 1.00000000 0.83898133
0.52619326 1.00000000 0.66975027
0.32965025 1.00000000 0.47585890
0.16018248 1.00000000 0.28194946
0.04216764 1.00000000 0.11266424
0.00471958 1.00000000 0.00000000
0.10423531 1.00000000 0.00000000
0.26208428 1.00000000 0.00000000
0.53362465 1.00000000 0.67656398
0.33655047 1.00000000 0.48314324
0.16565470 1.00000000 0.28879786
0.04531503 1.00000000 0.11817011
0.00251992 1.00000000 0.00000000
0.09937564 1.00000000 0.00000000
0.25555608 1.00000000 0.00000000
0.44411075 1.00000000 0.00000000
0.63808930 1.00000000 0.00000000
0.17119536 1.00000000 0.29567835
0.04856385 1.00000000 0.12374144
0.00043703 1.00000000 0.00000000
0.09459624 1.00000000 0.00000000
0.24907167 1.00000000 0.00000000
0.43691283 1.00000000 0.00000000
0.63116932 1.00000000 0.00000000
0.80489069 1.00000000 0.00000000
0.93112642 1.00000000 0.00000000
1.00000000 0.10360030 0.12271636
1.00000000 0.16960633 0.20235786
1.00000000 0.24653324 0.29410872
1.00000000 0.33187503 0.39395931
1.00000000 0.42312568 0.49790001
1.00000000 0.51777911 0.60192114
1.00000000 0.61332941 0.70201313
1.00000000 0.70727044 0.79416633
1.00000000 0.79709625 0.87437105
1.00000000 0.24353872 0.29056522
1.00000000 0.32861534 0.39018887
1.00000000 0.41969299 0.49405012
1.00000000 0.51426566 0.59813935
1.00000000 0.60982734 0.69844693
1.00000000 0.70387203 0.79096317
1.00000000 0.79389364 0.87167853
1.00000000 0.87738615 0.93658334
1.00000000 0.95184362 0.98166788
1.00000000 0.41626504 0.49020055
1.00000000 0.51075351 0.59435242
1.00000000 0.60632324 0.69487017
1.00000000 0.70046812 0.78774410
1.00000000 0.79068214 0.86896467
1.00000000 0.87445927 0.93452215
1.00000000 0.94929349 0.98040694
0.97223556 1.00000000 0.99131352
0.81335741 1.00000000 0.90318513
1.00000000 0.60281718 0.69128311
1.00000000 0.69705886 0.78450930
1.00000000 0.78746188 0.86622959
1.00000000 0.87152028 0.93243432
1.00000000 0.94672793 0.97911388
0.97713220 1.00000000 0.99307472
0.81993949 1.00000000 0.90765762
0.62867397 1.00000000 0.76041073
0.42771327 1.00000000 0.57597631
1.00000000 0.78423309 0.86347347
1.00000000 0.86856925 0.93032008
1.00000000 0.94414693 0.97778904
0.98194975 1.00000000 0.99471891
0.82647550 1.00000000 0.91204649
0.63603157 1.00000000 0.76663762
0.43499562 1.00000000 0.58313471
0.24774541 1.00000000 0.38617992
0.09865862 1.00000000 0.20041563
1.00000000 0.94155073 0.97643250
0.98668700 1.00000000 0.99624479
0.83296412 1.00000000 0.91635036
0.64337480 1.00000000 0.77281296
0.44229659 1.00000000 0.59027487
0.25410730 1.00000000 0.39337838
0.10318459 1.00000000 0.20676577
0.01390615 1.00000000 0.05507936
0.03749862 1.00000000 0.00000000
0.83940423 1.00000000 0.92056817
0.65070248 1.00000000 0.77893549
0.44961503 1.00000000 0.59739560
0.26051965 1.00000000 0.40059075
0.10779399 1.00000000 0.21316320
0.01581578 1.00000000 0.05975526
0.03406630 1.00000000 0.00000000
0.15900165 1.00000000 0.00000000
0.33199480 1.00000000 0.00000000
0.45694971 1.00000000 0.60449570
0.26698121 1.00000000 0.40781578
0.11248562 1.00000000 0.21960665
0.01784062 1.00000000 0.06451055
0.03073550 1.00000000 0.00000000
0.15338886 1.00000000 0.00000000
0.32509151 1.00000000 0.00000000
0.51889300 1.00000000 0.00000000
0.70784289 1.00000000 0.00000000
0.11725824 1.00000000 0.22609493
0.01997947 1.00000000 0.06934401
0.02750757 1.00000000 0.00000000
0.14784245 1.00000000 0.00000000
0.31821811 1.00000000 0.00000000
0.51168412 1.00000000 0.00000000
0.70129001 1.00000000 0.00000000
0.86008531 1.00000000 0.00000000
0.96111965 1.00000000 0.00000000
1.00000000 0.12731884 0.15139784
1.00000000 0.19778429 0.23612922
1.00000000 0.27821514 0.33144122
1.00000000 0.36610538 0.43332419
1.00000000 0.45894903 0.53776848
1.00000000 0.55423999 0.64076453
1.00000000 0.64947230 0.73830259
1.00000000 0.74213994 0.82637310
1.00000000 0.82973683 0.90096647
1.00000000 0.27510864 0.32779378
1.00000000 0.36276886 0.42950606
1.00000000 0.45547464 0.53392720
1.00000000 0.55071998 0.63704753
1.00000000 0.64599890 0.73485744
1.00000000 0.73880523 0.82334733
1.00000000 0.82663310 0.89850748
1.00000000 0.90697640 0.95632833
1.00000000 0.97732913 0.99280024
1.00000000 0.45200375 0.53008407
1.00000000 0.54720002 0.63332331
1.00000000 0.64252210 0.73139966
1.00000000 0.73546380 0.82030344
1.00000000 0.82351923 0.89602506
1.00000000 0.90418231 0.95455486
1.00000000 0.97494698 0.99188322
0.91712463 1.00000000 0.96646702
0.74272203 1.00000000 0.85220385
1.00000000 0.63904208 0.72792947
1.00000000 0.73211581 0.81724173
1.00000000 0.82039535 0.89351934
1.00000000 0.90137482 0.95275265
1.00000000 0.97254807 0.99093205
0.92276967 1.00000000 0.96936893
0.74971056 1.00000000 0.85747135
0.55187315 1.00000000 0.69313931
0.35363513 1.00000000 0.50101519
1.00000000 0.81726164 0.89099061
1.00000000 0.89855403 0.95092201
1.00000000 0.97013241 0.98994696
0.92834818 1.00000000 0.97216648
0.75666559 1.00000000 0.86266792
0.55930781 1.00000000 0.69982833
0.36065263 1.00000000 0.50828999
0.18507762 1.00000000 0.31269521
0.05696054 1.00000000 0.13768630
1.00000000 0.96770030 0.98892820
0.93385893 1.00000000 0.97485852
0.76358587 1.00000000 0.86779225
0.56674075 1.00000000 0.70647842
0.36770135 1.00000000 0.51555932
0.19084531 1.00000000 0.31967714
0.06055037 1.00000000 0.14347430
0.00119422 1.00000000 0.01159300
0.07872219 1.00000000 0.00000000
0.77047014 1.00000000 0.87284321
0.57417071 1.00000000 0.71308851
0.37478009 1.00000000 0.52282190
0.19667603 1.00000000 0.32668573
0.06423622 1.00000000 0.14932227
0.00183835 1.00000000 0.01537381
0.07431678 1.00000000 0.00000000
0.22075403 1.00000000 0.00000000
0.40497366 1.00000000 0.00000000
0.38188764 1.00000000 0.53007656
0.20256855 1.00000000 0.33371973
0.06801686 1.00000000 0.15522902
0.00261027 1.00000000 0.01924674
0.06999898 1.00000000 0.00000000
0.21453226 1.00000000 0.00000000
0.39783940 1.00000000 0.00000000
0.59296995 1.00000000 0.00000000
0.77297354 1.00000000 0.00000000
0.07189108 1.00000000 0.16119330
0.00350878 1.00000000 0.02321055
0.06577013 1.00000000 0.00000000
0.20836295 1.00000000 0.00000000
0.39072114 1.00000000 0.00000000
0.58589423 1.00000000 0.00000000
0.76693183 1.00000000 0.00000000
0.90688342 1.00000000 0.00000000
0.97879857 1.00000000 0.00000000
